( Made using CamBam - http://www.cambam.co.uk )
( cnc-legends-2 2020-05-24 05:26:27 )
( Post processor: Mach3-Laser )
G21 G90 G64 G40
G91.1
G0 Z3.0
( Engrave1 )
G17
S1000
G0 X88.25 Y22.75
G0 Z1.3
G1 F300.0 Z-0.1
M11P1
G1 F800.0 X90.75
G3 X92.75 Y24.75 I0.0 J2.0
G1 Y26.25
G1 X91.3358 Y24.8358
M10P1
G0 Z3.0
G0 X98.25 Y41.75
G0 Z1.3
G1 F300.0 Z-0.1
M11P1
G1 F800.0 X101.25 Y45.75
M10P1
G0 Z3.0
G0 X99.125 Y44.5833
G0 Z1.3
G1 F300.0 Z-0.1
M11P1
G1 F800.0 X98.25 Y45.75
M10P1
G0 Z3.0
G0 X100.375 Y42.9167
G0 Z1.3
G1 F300.0 Z-0.1
M11P1
G1 F800.0 X101.25 Y41.75
M10P1
G0 Z3.0
G0 X81.75 Y45.75
G0 Z1.3
G1 F300.0 Z-0.1
M11P1
G1 F800.0 X80.75
G3 Y43.75 I0.0 J-1.0
G2 Y41.75 I0.0 J-1.0
G1 X79.75
M10P1
G0 Z3.0
G0 X63.25
G0 Z1.3
G1 F300.0 Z-0.1
M11P1
G1 F800.0 X60.25 Y43.75
G1 Y41.75
M10P1
G0 Z3.0
G0 X62.5849 Y43.3953
G0 Z1.3
G1 F300.0 Z-0.1
M11P1
G3 F800.0 X62.0 Y45.75 I-0.5849 J1.1047
G1 X60.25
G1 Y44.75
M10P1
G0 Z3.0
G0 X44.25 Y45.75
G0 Z1.3
G1 F300.0 Z-0.1
M11P1
G1 F800.0 X41.25
G1 Y41.75
G1 X44.25
M10P1
G0 Z3.0
G0 X43.25 Y43.75
G0 Z1.3
G1 F300.0 Z-0.1
M11P1
G1 F800.0 X42.25
M10P1
G0 Z3.0
G0 X44.0 Y60.75
G0 Z1.3
G1 F300.0 Z-0.1
M11P1
G1 F800.0 X41.5
G1 Y64.75
M10P1
G0 Z3.0
G0 X42.6676 Y79.7532
G0 Z1.3
G1 F300.0 Z-0.1
M11P1
G3 F800.0 X43.25 Y81.75 I0.0824 J1.0593
G3 X42.25 I-0.5 J0.9375
G3 X42.6676 Y79.7532 I0.5 J-0.9375
M10P1
G0 Z3.0
G0 X61.25 Y79.75
G0 Z1.3
G1 F300.0 Z-0.1
M11P1
G1 F800.0 X62.6984 Y82.0198
G3 X61.254 Y81.6153 I-0.9484 J0.6052
M10P1
G0 Z3.0
G0 X60.25 Y64.75
G0 Z1.3
G1 F300.0 Z-0.1
M11P1
G1 F800.0 Y62.25
G3 X63.25 I1.5 J0.0
G1 Y64.75
M10P1
G0 Z3.0
G0 X81.25
G0 Z1.3
G1 F300.0 Z-0.1
M11P1
G3 F800.0 X80.25 Y63.0179 I1.0 J-1.7321
G1 Y62.4821
G3 X81.25 Y60.75 I2.0 J0.0
M10P1
G0 Z3.0
G0 X84.375 Y64.25
G0 Z1.3
G1 F300.0 Z-0.1
M11P1
G3 F800.0 X85.125 Y65.549 I-0.75 J1.299
G1 Y65.951
G3 X84.375 Y67.25 I-1.5 J0.0
M10P1
G0 Z3.0
G0 X98.25 Y64.75
G0 Z1.3
G1 F300.0 Z-0.1
M11P1
G1 F800.0 X99.75 Y60.75
G1 X101.25 Y64.75
M10P1
G0 Z3.0
G0 X99.0429 Y79.75
G0 Z1.3
G1 F300.0 Z-0.1
M11P1
G3 F800.0 X100.0429 Y80.75 I0.0 J1.0
G1 Y83.75
M10P1
G0 Z3.0
G0 X81.1036 Y82.1036
G0 Z1.3
G1 F300.0 Z-0.1
M11P1
G1 F800.0 X80.3964 Y81.3964
M10P1
G0 Z3.0
G0 X79.3358 Y80.3358
G0 Z1.3
G1 F300.0 Z-0.1
M11P1
G3 F800.0 X79.75 Y80.0179 I1.4142 J1.4142
G3 X82.75 Y81.75 I1.0 J1.7321
G3 X79.75 Y83.4821 I-2.0 J0.0
G3 X79.3358 Y80.3358 I1.0 J-1.7321
M10P1
G0 Z3.0
G0 X129.75 Y80.75
G0 Z1.3
G1 F300.0 Z-0.1
M11P1
G1 F800.0 X127.75
G1 X126.75 Y81.75
G1 X127.75 Y82.75
G1 X129.75
M10P1
G0 Z3.0
G0 X130.25 Y55.25
G0 Z1.3
G1 F300.0 Z-0.1
M11P1
G1 F800.0 Y52.25
G2 X129.25 Y51.25 I-1.0 J0.0
G1 X126.25
G1 X127.6642 Y52.6642
M10P1
G0 Z3.0
G0 X126.75 Y25.75
G0 Z1.3
G1 F300.0 Z-0.1
M11P1
G1 F800.0 X128.75
G1 X129.75 Y24.75
G1 X128.75 Y23.75
G1 X126.75
M10P1
G0 Z3.0
G0 X131.125 Y8.75
G0 Z1.3
G1 F300.0 Z-0.1
M11P1
G2 F800.0 X132.25 I0.5625 J0.0
G3 X133.375 I0.5625 J0.0
M10P1
G0 Z3.0
G0 X128.4441 Y7.3878
G0 Z1.3
G1 F300.0 Z-0.1
M11P1
G1 F800.0 X128.25 Y8.1122
M10P1
G0 Z3.0
G0 X99.0429 Y7.1642
G0 Z1.3
G1 F300.0 Z-0.1
M11P1
G1 F800.0 X100.4571 Y5.75
G1 X99.0429 Y4.3358
M10P1
G0 Z3.0
G0 X82.1642 Y6.4571
G0 Z1.3
G1 F300.0 Z-0.1
M11P1
G1 F800.0 X80.75 Y5.0429
G1 X79.3358 Y6.4571
M10P1
G0 Z3.0
G0 X63.1642 Y5.0429
G0 Z1.3
G1 F300.0 Z-0.1
M11P1
G1 F800.0 X61.75 Y6.4571
G1 X60.3358 Y5.0429
M10P1
G0 Z3.0
G0 X43.4571 Y4.3358
G0 Z1.3
G1 F300.0 Z-0.1
M11P1
G1 F800.0 X42.0429 Y5.75
G1 X43.4571 Y7.1642
M10P1
G0 Z3.0
G0 X42.25 Y22.75
G0 Z1.3
G1 F300.0 Z-0.1
M11P1
G1 F800.0 X43.1875
G3 X43.4297 Y24.847 I0.0 J1.0625
G3 X43.0 Y26.75 I-0.4297 J0.903
G1 X41.25
G1 Y22.75
M10P1
G0 Z3.0
G0 X24.0 Y24.25
G0 Z1.3
G1 F300.0 Z-0.1
M11P1
G3 F800.0 Y26.75 I0.0 J1.25
G1 X22.25
G1 Y25.25
M10P1
G0 Z3.0
G0 Y24.25
G0 Z1.3
G1 F300.0 Z-0.1
M11P1
G1 F800.0 X24.0
M10P1
G0 Z3.0
G0 X22.25
G0 Z0.9
G1 F300.0 Z-0.1
M11P1
G1 F800.0 Y22.75
M10P1
G0 Z3.0
G0 X8.75 Y28.5
G0 Z1.3
G1 F300.0 Z-0.1
M11P1
G1 F800.0 Y29.25
M10P1
G0 Z3.0
G0 X5.25 Y26.75
G0 Z1.3
G1 F300.0 Z-0.1
M11P1
G1 F800.0 Y25.75
M10P1
G0 Z3.0
G0 X4.25
G0 Z1.3
G1 F300.0 Z-0.1
M11P1
G1 F800.0 Y26.75
M10P1
G0 Z3.0
G0 X4.75 Y41.75
G0 Z1.3
G1 F300.0 Z-0.1
M11P1
G1 F800.0 Y41.95
M10P1
G0 Z3.0
G0 X8.5559 Y44.8878
G0 Z1.3
G1 F300.0 Z-0.1
M11P1
G1 F800.0 X8.75 Y45.6122
M10P1
G0 Z3.0
G0 X22.25 Y41.75
G0 Z1.3
G1 F300.0 Z-0.1
M11P1
G1 F800.0 Y45.75
G1 X25.25 Y41.75
G1 Y45.75
M10P1
G0 Z3.0
G0 X23.75 Y60.75
G0 Z1.3
G1 F300.0 Z-0.1
M11P1
G1 F800.0 Y62.75
G1 X22.25 Y64.75
M10P1
G0 Z3.0
G0 X24.3472 Y63.5521
G0 Z1.3
G1 F300.0 Z-0.1
M11P1
G1 F800.0 X25.2724 Y64.7947
M10P1
G0 Z3.0
G0 X23.5 Y79.75
G0 Z1.3
G1 F300.0 Z-0.1
M11P1
G1 F800.0 X25.0 Y83.75
G1 X22.5
M10P1
G0 Z3.0
G0 X5.25
G0 Z1.3
G1 F300.0 Z-0.1
M11P1
G1 F800.0 X3.8016 Y81.4802
G3 X5.246 Y81.8847 I0.9484 J-0.6052
M10P1
G0 Z3.0
G0 X6.75 Y64.75
G0 Z1.3
G1 F300.0 Z-0.1
M11P1
G1 F800.0 X5.75 Y60.75
G1 X4.75 Y62.75
G1 X3.75 Y60.75
G1 X2.75 Y64.75
M10P1
G0 Z3.0
G0 X60.25 Y25.5
G0 Z1.3
G1 F300.0 Z-0.1
M11P1
G1 F800.0 X63.25
M10P1
G0 Z3.0
G0 Y24.0
G0 Z1.3
G1 F300.0 Z-0.1
M11P1
G1 F800.0 X60.25
M10P1
G0 Z3.0
G0 X65.0 Y27.75
G0 Z1.3
G1 F300.0 Z-0.1
M11P1
G1 F800.0 X65.25
M10P1
G0 Z3.0
G0 X65.75 Y28.5
G0 Z1.3
G1 F300.0 Z-0.1
M11P1
G1 F800.0 Y27.0
M10P1
G0 Z3.0
G0 X66.25 Y27.75
G0 Z1.3
G1 F300.0 Z-0.1
M11P1
G1 F800.0 X66.5
M10P1
G0 Z3.0
M30
