( Made using CamBam - http://www.cambam.co.uk )
( cnc-pcb-bottom 2020-05-22 00:03:49 )
( Post processor: Default )
( T0 : 2.0 )
G21 G90 G64 G40
G0 Z3.0
( T0 : 2.0 )
T0 M6
( bottom )
G17
M3 S1000
G0 X254.05 Y8.55
G0 Z1.3
G1 F300.0 Z-0.1
G1 F500.0 Y-3.25
G1 Y11.05
G1 X237.95 Y11.65
G1 Y0.65
G1 X140.05
G1 Y10.65
G1 Y13.5
G1 X148.26
G1 Y7.4982
G1 X140.05
G0 Z3.0
G0 X148.26 Y13.5
G0 Z0.9
G1 F300.0 Z-0.1
G1 F500.0 X149.55 Y24.9134
G1 Y28.6
G1 X147.6182 Y32.5745
G1 X149.55 Y43.4536
G1 Y47.6
G1 Y50.1
G1 X140.55
G1 Y27.15
G1 X130.55
G1 Y28.6
G1 Y30.6541
G1 X123.15
G0 Z3.0
G0 X127.09
G0 Z1.3
G1 F300.0 Z-0.1
G1 F500.0 Y36.4788
G1 X140.55
G0 Z3.0
G0 X149.55 Y43.4536
G0 Z0.9
G1 F300.0 Z-0.1
G1 F500.0 X157.76
G1 Y51.0961
G0 Z3.0
G0 Y56.15
G0 Z1.3
G1 F300.0 Z-0.1
G1 F500.0 Y70.15
G0 Z3.0
G0 X165.4544
G0 Z1.3
G1 F300.0 Z-0.1
G1 F500.0 X165.55 Y61.75
G1 X176.76
G1 Y70.15
G0 Z3.0
G0 X167.4283 Y66.142
G0 Z1.3
G1 F300.0 Z-0.1
G3 F500.0 X165.3 Y66.849 I-1.3783 J-0.592
G3 Y64.251 I0.75 J-1.299
G3 X167.55 Y65.55 I0.75 J1.299
G3 X167.4283 Y66.142 I-1.5 J0.0
G0 Z3.0
G0 X168.55 Y56.15
G0 Z1.3
G1 F300.0 Z-0.1
G1 F500.0 X176.76
G1 Y43.7793
G1 X168.55
G0 Z3.0
G0 Y37.65
G0 Z1.3
G1 F300.0 Z-0.1
G1 F500.0 X227.7312
G1 Y32.15
G1 X168.55
G1 Y23.75
G1 X162.75
G1 Y31.15
G1 Y37.65
G1 X168.55
G0 Z3.0
G0 X162.75
G0 Z0.9
G1 F300.0 Z-0.1
G1 F500.0 X157.76 Y34.1835
G0 Z3.0
G0 Y43.4536
G0 Z0.9
G1 F300.0 Z-0.1
G1 F500.0 Y24.9134
G1 X149.55
G0 Z3.0
G0 X148.905 Y19.2067
G0 Z1.3
G1 F300.0 Z-0.1
G1 F500.0 X155.5378 Y15.2939
G1 X165.55 Y5.75
G1 X176.55
G1 X176.76 Y10.65
G1 Y15.2939
G1 X184.0767
G1 X186.7658 Y5.4976
G1 X195.76 Y6.35
G1 Y15.6407
G1 X201.4255
G1 X205.676 Y6.4512
G1 X214.76
G1 Y15.7274
G1 X221.5502
G1 X223.9791 Y6.6246
G1 X233.76
G1 Y21.8106
G1 X243.97
G1 Y100.91
G1 X239.63 Y100.58
G1 X234.89
G1 Y104.91
G1 X247.31
G1 Y11.3012
G0 Z3.0
G0 X250.84 Y11.1696
G0 Z1.3
G1 F300.0 Z-0.1
G1 F500.0 Y18.6103
G1 X264.45
G0 Z3.0
G0 X250.84
G0 Z0.9
G1 F300.0 Z-0.1
G1 F500.0 Y104.3082
G1 X250.68 Y109.88
G1 X231.08
G1 Y100.58
G1 X234.89
G0 Z3.0
G0 Y102.41
G0 Z1.3
G1 F300.0 Z-0.1
G3 F500.0 X235.39 Y102.91 I0.0 J0.5
G3 X234.64 Y103.343 I-0.5 J0.0
G3 Y102.477 I0.25 J-0.433
G3 X234.89 Y102.41 I0.25 J0.433
G0 Z3.0
G0 X231.08 Y105.23
G0 Z1.3
G1 F300.0 Z-0.1
G1 F500.0 X228.54 Y104.893
G0 Z3.0
G0 X226.0
G0 Z1.3
G1 F300.0 Z-0.1
G1 F500.0 Y109.0322
G1 X222.19
G1 Y110.85
G1 X218.38
G1 Y104.8033
G0 Z3.0
G0 X219.3715 Y103.3252
G0 Z1.3
G1 F300.0 Z-0.1
G3 F500.0 X219.4 Y102.477 I0.2785 J-0.4152
G3 X220.15 Y102.91 I0.25 J0.433
G3 X219.4 Y103.343 I-0.5 J0.0
G3 X219.3715 Y103.3252 I0.25 J-0.433
G0 Z3.0
G0 X215.84 Y104.8033
G0 Z1.3
G1 F300.0 Z-0.1
G1 F500.0 X210.76
G1 Y98.9082
G1 X123.15
G0 Z3.0
G0 X119.15 Y96.9766
G0 Z1.3
G1 F300.0 Z-0.1
G1 F500.0 X115.15
G1 Y28.1106
G1 X119.15
G0 Z3.0
G0 X115.15
G0 Z0.9
G1 F300.0 Z-0.1
G1 F500.0 X109.25 Y26.5753
G0 Z3.0
G0 X106.75 Y35.8528
G0 Z1.3
G1 F300.0 Z-0.1
G1 F500.0 Y54.8528
G1 X63.75
G1 Y52.65
G0 Z3.0
G0 X59.25
G0 Z1.3
G1 F300.0 Z-0.1
G1 F500.0 X47.25
G0 Z3.0
G0 Y48.05
G0 Z1.3
G1 F300.0 Z-0.1
G3 F500.0 X46.5 Y47.849 I0.0 J-1.5
G3 Y45.251 I0.75 J-1.299
G3 X48.75 Y46.55 I0.75 J1.299
G3 X47.25 Y48.05 I-1.5 J0.0
G0 Z3.0
G0 X40.25 Y52.65
G0 Z1.3
G1 F300.0 Z-0.1
G1 F500.0 X30.75 Y54.5789
G0 Z3.0
G0 X22.25 Y50.3761
G0 Z1.3
G1 F300.0 Z-0.1
G1 F500.0 X5.01
G0 Z3.0
G0 Y54.5789
G0 Z1.3
G1 F300.0 Z-0.1
G1 F500.0 X30.75
G1 Y42.75
G0 Z3.0
G0 Y31.3761
G0 Z1.3
G1 F300.0 Z-0.1
G1 F500.0 X1.67
G0 Z3.0
G0 Y35.5789
G0 Z1.3
G1 F300.0 Z-0.1
G1 F500.0 X49.75
G1 Y23.75
G0 Z3.0
G0 Y35.5789
G0 Z0.9
G1 F300.0 Z-0.1
G1 F500.0 X59.25
G1 Y33.1022
G0 Z3.0
G0 X65.75
G0 Z1.3
G1 F300.0 Z-0.1
G1 F500.0 X78.25
G0 Z3.0
G0 X82.75
G0 Z1.3
G1 F300.0 Z-0.1
G1 F500.0 X78.25
G1 Y23.75
G1 X65.75
G1 Y33.1022
G1 X59.25
G1 Y23.75
G1 X38.9886
G1 Y31.3761
G1 X30.75
G1 Y23.75
G1 X1.67
G1 Y104.65
G1 X95.32
G1 Y108.65
G0 Z3.0
G0 Y112.65
G0 Z1.3
G1 F300.0 Z-0.1
G1 F500.0 Y116.65
G1 X-8.35
G1 Y9.8776
G1 X-5.01
G1 Y112.65
G1 X93.32
G1 X95.32
G1 Y108.65
G1 X-1.67
G1 Y19.0556
G1 Y14.3103
G1 X11.3239 Y4.7416
G1 X21.25 Y4.75
G1 Y12.3761
G1 X28.5072
G1 X29.6485 Y4.8049
G1 X40.25 Y6.6427
G1 Y12.3761
G1 X45.8807
G1 X49.4315 Y6.0723
G1 X59.25
G1 Y12.3761
G1 X63.75
G1 Y4.75
G1 X78.25
G1 Y13.6781
G1 X89.2821
G1 Y3.032
G1 X106.75 Y5.5668
G1 Y12.65
G1 X119.15
G0 Z3.0
G0 X109.25
G0 Z1.3
G1 F300.0 Z-0.1
G1 F500.0 Y26.5753
G1 X106.75 Y28.8796
G1 Y35.8528
G1 X82.75
G1 Y23.75
G1 X87.75
G1 Y31.65
G1 X101.75
G1 Y16.8528
G1 X89.2821
G1 Y13.6781
G0 Z3.0
G0 X87.75 Y23.75
G0 Z0.9
G1 F300.0 Z-0.1
G1 F500.0 X97.25
G1 Y31.65
G0 Z3.0
G0 X101.6663 Y35.8528
G0 Z1.3
G1 F300.0 Z-0.1
G1 F500.0 Y50.65
G1 X97.25
G1 Y42.7388
G1 X84.75 Y42.75
G1 Y50.65
G1 X78.25
G1 Y42.75
G1 X63.75
G1 Y52.65
G1 X59.25
G1 Y42.75
G1 X47.25
G1 Y52.65
G1 X40.25
G1 Y42.75
G1 X25.75
G1 Y50.3761
G1 X21.25
G1 Y42.75
G1 X5.01
G1 Y100.65
G1 X95.32
G1 Y104.65
G0 Z3.0
G0 Y100.55
G0 Z1.3
G1 F300.0 Z-0.1
G1 F500.0 Y95.9459
G1 X7.965
G1 Y76.5775
G1 X10.465 Y61.75
G1 X21.25
G1 Y69.65
G1 X28.25
G1 Y61.75
G1 X40.25
G1 Y69.65
G1 X44.75
G1 Y61.75
G1 X59.25
G1 Y69.65
G1 X66.25
G1 Y61.75
G1 X78.25
G1 Y69.65
G1 X85.25
G1 Y61.75
G1 X97.25
G1 Y67.65
G1 Y69.65
G1 X101.75
G1 Y54.8528
G0 Z3.0
G0 X106.75
G0 Z0.9
G1 F300.0 Z-0.1
G1 F500.0 Y73.8528
G1 X44.75
G1 Y69.65
G0 Z3.0
G0 Y73.8528
G0 Z0.9
G1 F300.0 Z-0.1
G1 F500.0 X21.25
G1 Y90.55
G1 X25.75
G1 Y80.75
G1 X40.25
G1 Y90.55
G1 X44.75
G1 Y80.75
G1 X59.25
G1 Y90.55
G1 X63.75
G1 Y80.75
G1 X78.25
G1 Y90.55
G1 X82.75
G1 Y80.75
G1 X97.25
G1 Y90.55
G1 X101.75
G1 Y73.8528
G0 Z3.0
G0 X106.75
G0 Z0.9
G1 F300.0 Z-0.1
G1 F500.0 X115.15 Y78.1294
G0 Z3.0
G0 X106.75 Y73.8528
G0 Z0.9
G1 F300.0 Z-0.1
G1 F500.0 Y96.9766
G1 X115.15
G0 Z3.0
G0 X106.75
G0 Z0.9
G1 F300.0 Z-0.1
G1 F500.0 X95.32 Y95.9459
G0 Z3.0
G0 X97.25 Y90.55
G0 Z0.9
G1 F300.0 Z-0.1
G1 F500.0 X87.75
G1 Y80.75
G0 Z3.0
G0 Y90.55
G0 Z0.9
G1 F300.0 Z-0.1
G1 F500.0 X82.75
G0 Z3.0
G0 X78.25
G0 Z0.9
G1 F300.0 Z-0.1
G1 F500.0 X68.75
G1 Y80.75
G0 Z3.0
G0 Y90.55
G0 Z0.9
G1 F300.0 Z-0.1
G1 F500.0 X63.75
G0 Z3.0
G0 X59.25
G0 Z0.9
G1 F300.0 Z-0.1
G1 F500.0 X49.75
G1 Y80.75
G0 Z3.0
G0 Y90.55
G0 Z0.9
G1 F300.0 Z-0.1
G1 F500.0 X44.75
G0 Z3.0
G0 X40.25
G0 Z0.9
G1 F300.0 Z-0.1
G1 F500.0 X30.75
G1 Y80.75
G0 Z3.0
G0 X21.25 Y83.5303
G0 Z1.3
G1 F300.0 Z-0.1
G1 F500.0 X11.75
G1 Y90.55
G1 X21.25
G0 Z3.0
G0 X25.75
G0 Z0.9
G1 F300.0 Z-0.1
G1 F500.0 Y95.9459
G0 Z3.0
G0 X11.75 Y90.55
G0 Z0.9
G1 F300.0 Z-0.1
G1 F500.0 X7.965 Y95.9459
G0 Z3.0
G0 X11.75 Y83.5303
G0 Z0.9
G1 F300.0 Z-0.1
G1 F500.0 X7.965 Y76.5775
G0 Z3.0
G0 X9.133 Y69.65
G0 Z1.3
G1 F300.0 Z-0.1
G1 F500.0 X21.25
G0 Z3.0
G0 X26.9557 Y66.3081
G0 Z1.3
G1 F300.0 Z-0.1
G3 F500.0 X27.5 Y64.251 I1.2943 J-0.7581
G3 X29.75 Y65.55 I0.75 J1.299
G3 X27.5 Y66.849 I-1.5 J0.0
G3 X26.9557 Y66.3081 I0.75 J-1.299
G0 Z3.0
G0 X28.25 Y69.65
G0 Z0.9
G1 F300.0 Z-0.1
G1 F500.0 X40.25
G0 Z3.0
G0 X49.75 Y61.75
G0 Z1.3
G1 F300.0 Z-0.1
G1 F500.0 Y69.65
G1 X59.25
G0 Z3.0
G0 X64.9557 Y66.3081
G0 Z1.3
G1 F300.0 Z-0.1
G3 F500.0 X65.5 Y64.251 I1.2943 J-0.7581
G3 X67.75 Y65.55 I0.75 J1.299
G3 X65.5 Y66.849 I-1.5 J0.0
G3 X64.9557 Y66.3081 I0.75 J-1.299
G0 Z3.0
G0 X66.25 Y69.65
G0 Z0.9
G1 F300.0 Z-0.1
G1 F500.0 X78.25
G0 Z3.0
G0 X83.9557 Y66.3081
G0 Z1.3
G1 F300.0 Z-0.1
G3 F500.0 X84.5 Y64.251 I1.2943 J-0.7581
G3 X86.75 Y65.55 I0.75 J1.299
G3 X84.5 Y66.849 I-1.5 J0.0
G3 X83.9557 Y66.3081 I0.75 J-1.299
G0 Z3.0
G0 X85.25 Y69.65
G0 Z0.9
G1 F300.0 Z-0.1
G1 F500.0 X97.25
G0 Z3.0
G0 X106.75 Y58.8186
G0 Z1.3
G1 F300.0 Z-0.1
G1 F500.0 X115.15
G0 Z3.0
G0 X126.65 Y56.15
G0 Z1.3
G1 F300.0 Z-0.1
G1 F500.0 Y68.6228
G1 X130.55
G1 Y65.15
G1 X135.55
G1 Y75.15
G1 X187.55
G1 Y61.75
G1 X181.75
G1 Y70.15
G1 X142.5739
G1 Y56.15
G0 Z3.0
G0 X135.55
G0 Z1.3
G1 F300.0 Z-0.1
G1 F500.0 X126.65
G1 Y49.95
G0 Z3.0
G0 X115.15 Y45.3528
G0 Z1.3
G1 F300.0 Z-0.1
G1 F500.0 X106.75
G0 Z3.0
G0 X97.25 Y50.65
G0 Z0.9
G1 F300.0 Z-0.1
G1 F500.0 X84.75
G0 Z3.0
G0 X85.0684 Y48.039
G0 Z1.3
G1 F300.0 Z-0.1
G3 F500.0 X84.5 Y47.849 I0.1816 J-1.489
G3 Y45.251 I0.75 J-1.299
G3 X86.75 Y46.55 I0.75 J1.299
G3 X85.0684 Y48.039 I-1.5 J0.0
G0 Z3.0
G0 X78.25 Y50.65
G0 Z0.9
G1 F300.0 Z-0.1
G1 F500.0 X68.75
G1 Y42.75
G0 Z3.0
G0 X66.4934 Y29.0301
G0 Z1.3
G1 F300.0 Z-0.1
G3 F500.0 X65.5 Y28.849 I-0.2434 J-1.4801
G3 Y26.251 I0.75 J-1.299
G3 X67.75 Y27.55 I0.75 J1.299
G3 X66.4934 Y29.0301 I-1.5 J0.0
G0 Z3.0
G0 X68.75 Y16.5789
G0 Z1.3
G1 F300.0 Z-0.1
G1 F500.0 X78.25 Y13.6781
G0 Z3.0
G0 X68.75 Y4.75
G0 Z1.3
G1 F300.0 Z-0.1
G1 F500.0 Y16.5789
G1 X-1.67
G0 Z3.0
G0 X0.9566 Y12.3761
G0 Z1.3
G1 F300.0 Z-0.1
G1 F500.0 X21.25
G0 Z3.0
G0 X26.9338 Y9.2694
G0 Z1.3
G1 F300.0 Z-0.1
G3 F500.0 X27.5 Y7.251 I1.3162 J-0.7194
G3 X29.75 Y8.55 I0.75 J1.299
G3 X27.5 Y9.849 I-1.5 J0.0
G3 X26.9338 Y9.2694 I0.75 J-1.299
G0 Z3.0
G0 X28.5072 Y12.3761
G0 Z0.9
G1 F300.0 Z-0.1
G1 F500.0 X40.25
G0 Z3.0
G0 X45.8807
G0 Z0.9
G1 F300.0 Z-0.1
G1 F500.0 X59.25
G0 Z3.0
G0 X48.6791 Y9.0057
G0 Z1.3
G1 F300.0 Z-0.1
G3 F500.0 X46.5 Y9.849 I-1.4291 J-0.4557
G3 Y7.251 I0.75 J-1.299
G3 X48.75 Y8.55 I0.75 J1.299
G3 X48.6791 Y9.0057 I-1.5 J0.0
G0 Z3.0
G0 X20.0251 Y26.76
G0 Z1.3
G1 F300.0 Z-0.1
G3 F500.0 X20.25 Y27.55 I-1.2751 J0.79
G3 X18.0 Y28.849 I-1.5 J0.0
G3 Y26.251 I0.75 J-1.299
G3 X20.0251 Y26.76 I0.75 J1.299
G0 Z3.0
G0 X10.0139 Y9.8409
G0 Z1.3
G1 F300.0 Z-0.1
G3 F500.0 X8.5 Y9.849 I-0.7639 J-1.2909
G3 Y7.251 I0.75 J-1.299
G3 X10.75 Y8.55 I0.75 J1.299
G3 X10.0139 Y9.8409 I-1.5 J0.0
G0 Z3.0
G0 X-8.35 Y9.8776
G0 Z0.9
G1 F300.0 Z-0.1
G1 F500.0 Y-3.25
G0 Z3.0
G0 X-18.2322 Y7.4482
G0 Z1.3
G1 F300.0 Z-0.1
G3 F500.0 X-17.75 Y8.55 I-1.0178 J1.1018
G3 X-20.0 Y9.849 I-1.5 J0.0
G3 Y7.251 I0.75 J-1.299
G3 X-18.2322 Y7.4482 I0.75 J1.299
G0 Z3.0
G0 X-22.15 Y23.75
G0 Z1.3
G1 F300.0 Z-0.1
G1 F500.0 X-8.35
G0 Z3.0
G0 X-17.8336 Y27.0562
G0 Z1.3
G1 F300.0 Z-0.1
G3 F500.0 X-17.75 Y27.55 I-1.4164 J0.4938
G3 X-20.0 Y28.849 I-1.5 J0.0
G3 Y26.251 I0.75 J-1.299
G3 X-17.8336 Y27.0562 I0.75 J1.299
G0 Z3.0
G0 X-22.15 Y47.75
G0 Z1.3
G1 F300.0 Z-0.1
G1 F500.0 X-8.35
G0 Z3.0
G0 X-18.7485 Y51.7155
G0 Z1.3
G1 F300.0 Z-0.1
G3 F500.0 X-18.65 Y52.25 I-1.4015 J0.5345
G3 X-20.9 Y53.549 I-1.5 J0.0
G3 Y50.951 I0.75 J-1.299
G3 X-18.7485 Y51.7155 I0.75 J1.299
G0 Z3.0
G0 X7.7749 Y46.8221
G0 Z1.3
G1 F300.0 Z-0.1
G3 F500.0 X8.5 Y45.251 I1.4751 J-0.2721
G3 X10.75 Y46.55 I0.75 J1.299
G3 X8.5 Y47.849 I-1.5 J0.0
G3 X7.7749 Y46.8221 I0.75 J-1.299
G0 Z3.0
G0 X9.1322 Y64.0546
G0 Z1.3
G1 F300.0 Z-0.1
G3 F500.0 X10.75 Y65.55 I0.1178 J1.4954
G3 X8.5 Y66.849 I-1.5 J0.0
G3 Y64.251 I0.75 J-1.299
G3 X9.1322 Y64.0546 I0.75 J1.299
G0 Z3.0
G0 X-8.35 Y79.8335
G0 Z1.3
G1 F300.0 Z-0.1
G1 F500.0 X-22.15
G0 Z3.0
G0 X-20.0357 Y83.2722
G0 Z1.3
G1 F300.0 Z-0.1
G3 F500.0 X-20.0 Y83.251 I0.7857 J1.2778
G3 X-17.75 Y84.55 I0.75 J1.299
G3 X-20.0 Y85.849 I-1.5 J0.0
G3 X-20.0357 Y83.2722 I0.75 J-1.299
G0 Z3.0
G0 X-22.15 Y100.55
G0 Z1.3
G1 F300.0 Z-0.1
G1 F500.0 X-8.35
G0 Z3.0
G0 X123.15 Y106.41
G0 Z1.3
G1 F300.0 Z-0.1
G1 F500.0 X210.76
G1 Y104.8033
G0 Z3.0
G0 X209.7685 Y103.3252
G0 Z1.3
G1 F300.0 Z-0.1
G3 F500.0 X209.24 Y103.343 I-0.2785 J-0.4152
G3 Y102.477 I0.25 J-0.433
G3 X209.99 Y102.91 I0.25 J0.433
G3 X209.7685 Y103.3252 I-0.5 J0.0
G0 Z3.0
G0 X211.5382 Y103.0003
G0 Z1.3
G1 F300.0 Z-0.1
G3 F500.0 X211.78 Y102.477 I0.4918 J-0.0903
G3 X212.53 Y102.91 I0.25 J0.433
G3 X211.78 Y103.343 I-0.5 J0.0
G3 X211.5382 Y103.0003 I0.25 J-0.433
G0 Z3.0
G0 X208.22 Y106.41
G0 Z1.3
G1 F300.0 Z-0.1
G1 F500.0 Y108.3641
G0 Z3.0
G0 X207.1775 Y110.4047
G0 Z1.3
G1 F300.0 Z-0.1
G3 F500.0 X207.45 Y110.85 I-0.2275 J0.4453
G3 X206.7 Y111.283 I-0.5 J0.0
G3 Y110.417 I0.25 J-0.433
G3 X207.1775 Y110.4047 I0.25 J0.433
G0 Z3.0
G0 X210.76 Y108.3641
G0 Z1.3
G1 F300.0 Z-0.1
G1 F500.0 X208.22
G1 Y111.85
G1 X202.4729
G1 Y110.625
G1 X194.4158
G1 Y115.0
G0 Z3.0
G0 X196.6415 Y111.4708
G0 Z1.3
G1 F300.0 Z-0.1
G3 F500.0 X196.675 Y109.759 I0.5335 J-0.8458
G3 X198.175 Y110.625 I0.5 J0.866
G3 X196.675 Y111.491 I-1.0 J0.0
G3 X196.6415 Y111.4708 I0.5 J-0.866
G0 Z3.0
G0 X188.1728 Y118.5
G0 Z1.3
G1 F300.0 Z-0.1
G1 F500.0 Y115.0
G1 X210.76
G1 Y113.985
G1 X214.57
G1 F300.0 Y114.35
G1 F500.0 Y118.5
G1 X175.8248
G1 Y110.375
G1 X147.545
G1 Y106.41
G0 Z3.0
G0 X142.1224
G0 Z1.3
G1 F300.0 Z-0.1
G1 F500.0 Y114.875
G1 X165.0697
G1 Y121.75
G0 Z3.0
G0 X150.4594 Y115.2799
G0 Z1.3
G1 F300.0 Z-0.1
G3 F500.0 X149.045 Y115.741 I-0.9144 J-0.4049
G3 Y114.009 I0.5 J-0.866
G3 X150.545 Y114.875 I0.5 J0.866
G3 X150.4594 Y115.2799 I-1.0 J0.0
G0 Z3.0
G0 X146.0422 Y114.9496
G0 Z1.3
G1 F300.0 Z-0.1
G3 F500.0 X144.545 Y115.741 I-0.9972 J-0.0746
G3 Y114.009 I0.5 J-0.866
G3 X146.045 Y114.875 I0.5 J0.866
G3 X146.0422 Y114.9496 I-1.0 J0.0
G0 Z3.0
G0 X139.5178 Y102.9771
G0 Z1.3
G1 F300.0 Z-0.1
G3 F500.0 X138.05 Y102.959 I-0.7178 J-1.3171
G3 Y100.361 I0.75 J-1.299
G3 X140.3 Y101.66 I0.75 J1.299
G3 X139.5178 Y102.9771 I-1.5 J0.0
G0 Z3.0
G0 X138.882 Y99.1532
G0 Z1.3
G1 F300.0 Z-0.1
G3 F500.0 X138.55 Y99.093 I-0.082 J-0.4932
G3 Y98.227 I0.25 J-0.433
G3 X139.3 Y98.66 I0.25 J0.433
G3 X138.882 Y99.1532 I-0.5 J0.0
G0 Z3.0
G0 X135.55 Y95.15
G0 Z1.3
G1 F300.0 Z-0.1
G1 F500.0 X126.65
G1 Y87.6228
G0 Z3.0
G0 Y75.15
G0 Z1.3
G1 F300.0 Z-0.1
G1 F500.0 Y87.6228
G1 X130.55
G1 Y84.15
G1 X135.55
G1 Y95.15
G1 X206.55
G1 Y80.75
G1 X200.75
G1 Y91.206
G1 X139.55
G1 Y75.15
G0 Z3.0
G0 X135.55
G0 Z0.9
G1 F300.0 Z-0.1
G1 F500.0 X126.65
G1 Y68.6228
G0 Z3.0
G0 X145.5667 Y65.7734
G0 Z1.3
G1 F300.0 Z-0.1
G3 F500.0 X146.3 Y64.251 I1.4833 J-0.2234
G3 X148.55 Y65.55 I0.75 J1.299
G3 X146.3 Y66.849 I-1.5 J0.0
G3 X145.5667 Y65.7734 I0.75 J-1.299
G0 Z3.0
G0 X149.55 Y80.75
G0 Z1.3
G1 F300.0 Z-0.1
G1 F500.0 Y91.206
G0 Z3.0
G0 X144.55
G0 Z1.3
G1 F300.0 Z-0.1
G1 F500.0 Y80.75
G1 X157.76
G1 Y91.206
G0 Z3.0
G0 X162.75
G0 Z1.3
G1 F300.0 Z-0.1
G1 F500.0 Y80.75
G1 X176.76
G1 Y91.206
G0 Z3.0
G0 X181.75
G0 Z1.3
G1 F300.0 Z-0.1
G1 F500.0 Y80.75
G1 X195.76
G1 Y91.206
G0 Z3.0
G0 X187.55
G0 Z1.3
G1 F300.0 Z-0.1
G1 F500.0 Y80.75
G0 Z3.0
G0 Y75.15
G0 Z0.9
G1 F300.0 Z-0.1
G1 F500.0 X195.76
G1 Y61.75
G1 X187.55
G0 Z3.0
G0 X181.75 Y56.15
G0 Z1.3
G1 F300.0 Z-0.1
G1 F500.0 X225.425 Y56.65
G1 Y51.15
G1 X187.55
G1 Y43.75
G1 X181.75
G1 Y56.15
G1 X176.76
G0 Z3.0
G0 X187.55 Y43.75
G0 Z0.9
G1 F300.0 Z-0.1
G1 F500.0 X195.76
G1 Y51.15
G0 Z3.0
G0 X203.1961
G0 Z1.3
G1 F300.0 Z-0.1
G1 F500.0 Y44.4038
G1 X214.76
G1 Y51.15
G0 Z3.0
G0 X221.7384 Y47.2778
G0 Z1.3
G1 F300.0 Z-0.1
G3 F500.0 X222.3 Y45.251 I1.3116 J-0.7278
G3 X224.55 Y46.55 I0.75 J1.299
G3 X222.3 Y47.849 I-1.5 J0.0
G3 X221.7384 Y47.2778 I0.75 J-1.299
G0 Z3.0
G0 X225.425 Y51.15
G0 Z0.9
G1 F300.0 Z-0.1
G1 F500.0 Y44.4741
G1 X233.76
G1 Y56.65
G1 X225.425
G0 Z3.0
G0 X223.4367 Y64.1007
G0 Z1.3
G1 F300.0 Z-0.1
G3 F500.0 X224.55 Y65.55 I-0.3867 J1.4493
G3 X222.3 Y66.849 I-1.5 J0.0
G3 Y64.251 I0.75 J-1.299
G3 X223.4367 Y64.1007 I0.75 J1.299
G0 Z3.0
G0 X225.3891 Y64.9597
G0 Z1.3
G1 F300.0 Z-0.1
G1 F500.0 Y75.65
G1 X222.8
G1 X200.75 Y75.15
G0 Z3.0
G0 X195.76
G0 Z0.9
G1 F300.0 Z-0.1
G1 F500.0 X200.75
G1 Y61.75
G1 X214.76
G1 Y69.15
G1 Y70.15
G1 X221.0863
G1 X228.05 Y61.75
G1 X233.76
G1 X233.95 Y94.25
G1 X226.0
G1 Y104.893
G1 X228.54
G1 Y97.25
G1 X237.29
G1 Y56.65
G1 X233.76
G0 Z3.0
G0 X250.84 Y60.1763
G0 Z1.3
G1 F300.0 Z-0.1
G1 F500.0 X264.45 Y59.25
G0 Z3.0
G0 X252.8979 Y64.8917
G0 Z1.3
G1 F300.0 Z-0.1
G3 F500.0 X253.05 Y65.55 I-1.3479 J0.6583
G3 X250.8 Y66.849 I-1.5 J0.0
G3 Y64.251 I0.75 J-1.299
G3 X252.8979 Y64.8917 I0.75 J1.299
G0 Z3.0
G0 X250.84 Y79.7723
G0 Z1.3
G1 F300.0 Z-0.1
G1 F500.0 X264.45
G0 Z3.0
G0 X252.9566 Y84.029
G0 Z1.3
G1 F300.0 Z-0.1
G3 F500.0 X253.05 Y84.55 I-1.4066 J0.521
G3 X250.8 Y85.849 I-1.5 J0.0
G3 Y83.251 I0.75 J-1.299
G3 X252.9566 Y84.029 I0.75 J1.299
G0 Z3.0
G0 X250.84 Y97.2203
G0 Z1.3
G1 F300.0 Z-0.1
G1 F500.0 X264.45
G0 Z3.0
G0 Y104.3082
G0 Z1.3
G1 F300.0 Z-0.1
G1 F500.0 X258.5642
G0 Z3.0
G0 X250.84
G0 Z0.9
G1 F300.0 Z-0.1
G1 F500.0 X258.5642
G1 Y107.91
G1 X252.1242 Y114.35
G1 X214.57
G1 Y108.3641
G1 X218.38
G0 Z3.0
G0 X214.57
G0 Z0.9
G1 F300.0 Z-0.1
G1 F500.0 X210.76
G1 Y113.985
G0 Z3.0
G0 X214.1839 Y111.1677
G0 Z1.3
G1 F300.0 Z-0.1
G3 F500.0 X214.32 Y110.417 I0.3861 J-0.3177
G3 X215.07 Y110.85 I0.25 J0.433
G3 X214.32 Y111.283 I-0.5 J0.0
G3 X214.1839 Y111.1677 I0.25 J-0.433
G0 Z3.0
G0 X222.19 Y110.985
G0 Z1.3
G1 F300.0 Z-0.1
G1 F500.0 X245.4563
G1 X250.68 Y109.88
G0 Z3.0
G0 X254.6371 Y111.8371
G0 Z1.3
G1 F300.0 Z-0.1
G1 F500.0 X256.8013 Y114.0013
G1 X264.45 Y110.1094
G0 Z3.0
G0 X256.8013 Y114.0013
G0 Z0.9
G1 F300.0 Z-0.1
G1 F500.0 X251.8721 Y121.75
G0 Z3.0
G0 X228.4942 Y120.8024
G0 Z1.3
G1 F300.0 Z-0.1
G3 F500.0 X226.995 Y121.628 I-0.9992 J-0.0405
G3 Y119.8959 I0.5 J-0.866
G3 X228.495 Y120.7619 I0.5 J0.866
G3 X228.4942 Y120.8024 I-1.0 J0.0
G0 Z3.0
G0 X224.7503 Y117.851
G0 Z1.3
G1 F300.0 Z-0.1
G3 F500.0 X223.465 Y118.098 I-0.7853 J-0.6191
G3 Y116.3659 I0.5 J-0.866
G3 X224.965 Y117.2319 I0.5 J0.866
G3 X224.7503 Y117.851 I-1.0 J0.0
G0 Z3.0
G0 X222.19 Y110.985
G0 Z0.9
G1 F300.0 Z-0.1
G1 F500.0 Y110.85
G0 Z3.0
G0 X215.84 Y95.15
G0 Z1.3
G1 F300.0 Z-0.1
G1 F500.0 X206.55
G0 Z3.0
G0 X204.5429 Y102.428
G0 Z1.3
G1 F300.0 Z-0.1
G3 F500.0 X204.91 Y102.91 I-0.1329 J0.482
G3 X204.16 Y103.343 I-0.5 J0.0
G3 Y102.477 I0.25 J-0.433
G3 X204.5429 Y102.428 I0.25 J0.433
G0 Z3.0
G0 X219.75 Y91.25
G0 Z1.3
G1 F300.0 Z-0.1
G1 F500.0 Y90.2619
G0 Z3.0
G0 X225.55 Y91.25
G0 Z1.3
G1 F300.0 Z-0.1
G1 F500.0 Y80.75
G0 Z3.0
G0 X225.3891 Y75.65
G0 Z0.9
G1 F300.0 Z-0.1
G1 F500.0 X233.855
G0 Z3.0
G0 X230.55 Y84.15
G0 Z1.3
G1 F300.0 Z-0.1
G1 F500.0 X228.05
G1 Y80.75
G1 X219.75
G1 Y90.2619
G1 X214.76
G1 Y80.75
G1 X206.55
G0 Z3.0
G0 X214.76 Y70.15
G0 Z0.9
G1 F300.0 Z-0.1
G1 F500.0 X206.55
G1 Y61.75
G0 Z3.0
G0 X204.2934 Y48.0301
G0 Z1.3
G1 F300.0 Z-0.1
G3 F500.0 X203.3 Y47.849 I-0.2434 J-1.4801
G3 Y45.251 I0.75 J-1.299
G3 X205.55 Y46.55 I0.75 J1.299
G3 X204.2934 Y48.0301 I-1.5 J0.0
G0 Z3.0
G0 X208.0457 Y32.15
G0 Z1.3
G1 F300.0 Z-0.1
G1 F500.0 X213.05 Y24.75
G1 X224.26
G1 Y32.15
G0 Z3.0
G0 X227.7312 Y34.9
G0 Z1.3
G1 F300.0 Z-0.1
G1 F500.0 X240.63
G1 Y99.58
G1 X240.4846 Y100.645
G0 Z3.0
G0 X226.0 Y94.25
G0 Z0.9
G1 F300.0 Z-0.1
G1 F500.0 X219.425
G1 Y104.8033
G1 X218.38
G1 X215.84
G1 Y91.25
G1 X230.55
G1 Y84.15
G0 Z3.0
G0 X250.8186 Y47.8596
G0 Z1.3
G1 F300.0 Z-0.1
G3 F500.0 X250.8 Y47.849 I0.7314 J-1.3096
G3 Y45.251 I0.75 J-1.299
G3 X253.05 Y46.55 I0.75 J1.299
G3 X250.8186 Y47.8596 I-1.5 J0.0
G0 Z3.0
G0 X250.84 Y40.4346
G0 Z1.3
G1 F300.0 Z-0.1
G1 F500.0 X264.45
G0 Z3.0
G0 X252.6113 Y28.61
G0 Z1.3
G1 F300.0 Z-0.1
G3 F500.0 X250.8 Y28.849 I-1.0613 J-1.06
G3 Y26.251 I0.75 J-1.299
G3 X253.05 Y27.55 I0.75 J1.299
G3 X252.6113 Y28.61 I-1.5 J0.0
G0 Z3.0
G0 X233.76 Y17.7
G0 Z1.3
G1 F300.0 Z-0.1
G1 F500.0 X222.9775
G1 X221.5502 Y15.7274
G0 Z3.0
G0 X222.7432 Y10.0183
G0 Z1.3
G1 F300.0 Z-0.1
G3 F500.0 X222.3 Y9.849 I0.3068 J-1.4683
G3 Y7.251 I0.75 J-1.299
G3 X224.55 Y8.55 I0.75 J1.299
G3 X222.7432 Y10.0183 I-1.5 J0.0
G0 Z3.0
G0 X214.76 Y15.6407
G0 Z1.3
G1 F300.0 Z-0.1
G1 F500.0 X201.4255
G0 Z3.0
G0 X195.76 Y15.2939
G0 Z1.3
G1 F300.0 Z-0.1
G1 F500.0 X184.0767
G0 Z3.0
G0 X184.8357 Y10.0346
G0 Z1.3
G1 F300.0 Z-0.1
G3 F500.0 X184.3 Y9.849 I0.2143 J-1.4846
G3 Y7.251 I0.75 J-1.299
G3 X186.55 Y8.55 I0.75 J1.299
G3 X184.8357 Y10.0346 I-1.5 J0.0
G0 Z3.0
G0 X176.76 Y15.2939
G0 Z0.9
G1 F300.0 Z-0.1
G1 F500.0 X155.5378
G0 Z3.0
G0 X164.7875 Y9.36
G0 Z1.3
G1 F300.0 Z-0.1
G3 F500.0 X165.3 Y7.251 I1.2625 J-0.81
G3 X167.55 Y8.55 I0.75 J1.299
G3 X165.3 Y9.849 I-1.5 J0.0
G3 X164.7875 Y9.36 I0.75 J-1.299
G0 Z3.0
G0 X168.55 Y23.75
G0 Z0.9
G1 F300.0 Z-0.1
G1 F500.0 X176.55
G1 Y32.15
G0 Z3.0
G0 X184.3915
G0 Z1.3
G1 F300.0 Z-0.1
G1 F500.0 Y24.7374
G1 X195.3915
G1 X195.76 Y26.937
G1 Y32.15
G0 Z3.0
G0 X186.4283 Y28.142
G0 Z1.3
G1 F300.0 Z-0.1
G3 F500.0 X184.3 Y28.849 I-1.3783 J-0.592
G3 Y26.251 I0.75 J-1.299
G3 X186.55 Y27.55 I0.75 J1.299
G3 X186.4283 Y28.142 I-1.5 J0.0
G0 Z3.0
G0 X203.0469 Y9.6653
G0 Z1.3
G1 F300.0 Z-0.1
G3 F500.0 X203.3 Y7.251 I1.0031 J-1.1153
G3 X205.55 Y8.55 I0.75 J1.299
G3 X203.3 Y9.849 I-1.5 J0.0
G3 X203.0469 Y9.6653 I0.75 J-1.299
G0 Z3.0
G0 X212.7904 Y26.2566
G0 Z1.3
G1 F300.0 Z-0.1
G3 F500.0 X212.8 Y26.251 I0.7596 J1.2934
G3 X215.05 Y27.55 I0.75 J1.299
G3 X212.8 Y28.849 I-1.5 J0.0
G3 X212.7904 Y26.2566 I0.75 J-1.299
G0 Z3.0
G0 X149.55 Y50.1
G0 Z0.9
G1 F300.0 Z-0.1
G1 F500.0 Y51.0961
G1 X162.75
G1 Y43.7793
G1 X168.55
G1 Y56.15
G1 X135.55
G1 Y46.2074
G1 X130.55
G1 Y49.95
G1 X126.65
G1 Y36.4788
G1 X127.09
G0 Z3.0
G0 X106.75 Y12.65
G0 Z0.9
G1 F300.0 Z-0.1
G1 F500.0 X97.25
G1 Y4.1883
G0 Z3.0
G0 X168.55 Y80.75
G0 Z1.3
G1 F300.0 Z-0.1
G1 F500.0 Y91.206
( Drill2 )
S1000
G0 Z3.0
G0 X256.55 Y4.75
G0 Z3.0
G0 X257.155 Y4.75
G0 Z1.0
G1 F500.0 Z0.0
G2 F800.0 X256.2475 Y4.2261 Z-0.1333 I-0.605 J0.0
G2 Y5.2739 Z-0.2667 I0.3025 J0.5239
G2 X257.155 Y4.75 Z-0.4 I0.3025 J-0.5239
G2 X256.2475 Y4.2261 Z-0.5333 I-0.605 J0.0
G2 Y5.2739 Z-0.6667 I0.3025 J0.5239
G2 X257.155 Y4.75 Z-0.8 I0.3025 J-0.5239
G2 X256.2475 Y4.2261 Z-0.9333 I-0.605 J0.0
G2 Y5.2739 Z-1.0667 I0.3025 J0.5239
G2 X257.155 Y4.75 Z-1.2 I0.3025 J-0.5239
G2 X256.2475 Y4.2261 Z-1.3333 I-0.605 J0.0
G2 Y5.2739 Z-1.4667 I0.3025 J0.5239
G2 X256.9778 Y5.1778 Z-1.55 I0.3025 J-0.5239
G2 X256.7066 Y4.1656 I-0.4278 J-0.4278
G2 X255.9656 Y4.9066 I-0.1566 J0.5844
G2 X256.9778 Y5.1778 I0.5844 J-0.1566
G0 Z3.0
G0 X262.055 Y4.75
G0 Z1.0
G1 F500.0 Z0.0
G2 F800.0 X262.0475 Y4.7457 Z-0.1333 I-0.005 J0.0
G2 Y4.7543 Z-0.2667 I0.0025 J0.0043
G2 X262.055 Y4.75 Z-0.4 I0.0025 J-0.0043
G2 X262.0475 Y4.7457 Z-0.5333 I-0.005 J0.0
G2 Y4.7543 Z-0.6667 I0.0025 J0.0043
G2 X262.055 Y4.75 Z-0.8 I0.0025 J-0.0043
G2 X262.0475 Y4.7457 Z-0.9333 I-0.005 J0.0
G2 Y4.7543 Z-1.0667 I0.0025 J0.0043
G2 X262.055 Y4.75 Z-1.2 I0.0025 J-0.0043
G2 X262.0475 Y4.7457 Z-1.3333 I-0.005 J0.0
G2 Y4.7543 Z-1.4667 I0.0025 J0.0043
G2 X262.0535 Y4.7535 Z-1.55 I0.0025 J-0.0043
G2 X262.0513 Y4.7452 I-0.0035 J-0.0035
G2 X262.0452 Y4.7513 I-0.0013 J0.0048
G2 X262.0535 Y4.7535 I0.0048 J-0.0013
G0 Z3.0
G0 X256.555 Y10.65
G0 Z1.0
G1 F500.0 Z0.0
G2 F800.0 X256.5475 Y10.6457 Z-0.1333 I-0.005 J0.0
G2 Y10.6543 Z-0.2667 I0.0025 J0.0043
G2 X256.555 Y10.65 Z-0.4 I0.0025 J-0.0043
G2 X256.5475 Y10.6457 Z-0.5333 I-0.005 J0.0
G2 Y10.6543 Z-0.6667 I0.0025 J0.0043
G2 X256.555 Y10.65 Z-0.8 I0.0025 J-0.0043
G2 X256.5475 Y10.6457 Z-0.9333 I-0.005 J0.0
G2 Y10.6543 Z-1.0667 I0.0025 J0.0043
G2 X256.555 Y10.65 Z-1.2 I0.0025 J-0.0043
G2 X256.5475 Y10.6457 Z-1.3333 I-0.005 J0.0
G2 Y10.6543 Z-1.4667 I0.0025 J0.0043
G2 X256.5535 Y10.6535 Z-1.55 I0.0025 J-0.0043
G2 X256.5513 Y10.6452 I-0.0035 J-0.0035
G2 X256.5452 Y10.6513 I-0.0013 J0.0048
G2 X256.5535 Y10.6535 I0.0048 J-0.0013
G0 Z3.0
G0 X251.555 Y8.55
G0 Z1.0
G1 F500.0 Z0.0
G2 F800.0 X251.5475 Y8.5457 Z-0.1333 I-0.005 J0.0
G2 Y8.5543 Z-0.2667 I0.0025 J0.0043
G2 X251.555 Y8.55 Z-0.4 I0.0025 J-0.0043
G2 X251.5475 Y8.5457 Z-0.5333 I-0.005 J0.0
G2 Y8.5543 Z-0.6667 I0.0025 J0.0043
G2 X251.555 Y8.55 Z-0.8 I0.0025 J-0.0043
G2 X251.5475 Y8.5457 Z-0.9333 I-0.005 J0.0
G2 Y8.5543 Z-1.0667 I0.0025 J0.0043
G2 X251.555 Y8.55 Z-1.2 I0.0025 J-0.0043
G2 X251.5475 Y8.5457 Z-1.3333 I-0.005 J0.0
G2 Y8.5543 Z-1.4667 I0.0025 J0.0043
G2 X251.5535 Y8.5535 Z-1.55 I0.0025 J-0.0043
G2 X251.5513 Y8.5452 I-0.0035 J-0.0035
G2 X251.5452 Y8.5513 I-0.0013 J0.0048
G2 X251.5535 Y8.5535 I0.0048 J-0.0013
G0 Z3.0
G0 X251.055 Y4.75
G0 Z1.0
G1 F500.0 Z0.0
G2 F800.0 X251.0475 Y4.7457 Z-0.1333 I-0.005 J0.0
G2 Y4.7543 Z-0.2667 I0.0025 J0.0043
G2 X251.055 Y4.75 Z-0.4 I0.0025 J-0.0043
G2 X251.0475 Y4.7457 Z-0.5333 I-0.005 J0.0
G2 Y4.7543 Z-0.6667 I0.0025 J0.0043
G2 X251.055 Y4.75 Z-0.8 I0.0025 J-0.0043
G2 X251.0475 Y4.7457 Z-0.9333 I-0.005 J0.0
G2 Y4.7543 Z-1.0667 I0.0025 J0.0043
G2 X251.055 Y4.75 Z-1.2 I0.0025 J-0.0043
G2 X251.0475 Y4.7457 Z-1.3333 I-0.005 J0.0
G2 Y4.7543 Z-1.4667 I0.0025 J0.0043
G2 X251.0535 Y4.7535 Z-1.55 I0.0025 J-0.0043
G2 X251.0513 Y4.7452 I-0.0035 J-0.0035
G2 X251.0452 Y4.7513 I-0.0013 J0.0048
G2 X251.0535 Y4.7535 I0.0048 J-0.0013
G0 Z3.0
G0 X243.305 Y0.0
G0 Z1.0
G1 F500.0 Z0.0
G2 F800.0 X241.7975 Y-0.8704 Z-0.1333 I-1.005 J0.0
G2 Y0.8704 Z-0.2667 I0.5025 J0.8704
G2 X243.305 Y0.0 Z-0.4 I0.5025 J-0.8704
G2 X241.7975 Y-0.8704 Z-0.5333 I-1.005 J0.0
G2 Y0.8704 Z-0.6667 I0.5025 J0.8704
G2 X243.305 Y0.0 Z-0.8 I0.5025 J-0.8704
G2 X241.7975 Y-0.8704 Z-0.9333 I-1.005 J0.0
G2 Y0.8704 Z-1.0667 I0.5025 J0.8704
G2 X243.305 Y0.0 Z-1.2 I0.5025 J-0.8704
G2 X241.7975 Y-0.8704 Z-1.3333 I-1.005 J0.0
G2 Y0.8704 Z-1.4667 I0.5025 J0.8704
G2 X243.0106 Y0.7106 Z-1.55 I0.5025 J-0.8704
G2 X242.5601 Y-0.9708 I-0.7106 J-0.7106
G2 X241.3292 Y0.2601 I-0.2601 J0.9708
G2 X243.0106 Y0.7106 I0.9708 J-0.2601
G0 Z3.0
G0 X233.555 Y4.75
G0 Z1.0
G1 F500.0 Z0.0
G2 F800.0 X233.5475 Y4.7457 Z-0.1333 I-0.005 J0.0
G2 Y4.7543 Z-0.2667 I0.0025 J0.0043
G2 X233.555 Y4.75 Z-0.4 I0.0025 J-0.0043
G2 X233.5475 Y4.7457 Z-0.5333 I-0.005 J0.0
G2 Y4.7543 Z-0.6667 I0.0025 J0.0043
G2 X233.555 Y4.75 Z-0.8 I0.0025 J-0.0043
G2 X233.5475 Y4.7457 Z-0.9333 I-0.005 J0.0
G2 Y4.7543 Z-1.0667 I0.0025 J0.0043
G2 X233.555 Y4.75 Z-1.2 I0.0025 J-0.0043
G2 X233.5475 Y4.7457 Z-1.3333 I-0.005 J0.0
G2 Y4.7543 Z-1.4667 I0.0025 J0.0043
G2 X233.5535 Y4.7535 Z-1.55 I0.0025 J-0.0043
G2 X233.5513 Y4.7452 I-0.0035 J-0.0035
G2 X233.5452 Y4.7513 I-0.0013 J0.0048
G2 X233.5535 Y4.7535 I0.0048 J-0.0013
G0 Z3.0
G0 X228.655 Y4.75
G0 Z1.0
G1 F500.0 Z0.0
G2 F800.0 X227.7475 Y4.2261 Z-0.1333 I-0.605 J0.0
G2 Y5.2739 Z-0.2667 I0.3025 J0.5239
G2 X228.655 Y4.75 Z-0.4 I0.3025 J-0.5239
G2 X227.7475 Y4.2261 Z-0.5333 I-0.605 J0.0
G2 Y5.2739 Z-0.6667 I0.3025 J0.5239
G2 X228.655 Y4.75 Z-0.8 I0.3025 J-0.5239
G2 X227.7475 Y4.2261 Z-0.9333 I-0.605 J0.0
G2 Y5.2739 Z-1.0667 I0.3025 J0.5239
G2 X228.655 Y4.75 Z-1.2 I0.3025 J-0.5239
G2 X227.7475 Y4.2261 Z-1.3333 I-0.605 J0.0
G2 Y5.2739 Z-1.4667 I0.3025 J0.5239
G2 X228.4778 Y5.1778 Z-1.55 I0.3025 J-0.5239
G2 X228.2066 Y4.1656 I-0.4278 J-0.4278
G2 X227.4656 Y4.9066 I-0.1566 J0.5844
G2 X228.4778 Y5.1778 I0.5844 J-0.1566
G0 Z3.0
G0 X222.555 Y4.75
G0 Z1.0
G1 F500.0 Z0.0
G2 F800.0 X222.5475 Y4.7457 Z-0.1333 I-0.005 J0.0
G2 Y4.7543 Z-0.2667 I0.0025 J0.0043
G2 X222.555 Y4.75 Z-0.4 I0.0025 J-0.0043
G2 X222.5475 Y4.7457 Z-0.5333 I-0.005 J0.0
G2 Y4.7543 Z-0.6667 I0.0025 J0.0043
G2 X222.555 Y4.75 Z-0.8 I0.0025 J-0.0043
G2 X222.5475 Y4.7457 Z-0.9333 I-0.005 J0.0
G2 Y4.7543 Z-1.0667 I0.0025 J0.0043
G2 X222.555 Y4.75 Z-1.2 I0.0025 J-0.0043
G2 X222.5475 Y4.7457 Z-1.3333 I-0.005 J0.0
G2 Y4.7543 Z-1.4667 I0.0025 J0.0043
G2 X222.5535 Y4.7535 Z-1.55 I0.0025 J-0.0043
G2 X222.5513 Y4.7452 I-0.0035 J-0.0035
G2 X222.5452 Y4.7513 I-0.0013 J0.0048
G2 X222.5535 Y4.7535 I0.0048 J-0.0013
G0 Z3.0
G0 X223.055 Y8.55
G0 Z1.0
G1 F500.0 Z0.0
G2 F800.0 X223.0475 Y8.5457 Z-0.1333 I-0.005 J0.0
G2 Y8.5543 Z-0.2667 I0.0025 J0.0043
G2 X223.055 Y8.55 Z-0.4 I0.0025 J-0.0043
G2 X223.0475 Y8.5457 Z-0.5333 I-0.005 J0.0
G2 Y8.5543 Z-0.6667 I0.0025 J0.0043
G2 X223.055 Y8.55 Z-0.8 I0.0025 J-0.0043
G2 X223.0475 Y8.5457 Z-0.9333 I-0.005 J0.0
G2 Y8.5543 Z-1.0667 I0.0025 J0.0043
G2 X223.055 Y8.55 Z-1.2 I0.0025 J-0.0043
G2 X223.0475 Y8.5457 Z-1.3333 I-0.005 J0.0
G2 Y8.5543 Z-1.4667 I0.0025 J0.0043
G2 X223.0535 Y8.5535 Z-1.55 I0.0025 J-0.0043
G2 X223.0513 Y8.5452 I-0.0035 J-0.0035
G2 X223.0452 Y8.5513 I-0.0013 J0.0048
G2 X223.0535 Y8.5535 I0.0048 J-0.0013
G0 Z3.0
G0 X228.055 Y10.65
G0 Z1.0
G1 F500.0 Z0.0
G2 F800.0 X228.0475 Y10.6457 Z-0.1333 I-0.005 J0.0
G2 Y10.6543 Z-0.2667 I0.0025 J0.0043
G2 X228.055 Y10.65 Z-0.4 I0.0025 J-0.0043
G2 X228.0475 Y10.6457 Z-0.5333 I-0.005 J0.0
G2 Y10.6543 Z-0.6667 I0.0025 J0.0043
G2 X228.055 Y10.65 Z-0.8 I0.0025 J-0.0043
G2 X228.0475 Y10.6457 Z-0.9333 I-0.005 J0.0
G2 Y10.6543 Z-1.0667 I0.0025 J0.0043
G2 X228.055 Y10.65 Z-1.2 I0.0025 J-0.0043
G2 X228.0475 Y10.6457 Z-1.3333 I-0.005 J0.0
G2 Y10.6543 Z-1.4667 I0.0025 J0.0043
G2 X228.0535 Y10.6535 Z-1.55 I0.0025 J-0.0043
G2 X228.0513 Y10.6452 I-0.0035 J-0.0035
G2 X228.0452 Y10.6513 I-0.0013 J0.0048
G2 X228.0535 Y10.6535 I0.0048 J-0.0013
G0 Z3.0
G0 X224.055 Y23.75
G0 Z1.0
G1 F500.0 Z0.0
G2 F800.0 X224.0475 Y23.7457 Z-0.1333 I-0.005 J0.0
G2 Y23.7543 Z-0.2667 I0.0025 J0.0043
G2 X224.055 Y23.75 Z-0.4 I0.0025 J-0.0043
G2 X224.0475 Y23.7457 Z-0.5333 I-0.005 J0.0
G2 Y23.7543 Z-0.6667 I0.0025 J0.0043
G2 X224.055 Y23.75 Z-0.8 I0.0025 J-0.0043
G2 X224.0475 Y23.7457 Z-0.9333 I-0.005 J0.0
G2 Y23.7543 Z-1.0667 I0.0025 J0.0043
G2 X224.055 Y23.75 Z-1.2 I0.0025 J-0.0043
G2 X224.0475 Y23.7457 Z-1.3333 I-0.005 J0.0
G2 Y23.7543 Z-1.4667 I0.0025 J0.0043
G2 X224.0535 Y23.7535 Z-1.55 I0.0025 J-0.0043
G2 X224.0513 Y23.7452 I-0.0035 J-0.0035
G2 X224.0452 Y23.7513 I-0.0013 J0.0048
G2 X224.0535 Y23.7535 I0.0048 J-0.0013
G0 Z3.0
G0 X219.155 Y23.75
G0 Z1.0
G1 F500.0 Z0.0
G2 F800.0 X218.2475 Y23.2261 Z-0.1333 I-0.605 J0.0
G2 Y24.2739 Z-0.2667 I0.3025 J0.5239
G2 X219.155 Y23.75 Z-0.4 I0.3025 J-0.5239
G2 X218.2475 Y23.2261 Z-0.5333 I-0.605 J0.0
G2 Y24.2739 Z-0.6667 I0.3025 J0.5239
G2 X219.155 Y23.75 Z-0.8 I0.3025 J-0.5239
G2 X218.2475 Y23.2261 Z-0.9333 I-0.605 J0.0
G2 Y24.2739 Z-1.0667 I0.3025 J0.5239
G2 X219.155 Y23.75 Z-1.2 I0.3025 J-0.5239
G2 X218.2475 Y23.2261 Z-1.3333 I-0.605 J0.0
G2 Y24.2739 Z-1.4667 I0.3025 J0.5239
G2 X218.9778 Y24.1778 Z-1.55 I0.3025 J-0.5239
G2 X218.7066 Y23.1656 I-0.4278 J-0.4278
G2 X217.9656 Y23.9066 I-0.1566 J0.5844
G2 X218.9778 Y24.1778 I0.5844 J-0.1566
G0 Z3.0
G0 X213.055 Y23.75
G0 Z1.0
G1 F500.0 Z0.0
G2 F800.0 X213.0475 Y23.7457 Z-0.1333 I-0.005 J0.0
G2 Y23.7543 Z-0.2667 I0.0025 J0.0043
G2 X213.055 Y23.75 Z-0.4 I0.0025 J-0.0043
G2 X213.0475 Y23.7457 Z-0.5333 I-0.005 J0.0
G2 Y23.7543 Z-0.6667 I0.0025 J0.0043
G2 X213.055 Y23.75 Z-0.8 I0.0025 J-0.0043
G2 X213.0475 Y23.7457 Z-0.9333 I-0.005 J0.0
G2 Y23.7543 Z-1.0667 I0.0025 J0.0043
G2 X213.055 Y23.75 Z-1.2 I0.0025 J-0.0043
G2 X213.0475 Y23.7457 Z-1.3333 I-0.005 J0.0
G2 Y23.7543 Z-1.4667 I0.0025 J0.0043
G2 X213.0535 Y23.7535 Z-1.55 I0.0025 J-0.0043
G2 X213.0513 Y23.7452 I-0.0035 J-0.0035
G2 X213.0452 Y23.7513 I-0.0013 J0.0048
G2 X213.0535 Y23.7535 I0.0048 J-0.0013
G0 Z3.0
G0 X213.555 Y27.55
G0 Z1.0
G1 F500.0 Z0.0
G2 F800.0 X213.5475 Y27.5457 Z-0.1333 I-0.005 J0.0
G2 Y27.5543 Z-0.2667 I0.0025 J0.0043
G2 X213.555 Y27.55 Z-0.4 I0.0025 J-0.0043
G2 X213.5475 Y27.5457 Z-0.5333 I-0.005 J0.0
G2 Y27.5543 Z-0.6667 I0.0025 J0.0043
G2 X213.555 Y27.55 Z-0.8 I0.0025 J-0.0043
G2 X213.5475 Y27.5457 Z-0.9333 I-0.005 J0.0
G2 Y27.5543 Z-1.0667 I0.0025 J0.0043
G2 X213.555 Y27.55 Z-1.2 I0.0025 J-0.0043
G2 X213.5475 Y27.5457 Z-1.3333 I-0.005 J0.0
G2 Y27.5543 Z-1.4667 I0.0025 J0.0043
G2 X213.5535 Y27.5535 Z-1.55 I0.0025 J-0.0043
G2 X213.5513 Y27.5452 I-0.0035 J-0.0035
G2 X213.5452 Y27.5513 I-0.0013 J0.0048
G2 X213.5535 Y27.5535 I0.0048 J-0.0013
G0 Z3.0
G0 X218.555 Y29.65
G0 Z1.0
G1 F500.0 Z0.0
G2 F800.0 X218.5475 Y29.6457 Z-0.1333 I-0.005 J0.0
G2 Y29.6543 Z-0.2667 I0.0025 J0.0043
G2 X218.555 Y29.65 Z-0.4 I0.0025 J-0.0043
G2 X218.5475 Y29.6457 Z-0.5333 I-0.005 J0.0
G2 Y29.6543 Z-0.6667 I0.0025 J0.0043
G2 X218.555 Y29.65 Z-0.8 I0.0025 J-0.0043
G2 X218.5475 Y29.6457 Z-0.9333 I-0.005 J0.0
G2 Y29.6543 Z-1.0667 I0.0025 J0.0043
G2 X218.555 Y29.65 Z-1.2 I0.0025 J-0.0043
G2 X218.5475 Y29.6457 Z-1.3333 I-0.005 J0.0
G2 Y29.6543 Z-1.4667 I0.0025 J0.0043
G2 X218.5535 Y29.6535 Z-1.55 I0.0025 J-0.0043
G2 X218.5513 Y29.6452 I-0.0035 J-0.0035
G2 X218.5452 Y29.6513 I-0.0013 J0.0048
G2 X218.5535 Y29.6535 I0.0048 J-0.0013
G0 Z3.0
G0 X222.805 Y34.65
G0 Z1.0
G1 F500.0 Z0.0
G2 F800.0 X222.7975 Y34.6457 Z-0.1333 I-0.005 J0.0
G2 Y34.6543 Z-0.2667 I0.0025 J0.0043
G2 X222.805 Y34.65 Z-0.4 I0.0025 J-0.0043
G2 X222.7975 Y34.6457 Z-0.5333 I-0.005 J0.0
G2 Y34.6543 Z-0.6667 I0.0025 J0.0043
G2 X222.805 Y34.65 Z-0.8 I0.0025 J-0.0043
G2 X222.7975 Y34.6457 Z-0.9333 I-0.005 J0.0
G2 Y34.6543 Z-1.0667 I0.0025 J0.0043
G2 X222.805 Y34.65 Z-1.2 I0.0025 J-0.0043
G2 X222.7975 Y34.6457 Z-1.3333 I-0.005 J0.0
G2 Y34.6543 Z-1.4667 I0.0025 J0.0043
G2 X222.8035 Y34.6535 Z-1.55 I0.0025 J-0.0043
G2 X222.8013 Y34.6452 I-0.0035 J-0.0035
G2 X222.7952 Y34.6513 I-0.0013 J0.0048
G2 X222.8035 Y34.6535 I0.0048 J-0.0013
G0 Z3.0
G0 X222.555 Y42.75
G0 Z1.0
G1 F500.0 Z0.0
G2 F800.0 X222.5475 Y42.7457 Z-0.1333 I-0.005 J0.0
G2 Y42.7543 Z-0.2667 I0.0025 J0.0043
G2 X222.555 Y42.75 Z-0.4 I0.0025 J-0.0043
G2 X222.5475 Y42.7457 Z-0.5333 I-0.005 J0.0
G2 Y42.7543 Z-0.6667 I0.0025 J0.0043
G2 X222.555 Y42.75 Z-0.8 I0.0025 J-0.0043
G2 X222.5475 Y42.7457 Z-0.9333 I-0.005 J0.0
G2 Y42.7543 Z-1.0667 I0.0025 J0.0043
G2 X222.555 Y42.75 Z-1.2 I0.0025 J-0.0043
G2 X222.5475 Y42.7457 Z-1.3333 I-0.005 J0.0
G2 Y42.7543 Z-1.4667 I0.0025 J0.0043
G2 X222.5535 Y42.7535 Z-1.55 I0.0025 J-0.0043
G2 X222.5513 Y42.7452 I-0.0035 J-0.0035
G2 X222.5452 Y42.7513 I-0.0013 J0.0048
G2 X222.5535 Y42.7535 I0.0048 J-0.0013
G0 Z3.0
G0 X223.055 Y46.55
G0 Z1.0
G1 F500.0 Z0.0
G2 F800.0 X223.0475 Y46.5457 Z-0.1333 I-0.005 J0.0
G2 Y46.5543 Z-0.2667 I0.0025 J0.0043
G2 X223.055 Y46.55 Z-0.4 I0.0025 J-0.0043
G2 X223.0475 Y46.5457 Z-0.5333 I-0.005 J0.0
G2 Y46.5543 Z-0.6667 I0.0025 J0.0043
G2 X223.055 Y46.55 Z-0.8 I0.0025 J-0.0043
G2 X223.0475 Y46.5457 Z-0.9333 I-0.005 J0.0
G2 Y46.5543 Z-1.0667 I0.0025 J0.0043
G2 X223.055 Y46.55 Z-1.2 I0.0025 J-0.0043
G2 X223.0475 Y46.5457 Z-1.3333 I-0.005 J0.0
G2 Y46.5543 Z-1.4667 I0.0025 J0.0043
G2 X223.0535 Y46.5535 Z-1.55 I0.0025 J-0.0043
G2 X223.0513 Y46.5452 I-0.0035 J-0.0035
G2 X223.0452 Y46.5513 I-0.0013 J0.0048
G2 X223.0535 Y46.5535 I0.0048 J-0.0013
G0 Z3.0
G0 X228.055 Y48.65
G0 Z1.0
G1 F500.0 Z0.0
G2 F800.0 X228.0475 Y48.6457 Z-0.1333 I-0.005 J0.0
G2 Y48.6543 Z-0.2667 I0.0025 J0.0043
G2 X228.055 Y48.65 Z-0.4 I0.0025 J-0.0043
G2 X228.0475 Y48.6457 Z-0.5333 I-0.005 J0.0
G2 Y48.6543 Z-0.6667 I0.0025 J0.0043
G2 X228.055 Y48.65 Z-0.8 I0.0025 J-0.0043
G2 X228.0475 Y48.6457 Z-0.9333 I-0.005 J0.0
G2 Y48.6543 Z-1.0667 I0.0025 J0.0043
G2 X228.055 Y48.65 Z-1.2 I0.0025 J-0.0043
G2 X228.0475 Y48.6457 Z-1.3333 I-0.005 J0.0
G2 Y48.6543 Z-1.4667 I0.0025 J0.0043
G2 X228.0535 Y48.6535 Z-1.55 I0.0025 J-0.0043
G2 X228.0513 Y48.6452 I-0.0035 J-0.0035
G2 X228.0452 Y48.6513 I-0.0013 J0.0048
G2 X228.0535 Y48.6535 I0.0048 J-0.0013
G0 Z3.0
G0 X228.655 Y42.75
G0 Z1.0
G1 F500.0 Z0.0
G2 F800.0 X227.7475 Y42.2261 Z-0.1333 I-0.605 J0.0
G2 Y43.2739 Z-0.2667 I0.3025 J0.5239
G2 X228.655 Y42.75 Z-0.4 I0.3025 J-0.5239
G2 X227.7475 Y42.2261 Z-0.5333 I-0.605 J0.0
G2 Y43.2739 Z-0.6667 I0.3025 J0.5239
G2 X228.655 Y42.75 Z-0.8 I0.3025 J-0.5239
G2 X227.7475 Y42.2261 Z-0.9333 I-0.605 J0.0
G2 Y43.2739 Z-1.0667 I0.3025 J0.5239
G2 X228.655 Y42.75 Z-1.2 I0.3025 J-0.5239
G2 X227.7475 Y42.2261 Z-1.3333 I-0.605 J0.0
G2 Y43.2739 Z-1.4667 I0.3025 J0.5239
G2 X228.4778 Y43.1778 Z-1.55 I0.3025 J-0.5239
G2 X228.2066 Y42.1656 I-0.4278 J-0.4278
G2 X227.4656 Y42.9066 I-0.1566 J0.5844
G2 X228.4778 Y43.1778 I0.5844 J-0.1566
G0 Z3.0
G0 X233.555 Y42.75
G0 Z1.0
G1 F500.0 Z0.0
G2 F800.0 X233.5475 Y42.7457 Z-0.1333 I-0.005 J0.0
G2 Y42.7543 Z-0.2667 I0.0025 J0.0043
G2 X233.555 Y42.75 Z-0.4 I0.0025 J-0.0043
G2 X233.5475 Y42.7457 Z-0.5333 I-0.005 J0.0
G2 Y42.7543 Z-0.6667 I0.0025 J0.0043
G2 X233.555 Y42.75 Z-0.8 I0.0025 J-0.0043
G2 X233.5475 Y42.7457 Z-0.9333 I-0.005 J0.0
G2 Y42.7543 Z-1.0667 I0.0025 J0.0043
G2 X233.555 Y42.75 Z-1.2 I0.0025 J-0.0043
G2 X233.5475 Y42.7457 Z-1.3333 I-0.005 J0.0
G2 Y42.7543 Z-1.4667 I0.0025 J0.0043
G2 X233.5535 Y42.7535 Z-1.55 I0.0025 J-0.0043
G2 X233.5513 Y42.7452 I-0.0035 J-0.0035
G2 X233.5452 Y42.7513 I-0.0013 J0.0048
G2 X233.5535 Y42.7535 I0.0048 J-0.0013
G0 Z3.0
G0 X222.805 Y53.65
G0 Z1.0
G1 F500.0 Z0.0
G2 F800.0 X222.7975 Y53.6457 Z-0.1333 I-0.005 J0.0
G2 Y53.6543 Z-0.2667 I0.0025 J0.0043
G2 X222.805 Y53.65 Z-0.4 I0.0025 J-0.0043
G2 X222.7975 Y53.6457 Z-0.5333 I-0.005 J0.0
G2 Y53.6543 Z-0.6667 I0.0025 J0.0043
G2 X222.805 Y53.65 Z-0.8 I0.0025 J-0.0043
G2 X222.7975 Y53.6457 Z-0.9333 I-0.005 J0.0
G2 Y53.6543 Z-1.0667 I0.0025 J0.0043
G2 X222.805 Y53.65 Z-1.2 I0.0025 J-0.0043
G2 X222.7975 Y53.6457 Z-1.3333 I-0.005 J0.0
G2 Y53.6543 Z-1.4667 I0.0025 J0.0043
G2 X222.8035 Y53.6535 Z-1.55 I0.0025 J-0.0043
G2 X222.8013 Y53.6452 I-0.0035 J-0.0035
G2 X222.7952 Y53.6513 I-0.0013 J0.0048
G2 X222.8035 Y53.6535 I0.0048 J-0.0013
G0 Z3.0
G0 X222.555 Y61.75
G0 Z1.0
G1 F500.0 Z0.0
G2 F800.0 X222.5475 Y61.7457 Z-0.1333 I-0.005 J0.0
G2 Y61.7543 Z-0.2667 I0.0025 J0.0043
G2 X222.555 Y61.75 Z-0.4 I0.0025 J-0.0043
G2 X222.5475 Y61.7457 Z-0.5333 I-0.005 J0.0
G2 Y61.7543 Z-0.6667 I0.0025 J0.0043
G2 X222.555 Y61.75 Z-0.8 I0.0025 J-0.0043
G2 X222.5475 Y61.7457 Z-0.9333 I-0.005 J0.0
G2 Y61.7543 Z-1.0667 I0.0025 J0.0043
G2 X222.555 Y61.75 Z-1.2 I0.0025 J-0.0043
G2 X222.5475 Y61.7457 Z-1.3333 I-0.005 J0.0
G2 Y61.7543 Z-1.4667 I0.0025 J0.0043
G2 X222.5535 Y61.7535 Z-1.55 I0.0025 J-0.0043
G2 X222.5513 Y61.7452 I-0.0035 J-0.0035
G2 X222.5452 Y61.7513 I-0.0013 J0.0048
G2 X222.5535 Y61.7535 I0.0048 J-0.0013
G0 Z3.0
G0 X223.055 Y65.55
G0 Z1.0
G1 F500.0 Z0.0
G2 F800.0 X223.0475 Y65.5457 Z-0.1333 I-0.005 J0.0
G2 Y65.5543 Z-0.2667 I0.0025 J0.0043
G2 X223.055 Y65.55 Z-0.4 I0.0025 J-0.0043
G2 X223.0475 Y65.5457 Z-0.5333 I-0.005 J0.0
G2 Y65.5543 Z-0.6667 I0.0025 J0.0043
G2 X223.055 Y65.55 Z-0.8 I0.0025 J-0.0043
G2 X223.0475 Y65.5457 Z-0.9333 I-0.005 J0.0
G2 Y65.5543 Z-1.0667 I0.0025 J0.0043
G2 X223.055 Y65.55 Z-1.2 I0.0025 J-0.0043
G2 X223.0475 Y65.5457 Z-1.3333 I-0.005 J0.0
G2 Y65.5543 Z-1.4667 I0.0025 J0.0043
G2 X223.0535 Y65.5535 Z-1.55 I0.0025 J-0.0043
G2 X223.0513 Y65.5452 I-0.0035 J-0.0035
G2 X223.0452 Y65.5513 I-0.0013 J0.0048
G2 X223.0535 Y65.5535 I0.0048 J-0.0013
G0 Z3.0
G0 X228.055 Y67.65
G0 Z1.0
G1 F500.0 Z0.0
G2 F800.0 X228.0475 Y67.6457 Z-0.1333 I-0.005 J0.0
G2 Y67.6543 Z-0.2667 I0.0025 J0.0043
G2 X228.055 Y67.65 Z-0.4 I0.0025 J-0.0043
G2 X228.0475 Y67.6457 Z-0.5333 I-0.005 J0.0
G2 Y67.6543 Z-0.6667 I0.0025 J0.0043
G2 X228.055 Y67.65 Z-0.8 I0.0025 J-0.0043
G2 X228.0475 Y67.6457 Z-0.9333 I-0.005 J0.0
G2 Y67.6543 Z-1.0667 I0.0025 J0.0043
G2 X228.055 Y67.65 Z-1.2 I0.0025 J-0.0043
G2 X228.0475 Y67.6457 Z-1.3333 I-0.005 J0.0
G2 Y67.6543 Z-1.4667 I0.0025 J0.0043
G2 X228.0535 Y67.6535 Z-1.55 I0.0025 J-0.0043
G2 X228.0513 Y67.6452 I-0.0035 J-0.0035
G2 X228.0452 Y67.6513 I-0.0013 J0.0048
G2 X228.0535 Y67.6535 I0.0048 J-0.0013
G0 Z3.0
G0 X228.655 Y61.75
G0 Z1.0
G1 F500.0 Z0.0
G2 F800.0 X227.7475 Y61.2261 Z-0.1333 I-0.605 J0.0
G2 Y62.2739 Z-0.2667 I0.3025 J0.5239
G2 X228.655 Y61.75 Z-0.4 I0.3025 J-0.5239
G2 X227.7475 Y61.2261 Z-0.5333 I-0.605 J0.0
G2 Y62.2739 Z-0.6667 I0.3025 J0.5239
G2 X228.655 Y61.75 Z-0.8 I0.3025 J-0.5239
G2 X227.7475 Y61.2261 Z-0.9333 I-0.605 J0.0
G2 Y62.2739 Z-1.0667 I0.3025 J0.5239
G2 X228.655 Y61.75 Z-1.2 I0.3025 J-0.5239
G2 X227.7475 Y61.2261 Z-1.3333 I-0.605 J0.0
G2 Y62.2739 Z-1.4667 I0.3025 J0.5239
G2 X228.4778 Y62.1778 Z-1.55 I0.3025 J-0.5239
G2 X228.2066 Y61.1656 I-0.4278 J-0.4278
G2 X227.4656 Y61.9066 I-0.1566 J0.5844
G2 X228.4778 Y62.1778 I0.5844 J-0.1566
G0 Z3.0
G0 X233.555 Y61.75
G0 Z1.0
G1 F500.0 Z0.0
G2 F800.0 X233.5475 Y61.7457 Z-0.1333 I-0.005 J0.0
G2 Y61.7543 Z-0.2667 I0.0025 J0.0043
G2 X233.555 Y61.75 Z-0.4 I0.0025 J-0.0043
G2 X233.5475 Y61.7457 Z-0.5333 I-0.005 J0.0
G2 Y61.7543 Z-0.6667 I0.0025 J0.0043
G2 X233.555 Y61.75 Z-0.8 I0.0025 J-0.0043
G2 X233.5475 Y61.7457 Z-0.9333 I-0.005 J0.0
G2 Y61.7543 Z-1.0667 I0.0025 J0.0043
G2 X233.555 Y61.75 Z-1.2 I0.0025 J-0.0043
G2 X233.5475 Y61.7457 Z-1.3333 I-0.005 J0.0
G2 Y61.7543 Z-1.4667 I0.0025 J0.0043
G2 X233.5535 Y61.7535 Z-1.55 I0.0025 J-0.0043
G2 X233.5513 Y61.7452 I-0.0035 J-0.0035
G2 X233.5452 Y61.7513 I-0.0013 J0.0048
G2 X233.5535 Y61.7535 I0.0048 J-0.0013
G0 Z3.0
G0 X222.805 Y72.65
G0 Z1.0
G1 F500.0 Z0.0
G2 F800.0 X222.7975 Y72.6457 Z-0.1333 I-0.005 J0.0
G2 Y72.6543 Z-0.2667 I0.0025 J0.0043
G2 X222.805 Y72.65 Z-0.4 I0.0025 J-0.0043
G2 X222.7975 Y72.6457 Z-0.5333 I-0.005 J0.0
G2 Y72.6543 Z-0.6667 I0.0025 J0.0043
G2 X222.805 Y72.65 Z-0.8 I0.0025 J-0.0043
G2 X222.7975 Y72.6457 Z-0.9333 I-0.005 J0.0
G2 Y72.6543 Z-1.0667 I0.0025 J0.0043
G2 X222.805 Y72.65 Z-1.2 I0.0025 J-0.0043
G2 X222.7975 Y72.6457 Z-1.3333 I-0.005 J0.0
G2 Y72.6543 Z-1.4667 I0.0025 J0.0043
G2 X222.8035 Y72.6535 Z-1.55 I0.0025 J-0.0043
G2 X222.8013 Y72.6452 I-0.0035 J-0.0035
G2 X222.7952 Y72.6513 I-0.0013 J0.0048
G2 X222.8035 Y72.6535 I0.0048 J-0.0013
G0 Z3.0
G0 X222.555 Y80.75
G0 Z1.0
G1 F500.0 Z0.0
G2 F800.0 X222.5475 Y80.7457 Z-0.1333 I-0.005 J0.0
G2 Y80.7543 Z-0.2667 I0.0025 J0.0043
G2 X222.555 Y80.75 Z-0.4 I0.0025 J-0.0043
G2 X222.5475 Y80.7457 Z-0.5333 I-0.005 J0.0
G2 Y80.7543 Z-0.6667 I0.0025 J0.0043
G2 X222.555 Y80.75 Z-0.8 I0.0025 J-0.0043
G2 X222.5475 Y80.7457 Z-0.9333 I-0.005 J0.0
G2 Y80.7543 Z-1.0667 I0.0025 J0.0043
G2 X222.555 Y80.75 Z-1.2 I0.0025 J-0.0043
G2 X222.5475 Y80.7457 Z-1.3333 I-0.005 J0.0
G2 Y80.7543 Z-1.4667 I0.0025 J0.0043
G2 X222.5535 Y80.7535 Z-1.55 I0.0025 J-0.0043
G2 X222.5513 Y80.7452 I-0.0035 J-0.0035
G2 X222.5452 Y80.7513 I-0.0013 J0.0048
G2 X222.5535 Y80.7535 I0.0048 J-0.0013
G0 Z3.0
G0 X223.055 Y84.55
G0 Z1.0
G1 F500.0 Z0.0
G2 F800.0 X223.0475 Y84.5457 Z-0.1333 I-0.005 J0.0
G2 Y84.5543 Z-0.2667 I0.0025 J0.0043
G2 X223.055 Y84.55 Z-0.4 I0.0025 J-0.0043
G2 X223.0475 Y84.5457 Z-0.5333 I-0.005 J0.0
G2 Y84.5543 Z-0.6667 I0.0025 J0.0043
G2 X223.055 Y84.55 Z-0.8 I0.0025 J-0.0043
G2 X223.0475 Y84.5457 Z-0.9333 I-0.005 J0.0
G2 Y84.5543 Z-1.0667 I0.0025 J0.0043
G2 X223.055 Y84.55 Z-1.2 I0.0025 J-0.0043
G2 X223.0475 Y84.5457 Z-1.3333 I-0.005 J0.0
G2 Y84.5543 Z-1.4667 I0.0025 J0.0043
G2 X223.0535 Y84.5535 Z-1.55 I0.0025 J-0.0043
G2 X223.0513 Y84.5452 I-0.0035 J-0.0035
G2 X223.0452 Y84.5513 I-0.0013 J0.0048
G2 X223.0535 Y84.5535 I0.0048 J-0.0013
G0 Z3.0
G0 X223.055 Y88.7619
G0 Z1.0
G1 F500.0 Z0.0
G2 F800.0 X223.0475 Y88.7576 Z-0.1333 I-0.005 J0.0
G2 Y88.7663 Z-0.2667 I0.0025 J0.0043
G2 X223.055 Y88.7619 Z-0.4 I0.0025 J-0.0043
G2 X223.0475 Y88.7576 Z-0.5333 I-0.005 J0.0
G2 Y88.7663 Z-0.6667 I0.0025 J0.0043
G2 X223.055 Y88.7619 Z-0.8 I0.0025 J-0.0043
G2 X223.0475 Y88.7576 Z-0.9333 I-0.005 J0.0
G2 Y88.7663 Z-1.0667 I0.0025 J0.0043
G2 X223.055 Y88.7619 Z-1.2 I0.0025 J-0.0043
G2 X223.0475 Y88.7576 Z-1.3333 I-0.005 J0.0
G2 Y88.7663 Z-1.4667 I0.0025 J0.0043
G2 X223.0535 Y88.7655 Z-1.55 I0.0025 J-0.0043
G2 X223.0513 Y88.7571 I-0.0035 J-0.0035
G2 X223.0452 Y88.7632 I-0.0013 J0.0048
G2 X223.0535 Y88.7655 I0.0048 J-0.0013
G0 Z3.0
G0 X228.055 Y86.65
G0 Z1.0
G1 F500.0 Z0.0
G2 F800.0 X228.0475 Y86.6457 Z-0.1333 I-0.005 J0.0
G2 Y86.6543 Z-0.2667 I0.0025 J0.0043
G2 X228.055 Y86.65 Z-0.4 I0.0025 J-0.0043
G2 X228.0475 Y86.6457 Z-0.5333 I-0.005 J0.0
G2 Y86.6543 Z-0.6667 I0.0025 J0.0043
G2 X228.055 Y86.65 Z-0.8 I0.0025 J-0.0043
G2 X228.0475 Y86.6457 Z-0.9333 I-0.005 J0.0
G2 Y86.6543 Z-1.0667 I0.0025 J0.0043
G2 X228.055 Y86.65 Z-1.2 I0.0025 J-0.0043
G2 X228.0475 Y86.6457 Z-1.3333 I-0.005 J0.0
G2 Y86.6543 Z-1.4667 I0.0025 J0.0043
G2 X228.0535 Y86.6535 Z-1.55 I0.0025 J-0.0043
G2 X228.0513 Y86.6452 I-0.0035 J-0.0035
G2 X228.0452 Y86.6513 I-0.0013 J0.0048
G2 X228.0535 Y86.6535 I0.0048 J-0.0013
G0 Z3.0
G0 X228.655 Y80.75
G0 Z1.0
G1 F500.0 Z0.0
G2 F800.0 X227.7475 Y80.2261 Z-0.1333 I-0.605 J0.0
G2 Y81.2739 Z-0.2667 I0.3025 J0.5239
G2 X228.655 Y80.75 Z-0.4 I0.3025 J-0.5239
G2 X227.7475 Y80.2261 Z-0.5333 I-0.605 J0.0
G2 Y81.2739 Z-0.6667 I0.3025 J0.5239
G2 X228.655 Y80.75 Z-0.8 I0.3025 J-0.5239
G2 X227.7475 Y80.2261 Z-0.9333 I-0.605 J0.0
G2 Y81.2739 Z-1.0667 I0.3025 J0.5239
G2 X228.655 Y80.75 Z-1.2 I0.3025 J-0.5239
G2 X227.7475 Y80.2261 Z-1.3333 I-0.605 J0.0
G2 Y81.2739 Z-1.4667 I0.3025 J0.5239
G2 X228.4778 Y81.1778 Z-1.55 I0.3025 J-0.5239
G2 X228.2066 Y80.1656 I-0.4278 J-0.4278
G2 X227.4656 Y80.9066 I-0.1566 J0.5844
G2 X228.4778 Y81.1778 I0.5844 J-0.1566
G0 Z3.0
G0 X233.555 Y80.75
G0 Z1.0
G1 F500.0 Z0.0
G2 F800.0 X233.5475 Y80.7457 Z-0.1333 I-0.005 J0.0
G2 Y80.7543 Z-0.2667 I0.0025 J0.0043
G2 X233.555 Y80.75 Z-0.4 I0.0025 J-0.0043
G2 X233.5475 Y80.7457 Z-0.5333 I-0.005 J0.0
G2 Y80.7543 Z-0.6667 I0.0025 J0.0043
G2 X233.555 Y80.75 Z-0.8 I0.0025 J-0.0043
G2 X233.5475 Y80.7457 Z-0.9333 I-0.005 J0.0
G2 Y80.7543 Z-1.0667 I0.0025 J0.0043
G2 X233.555 Y80.75 Z-1.2 I0.0025 J-0.0043
G2 X233.5475 Y80.7457 Z-1.3333 I-0.005 J0.0
G2 Y80.7543 Z-1.4667 I0.0025 J0.0043
G2 X233.5535 Y80.7535 Z-1.55 I0.0025 J-0.0043
G2 X233.5513 Y80.7452 I-0.0035 J-0.0035
G2 X233.5452 Y80.7513 I-0.0013 J0.0048
G2 X233.5535 Y80.7535 I0.0048 J-0.0013
G0 Z3.0
G0 X235.625 Y92.7619
G0 Z1.0
G1 F500.0 Z0.0
G2 F800.0 X235.6175 Y92.7576 Z-0.1333 I-0.005 J0.0
G2 Y92.7663 Z-0.2667 I0.0025 J0.0043
G2 X235.625 Y92.7619 Z-0.4 I0.0025 J-0.0043
G2 X235.6175 Y92.7576 Z-0.5333 I-0.005 J0.0
G2 Y92.7663 Z-0.6667 I0.0025 J0.0043
G2 X235.625 Y92.7619 Z-0.8 I0.0025 J-0.0043
G2 X235.6175 Y92.7576 Z-0.9333 I-0.005 J0.0
G2 Y92.7663 Z-1.0667 I0.0025 J0.0043
G2 X235.625 Y92.7619 Z-1.2 I0.0025 J-0.0043
G2 X235.6175 Y92.7576 Z-1.3333 I-0.005 J0.0
G2 Y92.7663 Z-1.4667 I0.0025 J0.0043
G2 X235.6235 Y92.7655 Z-1.55 I0.0025 J-0.0043
G2 X235.6213 Y92.7571 I-0.0035 J-0.0035
G2 X235.6152 Y92.7632 I-0.0013 J0.0048
G2 X235.6235 Y92.7655 I0.0048 J-0.0013
G0 Z3.0
G0 X238.965 Y92.7619
G0 Z1.0
G1 F500.0 Z0.0
G2 F800.0 X238.9575 Y92.7576 Z-0.1333 I-0.005 J0.0
G2 Y92.7663 Z-0.2667 I0.0025 J0.0043
G2 X238.965 Y92.7619 Z-0.4 I0.0025 J-0.0043
G2 X238.9575 Y92.7576 Z-0.5333 I-0.005 J0.0
G2 Y92.7663 Z-0.6667 I0.0025 J0.0043
G2 X238.965 Y92.7619 Z-0.8 I0.0025 J-0.0043
G2 X238.9575 Y92.7576 Z-0.9333 I-0.005 J0.0
G2 Y92.7663 Z-1.0667 I0.0025 J0.0043
G2 X238.965 Y92.7619 Z-1.2 I0.0025 J-0.0043
G2 X238.9575 Y92.7576 Z-1.3333 I-0.005 J0.0
G2 Y92.7663 Z-1.4667 I0.0025 J0.0043
G2 X238.9635 Y92.7655 Z-1.55 I0.0025 J-0.0043
G2 X238.9613 Y92.7571 I-0.0035 J-0.0035
G2 X238.9552 Y92.7632 I-0.0013 J0.0048
G2 X238.9635 Y92.7655 I0.0048 J-0.0013
G0 Z3.0
G0 X242.305 Y92.7619
G0 Z1.0
G1 F500.0 Z0.0
G2 F800.0 X242.2975 Y92.7576 Z-0.1333 I-0.005 J0.0
G2 Y92.7663 Z-0.2667 I0.0025 J0.0043
G2 X242.305 Y92.7619 Z-0.4 I0.0025 J-0.0043
G2 X242.2975 Y92.7576 Z-0.5333 I-0.005 J0.0
G2 Y92.7663 Z-0.6667 I0.0025 J0.0043
G2 X242.305 Y92.7619 Z-0.8 I0.0025 J-0.0043
G2 X242.2975 Y92.7576 Z-0.9333 I-0.005 J0.0
G2 Y92.7663 Z-1.0667 I0.0025 J0.0043
G2 X242.305 Y92.7619 Z-1.2 I0.0025 J-0.0043
G2 X242.2975 Y92.7576 Z-1.3333 I-0.005 J0.0
G2 Y92.7663 Z-1.4667 I0.0025 J0.0043
G2 X242.3035 Y92.7655 Z-1.55 I0.0025 J-0.0043
G2 X242.3013 Y92.7571 I-0.0035 J-0.0035
G2 X242.2952 Y92.7632 I-0.0013 J0.0048
G2 X242.3035 Y92.7655 I0.0048 J-0.0013
G0 Z3.0
G0 X245.645 Y92.7619
G0 Z1.0
G1 F500.0 Z0.0
G2 F800.0 X245.6375 Y92.7576 Z-0.1333 I-0.005 J0.0
G2 Y92.7663 Z-0.2667 I0.0025 J0.0043
G2 X245.645 Y92.7619 Z-0.4 I0.0025 J-0.0043
G2 X245.6375 Y92.7576 Z-0.5333 I-0.005 J0.0
G2 Y92.7663 Z-0.6667 I0.0025 J0.0043
G2 X245.645 Y92.7619 Z-0.8 I0.0025 J-0.0043
G2 X245.6375 Y92.7576 Z-0.9333 I-0.005 J0.0
G2 Y92.7663 Z-1.0667 I0.0025 J0.0043
G2 X245.645 Y92.7619 Z-1.2 I0.0025 J-0.0043
G2 X245.6375 Y92.7576 Z-1.3333 I-0.005 J0.0
G2 Y92.7663 Z-1.4667 I0.0025 J0.0043
G2 X245.6435 Y92.7655 Z-1.55 I0.0025 J-0.0043
G2 X245.6413 Y92.7571 I-0.0035 J-0.0035
G2 X245.6352 Y92.7632 I-0.0013 J0.0048
G2 X245.6435 Y92.7655 I0.0048 J-0.0013
G0 Z3.0
G0 X248.985 Y92.7619
G0 Z1.0
G1 F500.0 Z0.0
G2 F800.0 X248.9775 Y92.7576 Z-0.1333 I-0.005 J0.0
G2 Y92.7663 Z-0.2667 I0.0025 J0.0043
G2 X248.985 Y92.7619 Z-0.4 I0.0025 J-0.0043
G2 X248.9775 Y92.7576 Z-0.5333 I-0.005 J0.0
G2 Y92.7663 Z-0.6667 I0.0025 J0.0043
G2 X248.985 Y92.7619 Z-0.8 I0.0025 J-0.0043
G2 X248.9775 Y92.7576 Z-0.9333 I-0.005 J0.0
G2 Y92.7663 Z-1.0667 I0.0025 J0.0043
G2 X248.985 Y92.7619 Z-1.2 I0.0025 J-0.0043
G2 X248.9775 Y92.7576 Z-1.3333 I-0.005 J0.0
G2 Y92.7663 Z-1.4667 I0.0025 J0.0043
G2 X248.9835 Y92.7655 Z-1.55 I0.0025 J-0.0043
G2 X248.9813 Y92.7571 I-0.0035 J-0.0035
G2 X248.9752 Y92.7632 I-0.0013 J0.0048
G2 X248.9835 Y92.7655 I0.0048 J-0.0013
G0 Z3.0
G0 X251.555 Y84.55
G0 Z1.0
G1 F500.0 Z0.0
G2 F800.0 X251.5475 Y84.5457 Z-0.1333 I-0.005 J0.0
G2 Y84.5543 Z-0.2667 I0.0025 J0.0043
G2 X251.555 Y84.55 Z-0.4 I0.0025 J-0.0043
G2 X251.5475 Y84.5457 Z-0.5333 I-0.005 J0.0
G2 Y84.5543 Z-0.6667 I0.0025 J0.0043
G2 X251.555 Y84.55 Z-0.8 I0.0025 J-0.0043
G2 X251.5475 Y84.5457 Z-0.9333 I-0.005 J0.0
G2 Y84.5543 Z-1.0667 I0.0025 J0.0043
G2 X251.555 Y84.55 Z-1.2 I0.0025 J-0.0043
G2 X251.5475 Y84.5457 Z-1.3333 I-0.005 J0.0
G2 Y84.5543 Z-1.4667 I0.0025 J0.0043
G2 X251.5535 Y84.5535 Z-1.55 I0.0025 J-0.0043
G2 X251.5513 Y84.5452 I-0.0035 J-0.0035
G2 X251.5452 Y84.5513 I-0.0013 J0.0048
G2 X251.5535 Y84.5535 I0.0048 J-0.0013
G0 Z3.0
G0 X251.055 Y80.75
G0 Z1.0
G1 F500.0 Z0.0
G2 F800.0 X251.0475 Y80.7457 Z-0.1333 I-0.005 J0.0
G2 Y80.7543 Z-0.2667 I0.0025 J0.0043
G2 X251.055 Y80.75 Z-0.4 I0.0025 J-0.0043
G2 X251.0475 Y80.7457 Z-0.5333 I-0.005 J0.0
G2 Y80.7543 Z-0.6667 I0.0025 J0.0043
G2 X251.055 Y80.75 Z-0.8 I0.0025 J-0.0043
G2 X251.0475 Y80.7457 Z-0.9333 I-0.005 J0.0
G2 Y80.7543 Z-1.0667 I0.0025 J0.0043
G2 X251.055 Y80.75 Z-1.2 I0.0025 J-0.0043
G2 X251.0475 Y80.7457 Z-1.3333 I-0.005 J0.0
G2 Y80.7543 Z-1.4667 I0.0025 J0.0043
G2 X251.0535 Y80.7535 Z-1.55 I0.0025 J-0.0043
G2 X251.0513 Y80.7452 I-0.0035 J-0.0035
G2 X251.0452 Y80.7513 I-0.0013 J0.0048
G2 X251.0535 Y80.7535 I0.0048 J-0.0013
G0 Z3.0
G0 X257.155 Y80.75
G0 Z1.0
G1 F500.0 Z0.0
G2 F800.0 X256.2475 Y80.2261 Z-0.1333 I-0.605 J0.0
G2 Y81.2739 Z-0.2667 I0.3025 J0.5239
G2 X257.155 Y80.75 Z-0.4 I0.3025 J-0.5239
G2 X256.2475 Y80.2261 Z-0.5333 I-0.605 J0.0
G2 Y81.2739 Z-0.6667 I0.3025 J0.5239
G2 X257.155 Y80.75 Z-0.8 I0.3025 J-0.5239
G2 X256.2475 Y80.2261 Z-0.9333 I-0.605 J0.0
G2 Y81.2739 Z-1.0667 I0.3025 J0.5239
G2 X257.155 Y80.75 Z-1.2 I0.3025 J-0.5239
G2 X256.2475 Y80.2261 Z-1.3333 I-0.605 J0.0
G2 Y81.2739 Z-1.4667 I0.3025 J0.5239
G2 X256.9778 Y81.1778 Z-1.55 I0.3025 J-0.5239
G2 X256.7066 Y80.1656 I-0.4278 J-0.4278
G2 X255.9656 Y80.9066 I-0.1566 J0.5844
G2 X256.9778 Y81.1778 I0.5844 J-0.1566
G0 Z3.0
G0 X262.055 Y80.75
G0 Z1.0
G1 F500.0 Z0.0
G2 F800.0 X262.0475 Y80.7457 Z-0.1333 I-0.005 J0.0
G2 Y80.7543 Z-0.2667 I0.0025 J0.0043
G2 X262.055 Y80.75 Z-0.4 I0.0025 J-0.0043
G2 X262.0475 Y80.7457 Z-0.5333 I-0.005 J0.0
G2 Y80.7543 Z-0.6667 I0.0025 J0.0043
G2 X262.055 Y80.75 Z-0.8 I0.0025 J-0.0043
G2 X262.0475 Y80.7457 Z-0.9333 I-0.005 J0.0
G2 Y80.7543 Z-1.0667 I0.0025 J0.0043
G2 X262.055 Y80.75 Z-1.2 I0.0025 J-0.0043
G2 X262.0475 Y80.7457 Z-1.3333 I-0.005 J0.0
G2 Y80.7543 Z-1.4667 I0.0025 J0.0043
G2 X262.0535 Y80.7535 Z-1.55 I0.0025 J-0.0043
G2 X262.0513 Y80.7452 I-0.0035 J-0.0035
G2 X262.0452 Y80.7513 I-0.0013 J0.0048
G2 X262.0535 Y80.7535 I0.0048 J-0.0013
G0 Z3.0
G0 X256.555 Y86.65
G0 Z1.0
G1 F500.0 Z0.0
G2 F800.0 X256.5475 Y86.6457 Z-0.1333 I-0.005 J0.0
G2 Y86.6543 Z-0.2667 I0.0025 J0.0043
G2 X256.555 Y86.65 Z-0.4 I0.0025 J-0.0043
G2 X256.5475 Y86.6457 Z-0.5333 I-0.005 J0.0
G2 Y86.6543 Z-0.6667 I0.0025 J0.0043
G2 X256.555 Y86.65 Z-0.8 I0.0025 J-0.0043
G2 X256.5475 Y86.6457 Z-0.9333 I-0.005 J0.0
G2 Y86.6543 Z-1.0667 I0.0025 J0.0043
G2 X256.555 Y86.65 Z-1.2 I0.0025 J-0.0043
G2 X256.5475 Y86.6457 Z-1.3333 I-0.005 J0.0
G2 Y86.6543 Z-1.4667 I0.0025 J0.0043
G2 X256.5535 Y86.6535 Z-1.55 I0.0025 J-0.0043
G2 X256.5513 Y86.6452 I-0.0035 J-0.0035
G2 X256.5452 Y86.6513 I-0.0013 J0.0048
G2 X256.5535 Y86.6535 I0.0048 J-0.0013
G0 Z3.0
G0 X256.555 Y67.65
G0 Z1.0
G1 F500.0 Z0.0
G2 F800.0 X256.5475 Y67.6457 Z-0.1333 I-0.005 J0.0
G2 Y67.6543 Z-0.2667 I0.0025 J0.0043
G2 X256.555 Y67.65 Z-0.4 I0.0025 J-0.0043
G2 X256.5475 Y67.6457 Z-0.5333 I-0.005 J0.0
G2 Y67.6543 Z-0.6667 I0.0025 J0.0043
G2 X256.555 Y67.65 Z-0.8 I0.0025 J-0.0043
G2 X256.5475 Y67.6457 Z-0.9333 I-0.005 J0.0
G2 Y67.6543 Z-1.0667 I0.0025 J0.0043
G2 X256.555 Y67.65 Z-1.2 I0.0025 J-0.0043
G2 X256.5475 Y67.6457 Z-1.3333 I-0.005 J0.0
G2 Y67.6543 Z-1.4667 I0.0025 J0.0043
G2 X256.5535 Y67.6535 Z-1.55 I0.0025 J-0.0043
G2 X256.5513 Y67.6452 I-0.0035 J-0.0035
G2 X256.5452 Y67.6513 I-0.0013 J0.0048
G2 X256.5535 Y67.6535 I0.0048 J-0.0013
G0 Z3.0
G0 X251.555 Y65.55
G0 Z1.0
G1 F500.0 Z0.0
G2 F800.0 X251.5475 Y65.5457 Z-0.1333 I-0.005 J0.0
G2 Y65.5543 Z-0.2667 I0.0025 J0.0043
G2 X251.555 Y65.55 Z-0.4 I0.0025 J-0.0043
G2 X251.5475 Y65.5457 Z-0.5333 I-0.005 J0.0
G2 Y65.5543 Z-0.6667 I0.0025 J0.0043
G2 X251.555 Y65.55 Z-0.8 I0.0025 J-0.0043
G2 X251.5475 Y65.5457 Z-0.9333 I-0.005 J0.0
G2 Y65.5543 Z-1.0667 I0.0025 J0.0043
G2 X251.555 Y65.55 Z-1.2 I0.0025 J-0.0043
G2 X251.5475 Y65.5457 Z-1.3333 I-0.005 J0.0
G2 Y65.5543 Z-1.4667 I0.0025 J0.0043
G2 X251.5535 Y65.5535 Z-1.55 I0.0025 J-0.0043
G2 X251.5513 Y65.5452 I-0.0035 J-0.0035
G2 X251.5452 Y65.5513 I-0.0013 J0.0048
G2 X251.5535 Y65.5535 I0.0048 J-0.0013
G0 Z3.0
G0 X251.055 Y61.75
G0 Z1.0
G1 F500.0 Z0.0
G2 F800.0 X251.0475 Y61.7457 Z-0.1333 I-0.005 J0.0
G2 Y61.7543 Z-0.2667 I0.0025 J0.0043
G2 X251.055 Y61.75 Z-0.4 I0.0025 J-0.0043
G2 X251.0475 Y61.7457 Z-0.5333 I-0.005 J0.0
G2 Y61.7543 Z-0.6667 I0.0025 J0.0043
G2 X251.055 Y61.75 Z-0.8 I0.0025 J-0.0043
G2 X251.0475 Y61.7457 Z-0.9333 I-0.005 J0.0
G2 Y61.7543 Z-1.0667 I0.0025 J0.0043
G2 X251.055 Y61.75 Z-1.2 I0.0025 J-0.0043
G2 X251.0475 Y61.7457 Z-1.3333 I-0.005 J0.0
G2 Y61.7543 Z-1.4667 I0.0025 J0.0043
G2 X251.0535 Y61.7535 Z-1.55 I0.0025 J-0.0043
G2 X251.0513 Y61.7452 I-0.0035 J-0.0035
G2 X251.0452 Y61.7513 I-0.0013 J0.0048
G2 X251.0535 Y61.7535 I0.0048 J-0.0013
G0 Z3.0
G0 X257.155 Y61.75
G0 Z1.0
G1 F500.0 Z0.0
G2 F800.0 X256.2475 Y61.2261 Z-0.1333 I-0.605 J0.0
G2 Y62.2739 Z-0.2667 I0.3025 J0.5239
G2 X257.155 Y61.75 Z-0.4 I0.3025 J-0.5239
G2 X256.2475 Y61.2261 Z-0.5333 I-0.605 J0.0
G2 Y62.2739 Z-0.6667 I0.3025 J0.5239
G2 X257.155 Y61.75 Z-0.8 I0.3025 J-0.5239
G2 X256.2475 Y61.2261 Z-0.9333 I-0.605 J0.0
G2 Y62.2739 Z-1.0667 I0.3025 J0.5239
G2 X257.155 Y61.75 Z-1.2 I0.3025 J-0.5239
G2 X256.2475 Y61.2261 Z-1.3333 I-0.605 J0.0
G2 Y62.2739 Z-1.4667 I0.3025 J0.5239
G2 X256.9778 Y62.1778 Z-1.55 I0.3025 J-0.5239
G2 X256.7066 Y61.1656 I-0.4278 J-0.4278
G2 X255.9656 Y61.9066 I-0.1566 J0.5844
G2 X256.9778 Y62.1778 I0.5844 J-0.1566
G0 Z3.0
G0 X262.055 Y61.75
G0 Z1.0
G1 F500.0 Z0.0
G2 F800.0 X262.0475 Y61.7457 Z-0.1333 I-0.005 J0.0
G2 Y61.7543 Z-0.2667 I0.0025 J0.0043
G2 X262.055 Y61.75 Z-0.4 I0.0025 J-0.0043
G2 X262.0475 Y61.7457 Z-0.5333 I-0.005 J0.0
G2 Y61.7543 Z-0.6667 I0.0025 J0.0043
G2 X262.055 Y61.75 Z-0.8 I0.0025 J-0.0043
G2 X262.0475 Y61.7457 Z-0.9333 I-0.005 J0.0
G2 Y61.7543 Z-1.0667 I0.0025 J0.0043
G2 X262.055 Y61.75 Z-1.2 I0.0025 J-0.0043
G2 X262.0475 Y61.7457 Z-1.3333 I-0.005 J0.0
G2 Y61.7543 Z-1.4667 I0.0025 J0.0043
G2 X262.0535 Y61.7535 Z-1.55 I0.0025 J-0.0043
G2 X262.0513 Y61.7452 I-0.0035 J-0.0035
G2 X262.0452 Y61.7513 I-0.0013 J0.0048
G2 X262.0535 Y61.7535 I0.0048 J-0.0013
G0 Z3.0
G0 X256.555 Y48.65
G0 Z1.0
G1 F500.0 Z0.0
G2 F800.0 X256.5475 Y48.6457 Z-0.1333 I-0.005 J0.0
G2 Y48.6543 Z-0.2667 I0.0025 J0.0043
G2 X256.555 Y48.65 Z-0.4 I0.0025 J-0.0043
G2 X256.5475 Y48.6457 Z-0.5333 I-0.005 J0.0
G2 Y48.6543 Z-0.6667 I0.0025 J0.0043
G2 X256.555 Y48.65 Z-0.8 I0.0025 J-0.0043
G2 X256.5475 Y48.6457 Z-0.9333 I-0.005 J0.0
G2 Y48.6543 Z-1.0667 I0.0025 J0.0043
G2 X256.555 Y48.65 Z-1.2 I0.0025 J-0.0043
G2 X256.5475 Y48.6457 Z-1.3333 I-0.005 J0.0
G2 Y48.6543 Z-1.4667 I0.0025 J0.0043
G2 X256.5535 Y48.6535 Z-1.55 I0.0025 J-0.0043
G2 X256.5513 Y48.6452 I-0.0035 J-0.0035
G2 X256.5452 Y48.6513 I-0.0013 J0.0048
G2 X256.5535 Y48.6535 I0.0048 J-0.0013
G0 Z3.0
G0 X251.555 Y46.55
G0 Z1.0
G1 F500.0 Z0.0
G2 F800.0 X251.5475 Y46.5457 Z-0.1333 I-0.005 J0.0
G2 Y46.5543 Z-0.2667 I0.0025 J0.0043
G2 X251.555 Y46.55 Z-0.4 I0.0025 J-0.0043
G2 X251.5475 Y46.5457 Z-0.5333 I-0.005 J0.0
G2 Y46.5543 Z-0.6667 I0.0025 J0.0043
G2 X251.555 Y46.55 Z-0.8 I0.0025 J-0.0043
G2 X251.5475 Y46.5457 Z-0.9333 I-0.005 J0.0
G2 Y46.5543 Z-1.0667 I0.0025 J0.0043
G2 X251.555 Y46.55 Z-1.2 I0.0025 J-0.0043
G2 X251.5475 Y46.5457 Z-1.3333 I-0.005 J0.0
G2 Y46.5543 Z-1.4667 I0.0025 J0.0043
G2 X251.5535 Y46.5535 Z-1.55 I0.0025 J-0.0043
G2 X251.5513 Y46.5452 I-0.0035 J-0.0035
G2 X251.5452 Y46.5513 I-0.0013 J0.0048
G2 X251.5535 Y46.5535 I0.0048 J-0.0013
G0 Z3.0
G0 X251.055 Y42.75
G0 Z1.0
G1 F500.0 Z0.0
G2 F800.0 X251.0475 Y42.7457 Z-0.1333 I-0.005 J0.0
G2 Y42.7543 Z-0.2667 I0.0025 J0.0043
G2 X251.055 Y42.75 Z-0.4 I0.0025 J-0.0043
G2 X251.0475 Y42.7457 Z-0.5333 I-0.005 J0.0
G2 Y42.7543 Z-0.6667 I0.0025 J0.0043
G2 X251.055 Y42.75 Z-0.8 I0.0025 J-0.0043
G2 X251.0475 Y42.7457 Z-0.9333 I-0.005 J0.0
G2 Y42.7543 Z-1.0667 I0.0025 J0.0043
G2 X251.055 Y42.75 Z-1.2 I0.0025 J-0.0043
G2 X251.0475 Y42.7457 Z-1.3333 I-0.005 J0.0
G2 Y42.7543 Z-1.4667 I0.0025 J0.0043
G2 X251.0535 Y42.7535 Z-1.55 I0.0025 J-0.0043
G2 X251.0513 Y42.7452 I-0.0035 J-0.0035
G2 X251.0452 Y42.7513 I-0.0013 J0.0048
G2 X251.0535 Y42.7535 I0.0048 J-0.0013
G0 Z3.0
G0 X257.155 Y42.75
G0 Z1.0
G1 F500.0 Z0.0
G2 F800.0 X256.2475 Y42.2261 Z-0.1333 I-0.605 J0.0
G2 Y43.2739 Z-0.2667 I0.3025 J0.5239
G2 X257.155 Y42.75 Z-0.4 I0.3025 J-0.5239
G2 X256.2475 Y42.2261 Z-0.5333 I-0.605 J0.0
G2 Y43.2739 Z-0.6667 I0.3025 J0.5239
G2 X257.155 Y42.75 Z-0.8 I0.3025 J-0.5239
G2 X256.2475 Y42.2261 Z-0.9333 I-0.605 J0.0
G2 Y43.2739 Z-1.0667 I0.3025 J0.5239
G2 X257.155 Y42.75 Z-1.2 I0.3025 J-0.5239
G2 X256.2475 Y42.2261 Z-1.3333 I-0.605 J0.0
G2 Y43.2739 Z-1.4667 I0.3025 J0.5239
G2 X256.9778 Y43.1778 Z-1.55 I0.3025 J-0.5239
G2 X256.7066 Y42.1656 I-0.4278 J-0.4278
G2 X255.9656 Y42.9066 I-0.1566 J0.5844
G2 X256.9778 Y43.1778 I0.5844 J-0.1566
G0 Z3.0
G0 X262.055 Y42.75
G0 Z1.0
G1 F500.0 Z0.0
G2 F800.0 X262.0475 Y42.7457 Z-0.1333 I-0.005 J0.0
G2 Y42.7543 Z-0.2667 I0.0025 J0.0043
G2 X262.055 Y42.75 Z-0.4 I0.0025 J-0.0043
G2 X262.0475 Y42.7457 Z-0.5333 I-0.005 J0.0
G2 Y42.7543 Z-0.6667 I0.0025 J0.0043
G2 X262.055 Y42.75 Z-0.8 I0.0025 J-0.0043
G2 X262.0475 Y42.7457 Z-0.9333 I-0.005 J0.0
G2 Y42.7543 Z-1.0667 I0.0025 J0.0043
G2 X262.055 Y42.75 Z-1.2 I0.0025 J-0.0043
G2 X262.0475 Y42.7457 Z-1.3333 I-0.005 J0.0
G2 Y42.7543 Z-1.4667 I0.0025 J0.0043
G2 X262.0535 Y42.7535 Z-1.55 I0.0025 J-0.0043
G2 X262.0513 Y42.7452 I-0.0035 J-0.0035
G2 X262.0452 Y42.7513 I-0.0013 J0.0048
G2 X262.0535 Y42.7535 I0.0048 J-0.0013
G0 Z3.0
G0 X256.555 Y29.65
G0 Z1.0
G1 F500.0 Z0.0
G2 F800.0 X256.5475 Y29.6457 Z-0.1333 I-0.005 J0.0
G2 Y29.6543 Z-0.2667 I0.0025 J0.0043
G2 X256.555 Y29.65 Z-0.4 I0.0025 J-0.0043
G2 X256.5475 Y29.6457 Z-0.5333 I-0.005 J0.0
G2 Y29.6543 Z-0.6667 I0.0025 J0.0043
G2 X256.555 Y29.65 Z-0.8 I0.0025 J-0.0043
G2 X256.5475 Y29.6457 Z-0.9333 I-0.005 J0.0
G2 Y29.6543 Z-1.0667 I0.0025 J0.0043
G2 X256.555 Y29.65 Z-1.2 I0.0025 J-0.0043
G2 X256.5475 Y29.6457 Z-1.3333 I-0.005 J0.0
G2 Y29.6543 Z-1.4667 I0.0025 J0.0043
G2 X256.5535 Y29.6535 Z-1.55 I0.0025 J-0.0043
G2 X256.5513 Y29.6452 I-0.0035 J-0.0035
G2 X256.5452 Y29.6513 I-0.0013 J0.0048
G2 X256.5535 Y29.6535 I0.0048 J-0.0013
G0 Z3.0
G0 X251.555 Y27.55
G0 Z1.0
G1 F500.0 Z0.0
G2 F800.0 X251.5475 Y27.5457 Z-0.1333 I-0.005 J0.0
G2 Y27.5543 Z-0.2667 I0.0025 J0.0043
G2 X251.555 Y27.55 Z-0.4 I0.0025 J-0.0043
G2 X251.5475 Y27.5457 Z-0.5333 I-0.005 J0.0
G2 Y27.5543 Z-0.6667 I0.0025 J0.0043
G2 X251.555 Y27.55 Z-0.8 I0.0025 J-0.0043
G2 X251.5475 Y27.5457 Z-0.9333 I-0.005 J0.0
G2 Y27.5543 Z-1.0667 I0.0025 J0.0043
G2 X251.555 Y27.55 Z-1.2 I0.0025 J-0.0043
G2 X251.5475 Y27.5457 Z-1.3333 I-0.005 J0.0
G2 Y27.5543 Z-1.4667 I0.0025 J0.0043
G2 X251.5535 Y27.5535 Z-1.55 I0.0025 J-0.0043
G2 X251.5513 Y27.5452 I-0.0035 J-0.0035
G2 X251.5452 Y27.5513 I-0.0013 J0.0048
G2 X251.5535 Y27.5535 I0.0048 J-0.0013
G0 Z3.0
G0 X251.055 Y23.75
G0 Z1.0
G1 F500.0 Z0.0
G2 F800.0 X251.0475 Y23.7457 Z-0.1333 I-0.005 J0.0
G2 Y23.7543 Z-0.2667 I0.0025 J0.0043
G2 X251.055 Y23.75 Z-0.4 I0.0025 J-0.0043
G2 X251.0475 Y23.7457 Z-0.5333 I-0.005 J0.0
G2 Y23.7543 Z-0.6667 I0.0025 J0.0043
G2 X251.055 Y23.75 Z-0.8 I0.0025 J-0.0043
G2 X251.0475 Y23.7457 Z-0.9333 I-0.005 J0.0
G2 Y23.7543 Z-1.0667 I0.0025 J0.0043
G2 X251.055 Y23.75 Z-1.2 I0.0025 J-0.0043
G2 X251.0475 Y23.7457 Z-1.3333 I-0.005 J0.0
G2 Y23.7543 Z-1.4667 I0.0025 J0.0043
G2 X251.0535 Y23.7535 Z-1.55 I0.0025 J-0.0043
G2 X251.0513 Y23.7452 I-0.0035 J-0.0035
G2 X251.0452 Y23.7513 I-0.0013 J0.0048
G2 X251.0535 Y23.7535 I0.0048 J-0.0013
G0 Z3.0
G0 X257.155 Y23.75
G0 Z1.0
G1 F500.0 Z0.0
G2 F800.0 X256.2475 Y23.2261 Z-0.1333 I-0.605 J0.0
G2 Y24.2739 Z-0.2667 I0.3025 J0.5239
G2 X257.155 Y23.75 Z-0.4 I0.3025 J-0.5239
G2 X256.2475 Y23.2261 Z-0.5333 I-0.605 J0.0
G2 Y24.2739 Z-0.6667 I0.3025 J0.5239
G2 X257.155 Y23.75 Z-0.8 I0.3025 J-0.5239
G2 X256.2475 Y23.2261 Z-0.9333 I-0.605 J0.0
G2 Y24.2739 Z-1.0667 I0.3025 J0.5239
G2 X257.155 Y23.75 Z-1.2 I0.3025 J-0.5239
G2 X256.2475 Y23.2261 Z-1.3333 I-0.605 J0.0
G2 Y24.2739 Z-1.4667 I0.3025 J0.5239
G2 X256.9778 Y24.1778 Z-1.55 I0.3025 J-0.5239
G2 X256.7066 Y23.1656 I-0.4278 J-0.4278
G2 X255.9656 Y23.9066 I-0.1566 J0.5844
G2 X256.9778 Y24.1778 I0.5844 J-0.1566
G0 Z3.0
G0 X262.055 Y23.75
G0 Z1.0
G1 F500.0 Z0.0
G2 F800.0 X262.0475 Y23.7457 Z-0.1333 I-0.005 J0.0
G2 Y23.7543 Z-0.2667 I0.0025 J0.0043
G2 X262.055 Y23.75 Z-0.4 I0.0025 J-0.0043
G2 X262.0475 Y23.7457 Z-0.5333 I-0.005 J0.0
G2 Y23.7543 Z-0.6667 I0.0025 J0.0043
G2 X262.055 Y23.75 Z-0.8 I0.0025 J-0.0043
G2 X262.0475 Y23.7457 Z-0.9333 I-0.005 J0.0
G2 Y23.7543 Z-1.0667 I0.0025 J0.0043
G2 X262.055 Y23.75 Z-1.2 I0.0025 J-0.0043
G2 X262.0475 Y23.7457 Z-1.3333 I-0.005 J0.0
G2 Y23.7543 Z-1.4667 I0.0025 J0.0043
G2 X262.0535 Y23.7535 Z-1.55 I0.0025 J-0.0043
G2 X262.0513 Y23.7452 I-0.0035 J-0.0035
G2 X262.0452 Y23.7513 I-0.0013 J0.0048
G2 X262.0535 Y23.7535 I0.0048 J-0.0013
G0 Z3.0
G0 X214.555 Y4.75
G0 Z1.0
G1 F500.0 Z0.0
G2 F800.0 X214.5475 Y4.7457 Z-0.1333 I-0.005 J0.0
G2 Y4.7543 Z-0.2667 I0.0025 J0.0043
G2 X214.555 Y4.75 Z-0.4 I0.0025 J-0.0043
G2 X214.5475 Y4.7457 Z-0.5333 I-0.005 J0.0
G2 Y4.7543 Z-0.6667 I0.0025 J0.0043
G2 X214.555 Y4.75 Z-0.8 I0.0025 J-0.0043
G2 X214.5475 Y4.7457 Z-0.9333 I-0.005 J0.0
G2 Y4.7543 Z-1.0667 I0.0025 J0.0043
G2 X214.555 Y4.75 Z-1.2 I0.0025 J-0.0043
G2 X214.5475 Y4.7457 Z-1.3333 I-0.005 J0.0
G2 Y4.7543 Z-1.4667 I0.0025 J0.0043
G2 X214.5535 Y4.7535 Z-1.55 I0.0025 J-0.0043
G2 X214.5513 Y4.7452 I-0.0035 J-0.0035
G2 X214.5452 Y4.7513 I-0.0013 J0.0048
G2 X214.5535 Y4.7535 I0.0048 J-0.0013
G0 Z3.0
G0 X209.655 Y4.75
G0 Z1.0
G1 F500.0 Z0.0
G2 F800.0 X208.7475 Y4.2261 Z-0.1333 I-0.605 J0.0
G2 Y5.2739 Z-0.2667 I0.3025 J0.5239
G2 X209.655 Y4.75 Z-0.4 I0.3025 J-0.5239
G2 X208.7475 Y4.2261 Z-0.5333 I-0.605 J0.0
G2 Y5.2739 Z-0.6667 I0.3025 J0.5239
G2 X209.655 Y4.75 Z-0.8 I0.3025 J-0.5239
G2 X208.7475 Y4.2261 Z-0.9333 I-0.605 J0.0
G2 Y5.2739 Z-1.0667 I0.3025 J0.5239
G2 X209.655 Y4.75 Z-1.2 I0.3025 J-0.5239
G2 X208.7475 Y4.2261 Z-1.3333 I-0.605 J0.0
G2 Y5.2739 Z-1.4667 I0.3025 J0.5239
G2 X209.4778 Y5.1778 Z-1.55 I0.3025 J-0.5239
G2 X209.2066 Y4.1656 I-0.4278 J-0.4278
G2 X208.4656 Y4.9066 I-0.1566 J0.5844
G2 X209.4778 Y5.1778 I0.5844 J-0.1566
G0 Z3.0
G0 X203.555 Y4.75
G0 Z1.0
G1 F500.0 Z0.0
G2 F800.0 X203.5475 Y4.7457 Z-0.1333 I-0.005 J0.0
G2 Y4.7543 Z-0.2667 I0.0025 J0.0043
G2 X203.555 Y4.75 Z-0.4 I0.0025 J-0.0043
G2 X203.5475 Y4.7457 Z-0.5333 I-0.005 J0.0
G2 Y4.7543 Z-0.6667 I0.0025 J0.0043
G2 X203.555 Y4.75 Z-0.8 I0.0025 J-0.0043
G2 X203.5475 Y4.7457 Z-0.9333 I-0.005 J0.0
G2 Y4.7543 Z-1.0667 I0.0025 J0.0043
G2 X203.555 Y4.75 Z-1.2 I0.0025 J-0.0043
G2 X203.5475 Y4.7457 Z-1.3333 I-0.005 J0.0
G2 Y4.7543 Z-1.4667 I0.0025 J0.0043
G2 X203.5535 Y4.7535 Z-1.55 I0.0025 J-0.0043
G2 X203.5513 Y4.7452 I-0.0035 J-0.0035
G2 X203.5452 Y4.7513 I-0.0013 J0.0048
G2 X203.5535 Y4.7535 I0.0048 J-0.0013
G0 Z3.0
G0 X204.055 Y8.55
G0 Z1.0
G1 F500.0 Z0.0
G2 F800.0 X204.0475 Y8.5457 Z-0.1333 I-0.005 J0.0
G2 Y8.5543 Z-0.2667 I0.0025 J0.0043
G2 X204.055 Y8.55 Z-0.4 I0.0025 J-0.0043
G2 X204.0475 Y8.5457 Z-0.5333 I-0.005 J0.0
G2 Y8.5543 Z-0.6667 I0.0025 J0.0043
G2 X204.055 Y8.55 Z-0.8 I0.0025 J-0.0043
G2 X204.0475 Y8.5457 Z-0.9333 I-0.005 J0.0
G2 Y8.5543 Z-1.0667 I0.0025 J0.0043
G2 X204.055 Y8.55 Z-1.2 I0.0025 J-0.0043
G2 X204.0475 Y8.5457 Z-1.3333 I-0.005 J0.0
G2 Y8.5543 Z-1.4667 I0.0025 J0.0043
G2 X204.0535 Y8.5535 Z-1.55 I0.0025 J-0.0043
G2 X204.0513 Y8.5452 I-0.0035 J-0.0035
G2 X204.0452 Y8.5513 I-0.0013 J0.0048
G2 X204.0535 Y8.5535 I0.0048 J-0.0013
G0 Z3.0
G0 X209.055 Y10.65
G0 Z1.0
G1 F500.0 Z0.0
G2 F800.0 X209.0475 Y10.6457 Z-0.1333 I-0.005 J0.0
G2 Y10.6543 Z-0.2667 I0.0025 J0.0043
G2 X209.055 Y10.65 Z-0.4 I0.0025 J-0.0043
G2 X209.0475 Y10.6457 Z-0.5333 I-0.005 J0.0
G2 Y10.6543 Z-0.6667 I0.0025 J0.0043
G2 X209.055 Y10.65 Z-0.8 I0.0025 J-0.0043
G2 X209.0475 Y10.6457 Z-0.9333 I-0.005 J0.0
G2 Y10.6543 Z-1.0667 I0.0025 J0.0043
G2 X209.055 Y10.65 Z-1.2 I0.0025 J-0.0043
G2 X209.0475 Y10.6457 Z-1.3333 I-0.005 J0.0
G2 Y10.6543 Z-1.4667 I0.0025 J0.0043
G2 X209.0535 Y10.6535 Z-1.55 I0.0025 J-0.0043
G2 X209.0513 Y10.6452 I-0.0035 J-0.0035
G2 X209.0452 Y10.6513 I-0.0013 J0.0048
G2 X209.0535 Y10.6535 I0.0048 J-0.0013
G0 Z3.0
G0 X195.555 Y4.75
G0 Z1.0
G1 F500.0 Z0.0
G2 F800.0 X195.5475 Y4.7457 Z-0.1333 I-0.005 J0.0
G2 Y4.7543 Z-0.2667 I0.0025 J0.0043
G2 X195.555 Y4.75 Z-0.4 I0.0025 J-0.0043
G2 X195.5475 Y4.7457 Z-0.5333 I-0.005 J0.0
G2 Y4.7543 Z-0.6667 I0.0025 J0.0043
G2 X195.555 Y4.75 Z-0.8 I0.0025 J-0.0043
G2 X195.5475 Y4.7457 Z-0.9333 I-0.005 J0.0
G2 Y4.7543 Z-1.0667 I0.0025 J0.0043
G2 X195.555 Y4.75 Z-1.2 I0.0025 J-0.0043
G2 X195.5475 Y4.7457 Z-1.3333 I-0.005 J0.0
G2 Y4.7543 Z-1.4667 I0.0025 J0.0043
G2 X195.5535 Y4.7535 Z-1.55 I0.0025 J-0.0043
G2 X195.5513 Y4.7452 I-0.0035 J-0.0035
G2 X195.5452 Y4.7513 I-0.0013 J0.0048
G2 X195.5535 Y4.7535 I0.0048 J-0.0013
G0 Z3.0
G0 X190.655 Y4.75
G0 Z1.0
G1 F500.0 Z0.0
G2 F800.0 X189.7475 Y4.2261 Z-0.1333 I-0.605 J0.0
G2 Y5.2739 Z-0.2667 I0.3025 J0.5239
G2 X190.655 Y4.75 Z-0.4 I0.3025 J-0.5239
G2 X189.7475 Y4.2261 Z-0.5333 I-0.605 J0.0
G2 Y5.2739 Z-0.6667 I0.3025 J0.5239
G2 X190.655 Y4.75 Z-0.8 I0.3025 J-0.5239
G2 X189.7475 Y4.2261 Z-0.9333 I-0.605 J0.0
G2 Y5.2739 Z-1.0667 I0.3025 J0.5239
G2 X190.655 Y4.75 Z-1.2 I0.3025 J-0.5239
G2 X189.7475 Y4.2261 Z-1.3333 I-0.605 J0.0
G2 Y5.2739 Z-1.4667 I0.3025 J0.5239
G2 X190.4778 Y5.1778 Z-1.55 I0.3025 J-0.5239
G2 X190.2066 Y4.1656 I-0.4278 J-0.4278
G2 X189.4656 Y4.9066 I-0.1566 J0.5844
G2 X190.4778 Y5.1778 I0.5844 J-0.1566
G0 Z3.0
G0 X184.555 Y4.75
G0 Z1.0
G1 F500.0 Z0.0
G2 F800.0 X184.5475 Y4.7457 Z-0.1333 I-0.005 J0.0
G2 Y4.7543 Z-0.2667 I0.0025 J0.0043
G2 X184.555 Y4.75 Z-0.4 I0.0025 J-0.0043
G2 X184.5475 Y4.7457 Z-0.5333 I-0.005 J0.0
G2 Y4.7543 Z-0.6667 I0.0025 J0.0043
G2 X184.555 Y4.75 Z-0.8 I0.0025 J-0.0043
G2 X184.5475 Y4.7457 Z-0.9333 I-0.005 J0.0
G2 Y4.7543 Z-1.0667 I0.0025 J0.0043
G2 X184.555 Y4.75 Z-1.2 I0.0025 J-0.0043
G2 X184.5475 Y4.7457 Z-1.3333 I-0.005 J0.0
G2 Y4.7543 Z-1.4667 I0.0025 J0.0043
G2 X184.5535 Y4.7535 Z-1.55 I0.0025 J-0.0043
G2 X184.5513 Y4.7452 I-0.0035 J-0.0035
G2 X184.5452 Y4.7513 I-0.0013 J0.0048
G2 X184.5535 Y4.7535 I0.0048 J-0.0013
G0 Z3.0
G0 X185.055 Y8.55
G0 Z1.0
G1 F500.0 Z0.0
G2 F800.0 X185.0475 Y8.5457 Z-0.1333 I-0.005 J0.0
G2 Y8.5543 Z-0.2667 I0.0025 J0.0043
G2 X185.055 Y8.55 Z-0.4 I0.0025 J-0.0043
G2 X185.0475 Y8.5457 Z-0.5333 I-0.005 J0.0
G2 Y8.5543 Z-0.6667 I0.0025 J0.0043
G2 X185.055 Y8.55 Z-0.8 I0.0025 J-0.0043
G2 X185.0475 Y8.5457 Z-0.9333 I-0.005 J0.0
G2 Y8.5543 Z-1.0667 I0.0025 J0.0043
G2 X185.055 Y8.55 Z-1.2 I0.0025 J-0.0043
G2 X185.0475 Y8.5457 Z-1.3333 I-0.005 J0.0
G2 Y8.5543 Z-1.4667 I0.0025 J0.0043
G2 X185.0535 Y8.5535 Z-1.55 I0.0025 J-0.0043
G2 X185.0513 Y8.5452 I-0.0035 J-0.0035
G2 X185.0452 Y8.5513 I-0.0013 J0.0048
G2 X185.0535 Y8.5535 I0.0048 J-0.0013
G0 Z3.0
G0 X190.055 Y10.65
G0 Z1.0
G1 F500.0 Z0.0
G2 F800.0 X190.0475 Y10.6457 Z-0.1333 I-0.005 J0.0
G2 Y10.6543 Z-0.2667 I0.0025 J0.0043
G2 X190.055 Y10.65 Z-0.4 I0.0025 J-0.0043
G2 X190.0475 Y10.6457 Z-0.5333 I-0.005 J0.0
G2 Y10.6543 Z-0.6667 I0.0025 J0.0043
G2 X190.055 Y10.65 Z-0.8 I0.0025 J-0.0043
G2 X190.0475 Y10.6457 Z-0.9333 I-0.005 J0.0
G2 Y10.6543 Z-1.0667 I0.0025 J0.0043
G2 X190.055 Y10.65 Z-1.2 I0.0025 J-0.0043
G2 X190.0475 Y10.6457 Z-1.3333 I-0.005 J0.0
G2 Y10.6543 Z-1.4667 I0.0025 J0.0043
G2 X190.0535 Y10.6535 Z-1.55 I0.0025 J-0.0043
G2 X190.0513 Y10.6452 I-0.0035 J-0.0035
G2 X190.0452 Y10.6513 I-0.0013 J0.0048
G2 X190.0535 Y10.6535 I0.0048 J-0.0013
G0 Z3.0
G0 X190.655 Y23.75
G0 Z1.0
G1 F500.0 Z0.0
G2 F800.0 X189.7475 Y23.2261 Z-0.1333 I-0.605 J0.0
G2 Y24.2739 Z-0.2667 I0.3025 J0.5239
G2 X190.655 Y23.75 Z-0.4 I0.3025 J-0.5239
G2 X189.7475 Y23.2261 Z-0.5333 I-0.605 J0.0
G2 Y24.2739 Z-0.6667 I0.3025 J0.5239
G2 X190.655 Y23.75 Z-0.8 I0.3025 J-0.5239
G2 X189.7475 Y23.2261 Z-0.9333 I-0.605 J0.0
G2 Y24.2739 Z-1.0667 I0.3025 J0.5239
G2 X190.655 Y23.75 Z-1.2 I0.3025 J-0.5239
G2 X189.7475 Y23.2261 Z-1.3333 I-0.605 J0.0
G2 Y24.2739 Z-1.4667 I0.3025 J0.5239
G2 X190.4778 Y24.1778 Z-1.55 I0.3025 J-0.5239
G2 X190.2066 Y23.1656 I-0.4278 J-0.4278
G2 X189.4656 Y23.9066 I-0.1566 J0.5844
G2 X190.4778 Y24.1778 I0.5844 J-0.1566
G0 Z3.0
G0 X195.555 Y23.75
G0 Z1.0
G1 F500.0 Z0.0
G2 F800.0 X195.5475 Y23.7457 Z-0.1333 I-0.005 J0.0
G2 Y23.7543 Z-0.2667 I0.0025 J0.0043
G2 X195.555 Y23.75 Z-0.4 I0.0025 J-0.0043
G2 X195.5475 Y23.7457 Z-0.5333 I-0.005 J0.0
G2 Y23.7543 Z-0.6667 I0.0025 J0.0043
G2 X195.555 Y23.75 Z-0.8 I0.0025 J-0.0043
G2 X195.5475 Y23.7457 Z-0.9333 I-0.005 J0.0
G2 Y23.7543 Z-1.0667 I0.0025 J0.0043
G2 X195.555 Y23.75 Z-1.2 I0.0025 J-0.0043
G2 X195.5475 Y23.7457 Z-1.3333 I-0.005 J0.0
G2 Y23.7543 Z-1.4667 I0.0025 J0.0043
G2 X195.5535 Y23.7535 Z-1.55 I0.0025 J-0.0043
G2 X195.5513 Y23.7452 I-0.0035 J-0.0035
G2 X195.5452 Y23.7513 I-0.0013 J0.0048
G2 X195.5535 Y23.7535 I0.0048 J-0.0013
G0 Z3.0
G0 X190.055 Y29.65
G0 Z1.0
G1 F500.0 Z0.0
G2 F800.0 X190.0475 Y29.6457 Z-0.1333 I-0.005 J0.0
G2 Y29.6543 Z-0.2667 I0.0025 J0.0043
G2 X190.055 Y29.65 Z-0.4 I0.0025 J-0.0043
G2 X190.0475 Y29.6457 Z-0.5333 I-0.005 J0.0
G2 Y29.6543 Z-0.6667 I0.0025 J0.0043
G2 X190.055 Y29.65 Z-0.8 I0.0025 J-0.0043
G2 X190.0475 Y29.6457 Z-0.9333 I-0.005 J0.0
G2 Y29.6543 Z-1.0667 I0.0025 J0.0043
G2 X190.055 Y29.65 Z-1.2 I0.0025 J-0.0043
G2 X190.0475 Y29.6457 Z-1.3333 I-0.005 J0.0
G2 Y29.6543 Z-1.4667 I0.0025 J0.0043
G2 X190.0535 Y29.6535 Z-1.55 I0.0025 J-0.0043
G2 X190.0513 Y29.6452 I-0.0035 J-0.0035
G2 X190.0452 Y29.6513 I-0.0013 J0.0048
G2 X190.0535 Y29.6535 I0.0048 J-0.0013
G0 Z3.0
G0 X185.055 Y27.55
G0 Z1.0
G1 F500.0 Z0.0
G2 F800.0 X185.0475 Y27.5457 Z-0.1333 I-0.005 J0.0
G2 Y27.5543 Z-0.2667 I0.0025 J0.0043
G2 X185.055 Y27.55 Z-0.4 I0.0025 J-0.0043
G2 X185.0475 Y27.5457 Z-0.5333 I-0.005 J0.0
G2 Y27.5543 Z-0.6667 I0.0025 J0.0043
G2 X185.055 Y27.55 Z-0.8 I0.0025 J-0.0043
G2 X185.0475 Y27.5457 Z-0.9333 I-0.005 J0.0
G2 Y27.5543 Z-1.0667 I0.0025 J0.0043
G2 X185.055 Y27.55 Z-1.2 I0.0025 J-0.0043
G2 X185.0475 Y27.5457 Z-1.3333 I-0.005 J0.0
G2 Y27.5543 Z-1.4667 I0.0025 J0.0043
G2 X185.0535 Y27.5535 Z-1.55 I0.0025 J-0.0043
G2 X185.0513 Y27.5452 I-0.0035 J-0.0035
G2 X185.0452 Y27.5513 I-0.0013 J0.0048
G2 X185.0535 Y27.5535 I0.0048 J-0.0013
G0 Z3.0
G0 X184.555 Y23.75
G0 Z1.0
G1 F500.0 Z0.0
G2 F800.0 X184.5475 Y23.7457 Z-0.1333 I-0.005 J0.0
G2 Y23.7543 Z-0.2667 I0.0025 J0.0043
G2 X184.555 Y23.75 Z-0.4 I0.0025 J-0.0043
G2 X184.5475 Y23.7457 Z-0.5333 I-0.005 J0.0
G2 Y23.7543 Z-0.6667 I0.0025 J0.0043
G2 X184.555 Y23.75 Z-0.8 I0.0025 J-0.0043
G2 X184.5475 Y23.7457 Z-0.9333 I-0.005 J0.0
G2 Y23.7543 Z-1.0667 I0.0025 J0.0043
G2 X184.555 Y23.75 Z-1.2 I0.0025 J-0.0043
G2 X184.5475 Y23.7457 Z-1.3333 I-0.005 J0.0
G2 Y23.7543 Z-1.4667 I0.0025 J0.0043
G2 X184.5535 Y23.7535 Z-1.55 I0.0025 J-0.0043
G2 X184.5513 Y23.7452 I-0.0035 J-0.0035
G2 X184.5452 Y23.7513 I-0.0013 J0.0048
G2 X184.5535 Y23.7535 I0.0048 J-0.0013
G0 Z3.0
G0 X176.555 Y23.75
G0 Z1.0
G1 F500.0 Z0.0
G2 F800.0 X176.5475 Y23.7457 Z-0.1333 I-0.005 J0.0
G2 Y23.7543 Z-0.2667 I0.0025 J0.0043
G2 X176.555 Y23.75 Z-0.4 I0.0025 J-0.0043
G2 X176.5475 Y23.7457 Z-0.5333 I-0.005 J0.0
G2 Y23.7543 Z-0.6667 I0.0025 J0.0043
G2 X176.555 Y23.75 Z-0.8 I0.0025 J-0.0043
G2 X176.5475 Y23.7457 Z-0.9333 I-0.005 J0.0
G2 Y23.7543 Z-1.0667 I0.0025 J0.0043
G2 X176.555 Y23.75 Z-1.2 I0.0025 J-0.0043
G2 X176.5475 Y23.7457 Z-1.3333 I-0.005 J0.0
G2 Y23.7543 Z-1.4667 I0.0025 J0.0043
G2 X176.5535 Y23.7535 Z-1.55 I0.0025 J-0.0043
G2 X176.5513 Y23.7452 I-0.0035 J-0.0035
G2 X176.5452 Y23.7513 I-0.0013 J0.0048
G2 X176.5535 Y23.7535 I0.0048 J-0.0013
G0 Z3.0
G0 X171.655 Y23.75
G0 Z1.0
G1 F500.0 Z0.0
G2 F800.0 X170.7475 Y23.2261 Z-0.1333 I-0.605 J0.0
G2 Y24.2739 Z-0.2667 I0.3025 J0.5239
G2 X171.655 Y23.75 Z-0.4 I0.3025 J-0.5239
G2 X170.7475 Y23.2261 Z-0.5333 I-0.605 J0.0
G2 Y24.2739 Z-0.6667 I0.3025 J0.5239
G2 X171.655 Y23.75 Z-0.8 I0.3025 J-0.5239
G2 X170.7475 Y23.2261 Z-0.9333 I-0.605 J0.0
G2 Y24.2739 Z-1.0667 I0.3025 J0.5239
G2 X171.655 Y23.75 Z-1.2 I0.3025 J-0.5239
G2 X170.7475 Y23.2261 Z-1.3333 I-0.605 J0.0
G2 Y24.2739 Z-1.4667 I0.3025 J0.5239
G2 X171.4778 Y24.1778 Z-1.55 I0.3025 J-0.5239
G2 X171.2066 Y23.1656 I-0.4278 J-0.4278
G2 X170.4656 Y23.9066 I-0.1566 J0.5844
G2 X171.4778 Y24.1778 I0.5844 J-0.1566
G0 Z3.0
G0 X165.555 Y23.75
G0 Z1.0
G1 F500.0 Z0.0
G2 F800.0 X165.5475 Y23.7457 Z-0.1333 I-0.005 J0.0
G2 Y23.7543 Z-0.2667 I0.0025 J0.0043
G2 X165.555 Y23.75 Z-0.4 I0.0025 J-0.0043
G2 X165.5475 Y23.7457 Z-0.5333 I-0.005 J0.0
G2 Y23.7543 Z-0.6667 I0.0025 J0.0043
G2 X165.555 Y23.75 Z-0.8 I0.0025 J-0.0043
G2 X165.5475 Y23.7457 Z-0.9333 I-0.005 J0.0
G2 Y23.7543 Z-1.0667 I0.0025 J0.0043
G2 X165.555 Y23.75 Z-1.2 I0.0025 J-0.0043
G2 X165.5475 Y23.7457 Z-1.3333 I-0.005 J0.0
G2 Y23.7543 Z-1.4667 I0.0025 J0.0043
G2 X165.5535 Y23.7535 Z-1.55 I0.0025 J-0.0043
G2 X165.5513 Y23.7452 I-0.0035 J-0.0035
G2 X165.5452 Y23.7513 I-0.0013 J0.0048
G2 X165.5535 Y23.7535 I0.0048 J-0.0013
G0 Z3.0
G0 X166.055 Y27.55
G0 Z1.0
G1 F500.0 Z0.0
G2 F800.0 X166.0475 Y27.5457 Z-0.1333 I-0.005 J0.0
G2 Y27.5543 Z-0.2667 I0.0025 J0.0043
G2 X166.055 Y27.55 Z-0.4 I0.0025 J-0.0043
G2 X166.0475 Y27.5457 Z-0.5333 I-0.005 J0.0
G2 Y27.5543 Z-0.6667 I0.0025 J0.0043
G2 X166.055 Y27.55 Z-0.8 I0.0025 J-0.0043
G2 X166.0475 Y27.5457 Z-0.9333 I-0.005 J0.0
G2 Y27.5543 Z-1.0667 I0.0025 J0.0043
G2 X166.055 Y27.55 Z-1.2 I0.0025 J-0.0043
G2 X166.0475 Y27.5457 Z-1.3333 I-0.005 J0.0
G2 Y27.5543 Z-1.4667 I0.0025 J0.0043
G2 X166.0535 Y27.5535 Z-1.55 I0.0025 J-0.0043
G2 X166.0513 Y27.5452 I-0.0035 J-0.0035
G2 X166.0452 Y27.5513 I-0.0013 J0.0048
G2 X166.0535 Y27.5535 I0.0048 J-0.0013
G0 Z3.0
G0 X171.055 Y29.65
G0 Z1.0
G1 F500.0 Z0.0
G2 F800.0 X171.0475 Y29.6457 Z-0.1333 I-0.005 J0.0
G2 Y29.6543 Z-0.2667 I0.0025 J0.0043
G2 X171.055 Y29.65 Z-0.4 I0.0025 J-0.0043
G2 X171.0475 Y29.6457 Z-0.5333 I-0.005 J0.0
G2 Y29.6543 Z-0.6667 I0.0025 J0.0043
G2 X171.055 Y29.65 Z-0.8 I0.0025 J-0.0043
G2 X171.0475 Y29.6457 Z-0.9333 I-0.005 J0.0
G2 Y29.6543 Z-1.0667 I0.0025 J0.0043
G2 X171.055 Y29.65 Z-1.2 I0.0025 J-0.0043
G2 X171.0475 Y29.6457 Z-1.3333 I-0.005 J0.0
G2 Y29.6543 Z-1.4667 I0.0025 J0.0043
G2 X171.0535 Y29.6535 Z-1.55 I0.0025 J-0.0043
G2 X171.0513 Y29.6452 I-0.0035 J-0.0035
G2 X171.0452 Y29.6513 I-0.0013 J0.0048
G2 X171.0535 Y29.6535 I0.0048 J-0.0013
G0 Z3.0
G0 X171.655 Y42.75
G0 Z1.0
G1 F500.0 Z0.0
G2 F800.0 X170.7475 Y42.2261 Z-0.1333 I-0.605 J0.0
G2 Y43.2739 Z-0.2667 I0.3025 J0.5239
G2 X171.655 Y42.75 Z-0.4 I0.3025 J-0.5239
G2 X170.7475 Y42.2261 Z-0.5333 I-0.605 J0.0
G2 Y43.2739 Z-0.6667 I0.3025 J0.5239
G2 X171.655 Y42.75 Z-0.8 I0.3025 J-0.5239
G2 X170.7475 Y42.2261 Z-0.9333 I-0.605 J0.0
G2 Y43.2739 Z-1.0667 I0.3025 J0.5239
G2 X171.655 Y42.75 Z-1.2 I0.3025 J-0.5239
G2 X170.7475 Y42.2261 Z-1.3333 I-0.605 J0.0
G2 Y43.2739 Z-1.4667 I0.3025 J0.5239
G2 X171.4778 Y43.1778 Z-1.55 I0.3025 J-0.5239
G2 X171.2066 Y42.1656 I-0.4278 J-0.4278
G2 X170.4656 Y42.9066 I-0.1566 J0.5844
G2 X171.4778 Y43.1778 I0.5844 J-0.1566
G0 Z3.0
G0 X176.555 Y42.75
G0 Z1.0
G1 F500.0 Z0.0
G2 F800.0 X176.5475 Y42.7457 Z-0.1333 I-0.005 J0.0
G2 Y42.7543 Z-0.2667 I0.0025 J0.0043
G2 X176.555 Y42.75 Z-0.4 I0.0025 J-0.0043
G2 X176.5475 Y42.7457 Z-0.5333 I-0.005 J0.0
G2 Y42.7543 Z-0.6667 I0.0025 J0.0043
G2 X176.555 Y42.75 Z-0.8 I0.0025 J-0.0043
G2 X176.5475 Y42.7457 Z-0.9333 I-0.005 J0.0
G2 Y42.7543 Z-1.0667 I0.0025 J0.0043
G2 X176.555 Y42.75 Z-1.2 I0.0025 J-0.0043
G2 X176.5475 Y42.7457 Z-1.3333 I-0.005 J0.0
G2 Y42.7543 Z-1.4667 I0.0025 J0.0043
G2 X176.5535 Y42.7535 Z-1.55 I0.0025 J-0.0043
G2 X176.5513 Y42.7452 I-0.0035 J-0.0035
G2 X176.5452 Y42.7513 I-0.0013 J0.0048
G2 X176.5535 Y42.7535 I0.0048 J-0.0013
G0 Z3.0
G0 X184.555 Y42.75
G0 Z1.0
G1 F500.0 Z0.0
G2 F800.0 X184.5475 Y42.7457 Z-0.1333 I-0.005 J0.0
G2 Y42.7543 Z-0.2667 I0.0025 J0.0043
G2 X184.555 Y42.75 Z-0.4 I0.0025 J-0.0043
G2 X184.5475 Y42.7457 Z-0.5333 I-0.005 J0.0
G2 Y42.7543 Z-0.6667 I0.0025 J0.0043
G2 X184.555 Y42.75 Z-0.8 I0.0025 J-0.0043
G2 X184.5475 Y42.7457 Z-0.9333 I-0.005 J0.0
G2 Y42.7543 Z-1.0667 I0.0025 J0.0043
G2 X184.555 Y42.75 Z-1.2 I0.0025 J-0.0043
G2 X184.5475 Y42.7457 Z-1.3333 I-0.005 J0.0
G2 Y42.7543 Z-1.4667 I0.0025 J0.0043
G2 X184.5535 Y42.7535 Z-1.55 I0.0025 J-0.0043
G2 X184.5513 Y42.7452 I-0.0035 J-0.0035
G2 X184.5452 Y42.7513 I-0.0013 J0.0048
G2 X184.5535 Y42.7535 I0.0048 J-0.0013
G0 Z3.0
G0 X185.055 Y46.55
G0 Z1.0
G1 F500.0 Z0.0
G2 F800.0 X185.0475 Y46.5457 Z-0.1333 I-0.005 J0.0
G2 Y46.5543 Z-0.2667 I0.0025 J0.0043
G2 X185.055 Y46.55 Z-0.4 I0.0025 J-0.0043
G2 X185.0475 Y46.5457 Z-0.5333 I-0.005 J0.0
G2 Y46.5543 Z-0.6667 I0.0025 J0.0043
G2 X185.055 Y46.55 Z-0.8 I0.0025 J-0.0043
G2 X185.0475 Y46.5457 Z-0.9333 I-0.005 J0.0
G2 Y46.5543 Z-1.0667 I0.0025 J0.0043
G2 X185.055 Y46.55 Z-1.2 I0.0025 J-0.0043
G2 X185.0475 Y46.5457 Z-1.3333 I-0.005 J0.0
G2 Y46.5543 Z-1.4667 I0.0025 J0.0043
G2 X185.0535 Y46.5535 Z-1.55 I0.0025 J-0.0043
G2 X185.0513 Y46.5452 I-0.0035 J-0.0035
G2 X185.0452 Y46.5513 I-0.0013 J0.0048
G2 X185.0535 Y46.5535 I0.0048 J-0.0013
G0 Z3.0
G0 X190.055 Y48.65
G0 Z1.0
G1 F500.0 Z0.0
G2 F800.0 X190.0475 Y48.6457 Z-0.1333 I-0.005 J0.0
G2 Y48.6543 Z-0.2667 I0.0025 J0.0043
G2 X190.055 Y48.65 Z-0.4 I0.0025 J-0.0043
G2 X190.0475 Y48.6457 Z-0.5333 I-0.005 J0.0
G2 Y48.6543 Z-0.6667 I0.0025 J0.0043
G2 X190.055 Y48.65 Z-0.8 I0.0025 J-0.0043
G2 X190.0475 Y48.6457 Z-0.9333 I-0.005 J0.0
G2 Y48.6543 Z-1.0667 I0.0025 J0.0043
G2 X190.055 Y48.65 Z-1.2 I0.0025 J-0.0043
G2 X190.0475 Y48.6457 Z-1.3333 I-0.005 J0.0
G2 Y48.6543 Z-1.4667 I0.0025 J0.0043
G2 X190.0535 Y48.6535 Z-1.55 I0.0025 J-0.0043
G2 X190.0513 Y48.6452 I-0.0035 J-0.0035
G2 X190.0452 Y48.6513 I-0.0013 J0.0048
G2 X190.0535 Y48.6535 I0.0048 J-0.0013
G0 Z3.0
G0 X190.655 Y42.75
G0 Z1.0
G1 F500.0 Z0.0
G2 F800.0 X189.7475 Y42.2261 Z-0.1333 I-0.605 J0.0
G2 Y43.2739 Z-0.2667 I0.3025 J0.5239
G2 X190.655 Y42.75 Z-0.4 I0.3025 J-0.5239
G2 X189.7475 Y42.2261 Z-0.5333 I-0.605 J0.0
G2 Y43.2739 Z-0.6667 I0.3025 J0.5239
G2 X190.655 Y42.75 Z-0.8 I0.3025 J-0.5239
G2 X189.7475 Y42.2261 Z-0.9333 I-0.605 J0.0
G2 Y43.2739 Z-1.0667 I0.3025 J0.5239
G2 X190.655 Y42.75 Z-1.2 I0.3025 J-0.5239
G2 X189.7475 Y42.2261 Z-1.3333 I-0.605 J0.0
G2 Y43.2739 Z-1.4667 I0.3025 J0.5239
G2 X190.4778 Y43.1778 Z-1.55 I0.3025 J-0.5239
G2 X190.2066 Y42.1656 I-0.4278 J-0.4278
G2 X189.4656 Y42.9066 I-0.1566 J0.5844
G2 X190.4778 Y43.1778 I0.5844 J-0.1566
G0 Z3.0
G0 X195.555 Y42.75
G0 Z1.0
G1 F500.0 Z0.0
G2 F800.0 X195.5475 Y42.7457 Z-0.1333 I-0.005 J0.0
G2 Y42.7543 Z-0.2667 I0.0025 J0.0043
G2 X195.555 Y42.75 Z-0.4 I0.0025 J-0.0043
G2 X195.5475 Y42.7457 Z-0.5333 I-0.005 J0.0
G2 Y42.7543 Z-0.6667 I0.0025 J0.0043
G2 X195.555 Y42.75 Z-0.8 I0.0025 J-0.0043
G2 X195.5475 Y42.7457 Z-0.9333 I-0.005 J0.0
G2 Y42.7543 Z-1.0667 I0.0025 J0.0043
G2 X195.555 Y42.75 Z-1.2 I0.0025 J-0.0043
G2 X195.5475 Y42.7457 Z-1.3333 I-0.005 J0.0
G2 Y42.7543 Z-1.4667 I0.0025 J0.0043
G2 X195.5535 Y42.7535 Z-1.55 I0.0025 J-0.0043
G2 X195.5513 Y42.7452 I-0.0035 J-0.0035
G2 X195.5452 Y42.7513 I-0.0013 J0.0048
G2 X195.5535 Y42.7535 I0.0048 J-0.0013
G0 Z3.0
G0 X203.555 Y42.75
G0 Z1.0
G1 F500.0 Z0.0
G2 F800.0 X203.5475 Y42.7457 Z-0.1333 I-0.005 J0.0
G2 Y42.7543 Z-0.2667 I0.0025 J0.0043
G2 X203.555 Y42.75 Z-0.4 I0.0025 J-0.0043
G2 X203.5475 Y42.7457 Z-0.5333 I-0.005 J0.0
G2 Y42.7543 Z-0.6667 I0.0025 J0.0043
G2 X203.555 Y42.75 Z-0.8 I0.0025 J-0.0043
G2 X203.5475 Y42.7457 Z-0.9333 I-0.005 J0.0
G2 Y42.7543 Z-1.0667 I0.0025 J0.0043
G2 X203.555 Y42.75 Z-1.2 I0.0025 J-0.0043
G2 X203.5475 Y42.7457 Z-1.3333 I-0.005 J0.0
G2 Y42.7543 Z-1.4667 I0.0025 J0.0043
G2 X203.5535 Y42.7535 Z-1.55 I0.0025 J-0.0043
G2 X203.5513 Y42.7452 I-0.0035 J-0.0035
G2 X203.5452 Y42.7513 I-0.0013 J0.0048
G2 X203.5535 Y42.7535 I0.0048 J-0.0013
G0 Z3.0
G0 X204.055 Y46.55
G0 Z1.0
G1 F500.0 Z0.0
G2 F800.0 X204.0475 Y46.5457 Z-0.1333 I-0.005 J0.0
G2 Y46.5543 Z-0.2667 I0.0025 J0.0043
G2 X204.055 Y46.55 Z-0.4 I0.0025 J-0.0043
G2 X204.0475 Y46.5457 Z-0.5333 I-0.005 J0.0
G2 Y46.5543 Z-0.6667 I0.0025 J0.0043
G2 X204.055 Y46.55 Z-0.8 I0.0025 J-0.0043
G2 X204.0475 Y46.5457 Z-0.9333 I-0.005 J0.0
G2 Y46.5543 Z-1.0667 I0.0025 J0.0043
G2 X204.055 Y46.55 Z-1.2 I0.0025 J-0.0043
G2 X204.0475 Y46.5457 Z-1.3333 I-0.005 J0.0
G2 Y46.5543 Z-1.4667 I0.0025 J0.0043
G2 X204.0535 Y46.5535 Z-1.55 I0.0025 J-0.0043
G2 X204.0513 Y46.5452 I-0.0035 J-0.0035
G2 X204.0452 Y46.5513 I-0.0013 J0.0048
G2 X204.0535 Y46.5535 I0.0048 J-0.0013
G0 Z3.0
G0 X209.055 Y48.65
G0 Z1.0
G1 F500.0 Z0.0
G2 F800.0 X209.0475 Y48.6457 Z-0.1333 I-0.005 J0.0
G2 Y48.6543 Z-0.2667 I0.0025 J0.0043
G2 X209.055 Y48.65 Z-0.4 I0.0025 J-0.0043
G2 X209.0475 Y48.6457 Z-0.5333 I-0.005 J0.0
G2 Y48.6543 Z-0.6667 I0.0025 J0.0043
G2 X209.055 Y48.65 Z-0.8 I0.0025 J-0.0043
G2 X209.0475 Y48.6457 Z-0.9333 I-0.005 J0.0
G2 Y48.6543 Z-1.0667 I0.0025 J0.0043
G2 X209.055 Y48.65 Z-1.2 I0.0025 J-0.0043
G2 X209.0475 Y48.6457 Z-1.3333 I-0.005 J0.0
G2 Y48.6543 Z-1.4667 I0.0025 J0.0043
G2 X209.0535 Y48.6535 Z-1.55 I0.0025 J-0.0043
G2 X209.0513 Y48.6452 I-0.0035 J-0.0035
G2 X209.0452 Y48.6513 I-0.0013 J0.0048
G2 X209.0535 Y48.6535 I0.0048 J-0.0013
G0 Z3.0
G0 X209.655 Y42.75
G0 Z1.0
G1 F500.0 Z0.0
G2 F800.0 X208.7475 Y42.2261 Z-0.1333 I-0.605 J0.0
G2 Y43.2739 Z-0.2667 I0.3025 J0.5239
G2 X209.655 Y42.75 Z-0.4 I0.3025 J-0.5239
G2 X208.7475 Y42.2261 Z-0.5333 I-0.605 J0.0
G2 Y43.2739 Z-0.6667 I0.3025 J0.5239
G2 X209.655 Y42.75 Z-0.8 I0.3025 J-0.5239
G2 X208.7475 Y42.2261 Z-0.9333 I-0.605 J0.0
G2 Y43.2739 Z-1.0667 I0.3025 J0.5239
G2 X209.655 Y42.75 Z-1.2 I0.3025 J-0.5239
G2 X208.7475 Y42.2261 Z-1.3333 I-0.605 J0.0
G2 Y43.2739 Z-1.4667 I0.3025 J0.5239
G2 X209.4778 Y43.1778 Z-1.55 I0.3025 J-0.5239
G2 X209.2066 Y42.1656 I-0.4278 J-0.4278
G2 X208.4656 Y42.9066 I-0.1566 J0.5844
G2 X209.4778 Y43.1778 I0.5844 J-0.1566
G0 Z3.0
G0 X214.555 Y42.75
G0 Z1.0
G1 F500.0 Z0.0
G2 F800.0 X214.5475 Y42.7457 Z-0.1333 I-0.005 J0.0
G2 Y42.7543 Z-0.2667 I0.0025 J0.0043
G2 X214.555 Y42.75 Z-0.4 I0.0025 J-0.0043
G2 X214.5475 Y42.7457 Z-0.5333 I-0.005 J0.0
G2 Y42.7543 Z-0.6667 I0.0025 J0.0043
G2 X214.555 Y42.75 Z-0.8 I0.0025 J-0.0043
G2 X214.5475 Y42.7457 Z-0.9333 I-0.005 J0.0
G2 Y42.7543 Z-1.0667 I0.0025 J0.0043
G2 X214.555 Y42.75 Z-1.2 I0.0025 J-0.0043
G2 X214.5475 Y42.7457 Z-1.3333 I-0.005 J0.0
G2 Y42.7543 Z-1.4667 I0.0025 J0.0043
G2 X214.5535 Y42.7535 Z-1.55 I0.0025 J-0.0043
G2 X214.5513 Y42.7452 I-0.0035 J-0.0035
G2 X214.5452 Y42.7513 I-0.0013 J0.0048
G2 X214.5535 Y42.7535 I0.0048 J-0.0013
G0 Z3.0
G0 X214.555 Y61.75
G0 Z1.0
G1 F500.0 Z0.0
G2 F800.0 X214.5475 Y61.7457 Z-0.1333 I-0.005 J0.0
G2 Y61.7543 Z-0.2667 I0.0025 J0.0043
G2 X214.555 Y61.75 Z-0.4 I0.0025 J-0.0043
G2 X214.5475 Y61.7457 Z-0.5333 I-0.005 J0.0
G2 Y61.7543 Z-0.6667 I0.0025 J0.0043
G2 X214.555 Y61.75 Z-0.8 I0.0025 J-0.0043
G2 X214.5475 Y61.7457 Z-0.9333 I-0.005 J0.0
G2 Y61.7543 Z-1.0667 I0.0025 J0.0043
G2 X214.555 Y61.75 Z-1.2 I0.0025 J-0.0043
G2 X214.5475 Y61.7457 Z-1.3333 I-0.005 J0.0
G2 Y61.7543 Z-1.4667 I0.0025 J0.0043
G2 X214.5535 Y61.7535 Z-1.55 I0.0025 J-0.0043
G2 X214.5513 Y61.7452 I-0.0035 J-0.0035
G2 X214.5452 Y61.7513 I-0.0013 J0.0048
G2 X214.5535 Y61.7535 I0.0048 J-0.0013
G0 Z3.0
G0 X209.655 Y61.75
G0 Z1.0
G1 F500.0 Z0.0
G2 F800.0 X208.7475 Y61.2261 Z-0.1333 I-0.605 J0.0
G2 Y62.2739 Z-0.2667 I0.3025 J0.5239
G2 X209.655 Y61.75 Z-0.4 I0.3025 J-0.5239
G2 X208.7475 Y61.2261 Z-0.5333 I-0.605 J0.0
G2 Y62.2739 Z-0.6667 I0.3025 J0.5239
G2 X209.655 Y61.75 Z-0.8 I0.3025 J-0.5239
G2 X208.7475 Y61.2261 Z-0.9333 I-0.605 J0.0
G2 Y62.2739 Z-1.0667 I0.3025 J0.5239
G2 X209.655 Y61.75 Z-1.2 I0.3025 J-0.5239
G2 X208.7475 Y61.2261 Z-1.3333 I-0.605 J0.0
G2 Y62.2739 Z-1.4667 I0.3025 J0.5239
G2 X209.4778 Y62.1778 Z-1.55 I0.3025 J-0.5239
G2 X209.2066 Y61.1656 I-0.4278 J-0.4278
G2 X208.4656 Y61.9066 I-0.1566 J0.5844
G2 X209.4778 Y62.1778 I0.5844 J-0.1566
G0 Z3.0
G0 X203.555 Y61.75
G0 Z1.0
G1 F500.0 Z0.0
G2 F800.0 X203.5475 Y61.7457 Z-0.1333 I-0.005 J0.0
G2 Y61.7543 Z-0.2667 I0.0025 J0.0043
G2 X203.555 Y61.75 Z-0.4 I0.0025 J-0.0043
G2 X203.5475 Y61.7457 Z-0.5333 I-0.005 J0.0
G2 Y61.7543 Z-0.6667 I0.0025 J0.0043
G2 X203.555 Y61.75 Z-0.8 I0.0025 J-0.0043
G2 X203.5475 Y61.7457 Z-0.9333 I-0.005 J0.0
G2 Y61.7543 Z-1.0667 I0.0025 J0.0043
G2 X203.555 Y61.75 Z-1.2 I0.0025 J-0.0043
G2 X203.5475 Y61.7457 Z-1.3333 I-0.005 J0.0
G2 Y61.7543 Z-1.4667 I0.0025 J0.0043
G2 X203.5535 Y61.7535 Z-1.55 I0.0025 J-0.0043
G2 X203.5513 Y61.7452 I-0.0035 J-0.0035
G2 X203.5452 Y61.7513 I-0.0013 J0.0048
G2 X203.5535 Y61.7535 I0.0048 J-0.0013
G0 Z3.0
G0 X204.055 Y65.55
G0 Z1.0
G1 F500.0 Z0.0
G2 F800.0 X204.0475 Y65.5457 Z-0.1333 I-0.005 J0.0
G2 Y65.5543 Z-0.2667 I0.0025 J0.0043
G2 X204.055 Y65.55 Z-0.4 I0.0025 J-0.0043
G2 X204.0475 Y65.5457 Z-0.5333 I-0.005 J0.0
G2 Y65.5543 Z-0.6667 I0.0025 J0.0043
G2 X204.055 Y65.55 Z-0.8 I0.0025 J-0.0043
G2 X204.0475 Y65.5457 Z-0.9333 I-0.005 J0.0
G2 Y65.5543 Z-1.0667 I0.0025 J0.0043
G2 X204.055 Y65.55 Z-1.2 I0.0025 J-0.0043
G2 X204.0475 Y65.5457 Z-1.3333 I-0.005 J0.0
G2 Y65.5543 Z-1.4667 I0.0025 J0.0043
G2 X204.0535 Y65.5535 Z-1.55 I0.0025 J-0.0043
G2 X204.0513 Y65.5452 I-0.0035 J-0.0035
G2 X204.0452 Y65.5513 I-0.0013 J0.0048
G2 X204.0535 Y65.5535 I0.0048 J-0.0013
G0 Z3.0
G0 X209.055 Y67.65
G0 Z1.0
G1 F500.0 Z0.0
G2 F800.0 X209.0475 Y67.6457 Z-0.1333 I-0.005 J0.0
G2 Y67.6543 Z-0.2667 I0.0025 J0.0043
G2 X209.055 Y67.65 Z-0.4 I0.0025 J-0.0043
G2 X209.0475 Y67.6457 Z-0.5333 I-0.005 J0.0
G2 Y67.6543 Z-0.6667 I0.0025 J0.0043
G2 X209.055 Y67.65 Z-0.8 I0.0025 J-0.0043
G2 X209.0475 Y67.6457 Z-0.9333 I-0.005 J0.0
G2 Y67.6543 Z-1.0667 I0.0025 J0.0043
G2 X209.055 Y67.65 Z-1.2 I0.0025 J-0.0043
G2 X209.0475 Y67.6457 Z-1.3333 I-0.005 J0.0
G2 Y67.6543 Z-1.4667 I0.0025 J0.0043
G2 X209.0535 Y67.6535 Z-1.55 I0.0025 J-0.0043
G2 X209.0513 Y67.6452 I-0.0035 J-0.0035
G2 X209.0452 Y67.6513 I-0.0013 J0.0048
G2 X209.0535 Y67.6535 I0.0048 J-0.0013
G0 Z3.0
G0 X209.655 Y80.75
G0 Z1.0
G1 F500.0 Z0.0
G2 F800.0 X208.7475 Y80.2261 Z-0.1333 I-0.605 J0.0
G2 Y81.2739 Z-0.2667 I0.3025 J0.5239
G2 X209.655 Y80.75 Z-0.4 I0.3025 J-0.5239
G2 X208.7475 Y80.2261 Z-0.5333 I-0.605 J0.0
G2 Y81.2739 Z-0.6667 I0.3025 J0.5239
G2 X209.655 Y80.75 Z-0.8 I0.3025 J-0.5239
G2 X208.7475 Y80.2261 Z-0.9333 I-0.605 J0.0
G2 Y81.2739 Z-1.0667 I0.3025 J0.5239
G2 X209.655 Y80.75 Z-1.2 I0.3025 J-0.5239
G2 X208.7475 Y80.2261 Z-1.3333 I-0.605 J0.0
G2 Y81.2739 Z-1.4667 I0.3025 J0.5239
G2 X209.4778 Y81.1778 Z-1.55 I0.3025 J-0.5239
G2 X209.2066 Y80.1656 I-0.4278 J-0.4278
G2 X208.4656 Y80.9066 I-0.1566 J0.5844
G2 X209.4778 Y81.1778 I0.5844 J-0.1566
G0 Z3.0
G0 X214.555 Y80.75
G0 Z1.0
G1 F500.0 Z0.0
G2 F800.0 X214.5475 Y80.7457 Z-0.1333 I-0.005 J0.0
G2 Y80.7543 Z-0.2667 I0.0025 J0.0043
G2 X214.555 Y80.75 Z-0.4 I0.0025 J-0.0043
G2 X214.5475 Y80.7457 Z-0.5333 I-0.005 J0.0
G2 Y80.7543 Z-0.6667 I0.0025 J0.0043
G2 X214.555 Y80.75 Z-0.8 I0.0025 J-0.0043
G2 X214.5475 Y80.7457 Z-0.9333 I-0.005 J0.0
G2 Y80.7543 Z-1.0667 I0.0025 J0.0043
G2 X214.555 Y80.75 Z-1.2 I0.0025 J-0.0043
G2 X214.5475 Y80.7457 Z-1.3333 I-0.005 J0.0
G2 Y80.7543 Z-1.4667 I0.0025 J0.0043
G2 X214.5535 Y80.7535 Z-1.55 I0.0025 J-0.0043
G2 X214.5513 Y80.7452 I-0.0035 J-0.0035
G2 X214.5452 Y80.7513 I-0.0013 J0.0048
G2 X214.5535 Y80.7535 I0.0048 J-0.0013
G0 Z3.0
G0 X209.055 Y86.65
G0 Z1.0
G1 F500.0 Z0.0
G2 F800.0 X209.0475 Y86.6457 Z-0.1333 I-0.005 J0.0
G2 Y86.6543 Z-0.2667 I0.0025 J0.0043
G2 X209.055 Y86.65 Z-0.4 I0.0025 J-0.0043
G2 X209.0475 Y86.6457 Z-0.5333 I-0.005 J0.0
G2 Y86.6543 Z-0.6667 I0.0025 J0.0043
G2 X209.055 Y86.65 Z-0.8 I0.0025 J-0.0043
G2 X209.0475 Y86.6457 Z-0.9333 I-0.005 J0.0
G2 Y86.6543 Z-1.0667 I0.0025 J0.0043
G2 X209.055 Y86.65 Z-1.2 I0.0025 J-0.0043
G2 X209.0475 Y86.6457 Z-1.3333 I-0.005 J0.0
G2 Y86.6543 Z-1.4667 I0.0025 J0.0043
G2 X209.0535 Y86.6535 Z-1.55 I0.0025 J-0.0043
G2 X209.0513 Y86.6452 I-0.0035 J-0.0035
G2 X209.0452 Y86.6513 I-0.0013 J0.0048
G2 X209.0535 Y86.6535 I0.0048 J-0.0013
G0 Z3.0
G0 X204.055 Y84.55
G0 Z1.0
G1 F500.0 Z0.0
G2 F800.0 X204.0475 Y84.5457 Z-0.1333 I-0.005 J0.0
G2 Y84.5543 Z-0.2667 I0.0025 J0.0043
G2 X204.055 Y84.55 Z-0.4 I0.0025 J-0.0043
G2 X204.0475 Y84.5457 Z-0.5333 I-0.005 J0.0
G2 Y84.5543 Z-0.6667 I0.0025 J0.0043
G2 X204.055 Y84.55 Z-0.8 I0.0025 J-0.0043
G2 X204.0475 Y84.5457 Z-0.9333 I-0.005 J0.0
G2 Y84.5543 Z-1.0667 I0.0025 J0.0043
G2 X204.055 Y84.55 Z-1.2 I0.0025 J-0.0043
G2 X204.0475 Y84.5457 Z-1.3333 I-0.005 J0.0
G2 Y84.5543 Z-1.4667 I0.0025 J0.0043
G2 X204.0535 Y84.5535 Z-1.55 I0.0025 J-0.0043
G2 X204.0513 Y84.5452 I-0.0035 J-0.0035
G2 X204.0452 Y84.5513 I-0.0013 J0.0048
G2 X204.0535 Y84.5535 I0.0048 J-0.0013
G0 Z3.0
G0 X203.555 Y80.75
G0 Z1.0
G1 F500.0 Z0.0
G2 F800.0 X203.5475 Y80.7457 Z-0.1333 I-0.005 J0.0
G2 Y80.7543 Z-0.2667 I0.0025 J0.0043
G2 X203.555 Y80.75 Z-0.4 I0.0025 J-0.0043
G2 X203.5475 Y80.7457 Z-0.5333 I-0.005 J0.0
G2 Y80.7543 Z-0.6667 I0.0025 J0.0043
G2 X203.555 Y80.75 Z-0.8 I0.0025 J-0.0043
G2 X203.5475 Y80.7457 Z-0.9333 I-0.005 J0.0
G2 Y80.7543 Z-1.0667 I0.0025 J0.0043
G2 X203.555 Y80.75 Z-1.2 I0.0025 J-0.0043
G2 X203.5475 Y80.7457 Z-1.3333 I-0.005 J0.0
G2 Y80.7543 Z-1.4667 I0.0025 J0.0043
G2 X203.5535 Y80.7535 Z-1.55 I0.0025 J-0.0043
G2 X203.5513 Y80.7452 I-0.0035 J-0.0035
G2 X203.5452 Y80.7513 I-0.0013 J0.0048
G2 X203.5535 Y80.7535 I0.0048 J-0.0013
G0 Z3.0
G0 X195.555 Y80.75
G0 Z1.0
G1 F500.0 Z0.0
G2 F800.0 X195.5475 Y80.7457 Z-0.1333 I-0.005 J0.0
G2 Y80.7543 Z-0.2667 I0.0025 J0.0043
G2 X195.555 Y80.75 Z-0.4 I0.0025 J-0.0043
G2 X195.5475 Y80.7457 Z-0.5333 I-0.005 J0.0
G2 Y80.7543 Z-0.6667 I0.0025 J0.0043
G2 X195.555 Y80.75 Z-0.8 I0.0025 J-0.0043
G2 X195.5475 Y80.7457 Z-0.9333 I-0.005 J0.0
G2 Y80.7543 Z-1.0667 I0.0025 J0.0043
G2 X195.555 Y80.75 Z-1.2 I0.0025 J-0.0043
G2 X195.5475 Y80.7457 Z-1.3333 I-0.005 J0.0
G2 Y80.7543 Z-1.4667 I0.0025 J0.0043
G2 X195.5535 Y80.7535 Z-1.55 I0.0025 J-0.0043
G2 X195.5513 Y80.7452 I-0.0035 J-0.0035
G2 X195.5452 Y80.7513 I-0.0013 J0.0048
G2 X195.5535 Y80.7535 I0.0048 J-0.0013
G0 Z3.0
G0 X190.655 Y80.75
G0 Z1.0
G1 F500.0 Z0.0
G2 F800.0 X189.7475 Y80.2261 Z-0.1333 I-0.605 J0.0
G2 Y81.2739 Z-0.2667 I0.3025 J0.5239
G2 X190.655 Y80.75 Z-0.4 I0.3025 J-0.5239
G2 X189.7475 Y80.2261 Z-0.5333 I-0.605 J0.0
G2 Y81.2739 Z-0.6667 I0.3025 J0.5239
G2 X190.655 Y80.75 Z-0.8 I0.3025 J-0.5239
G2 X189.7475 Y80.2261 Z-0.9333 I-0.605 J0.0
G2 Y81.2739 Z-1.0667 I0.3025 J0.5239
G2 X190.655 Y80.75 Z-1.2 I0.3025 J-0.5239
G2 X189.7475 Y80.2261 Z-1.3333 I-0.605 J0.0
G2 Y81.2739 Z-1.4667 I0.3025 J0.5239
G2 X190.4778 Y81.1778 Z-1.55 I0.3025 J-0.5239
G2 X190.2066 Y80.1656 I-0.4278 J-0.4278
G2 X189.4656 Y80.9066 I-0.1566 J0.5844
G2 X190.4778 Y81.1778 I0.5844 J-0.1566
G0 Z3.0
G0 X184.555 Y80.75
G0 Z1.0
G1 F500.0 Z0.0
G2 F800.0 X184.5475 Y80.7457 Z-0.1333 I-0.005 J0.0
G2 Y80.7543 Z-0.2667 I0.0025 J0.0043
G2 X184.555 Y80.75 Z-0.4 I0.0025 J-0.0043
G2 X184.5475 Y80.7457 Z-0.5333 I-0.005 J0.0
G2 Y80.7543 Z-0.6667 I0.0025 J0.0043
G2 X184.555 Y80.75 Z-0.8 I0.0025 J-0.0043
G2 X184.5475 Y80.7457 Z-0.9333 I-0.005 J0.0
G2 Y80.7543 Z-1.0667 I0.0025 J0.0043
G2 X184.555 Y80.75 Z-1.2 I0.0025 J-0.0043
G2 X184.5475 Y80.7457 Z-1.3333 I-0.005 J0.0
G2 Y80.7543 Z-1.4667 I0.0025 J0.0043
G2 X184.5535 Y80.7535 Z-1.55 I0.0025 J-0.0043
G2 X184.5513 Y80.7452 I-0.0035 J-0.0035
G2 X184.5452 Y80.7513 I-0.0013 J0.0048
G2 X184.5535 Y80.7535 I0.0048 J-0.0013
G0 Z3.0
G0 X185.055 Y84.55
G0 Z1.0
G1 F500.0 Z0.0
G2 F800.0 X185.0475 Y84.5457 Z-0.1333 I-0.005 J0.0
G2 Y84.5543 Z-0.2667 I0.0025 J0.0043
G2 X185.055 Y84.55 Z-0.4 I0.0025 J-0.0043
G2 X185.0475 Y84.5457 Z-0.5333 I-0.005 J0.0
G2 Y84.5543 Z-0.6667 I0.0025 J0.0043
G2 X185.055 Y84.55 Z-0.8 I0.0025 J-0.0043
G2 X185.0475 Y84.5457 Z-0.9333 I-0.005 J0.0
G2 Y84.5543 Z-1.0667 I0.0025 J0.0043
G2 X185.055 Y84.55 Z-1.2 I0.0025 J-0.0043
G2 X185.0475 Y84.5457 Z-1.3333 I-0.005 J0.0
G2 Y84.5543 Z-1.4667 I0.0025 J0.0043
G2 X185.0535 Y84.5535 Z-1.55 I0.0025 J-0.0043
G2 X185.0513 Y84.5452 I-0.0035 J-0.0035
G2 X185.0452 Y84.5513 I-0.0013 J0.0048
G2 X185.0535 Y84.5535 I0.0048 J-0.0013
G0 Z3.0
G0 X185.055 Y88.7619
G0 Z1.0
G1 F500.0 Z0.0
G2 F800.0 X185.0475 Y88.7576 Z-0.1333 I-0.005 J0.0
G2 Y88.7663 Z-0.2667 I0.0025 J0.0043
G2 X185.055 Y88.7619 Z-0.4 I0.0025 J-0.0043
G2 X185.0475 Y88.7576 Z-0.5333 I-0.005 J0.0
G2 Y88.7663 Z-0.6667 I0.0025 J0.0043
G2 X185.055 Y88.7619 Z-0.8 I0.0025 J-0.0043
G2 X185.0475 Y88.7576 Z-0.9333 I-0.005 J0.0
G2 Y88.7663 Z-1.0667 I0.0025 J0.0043
G2 X185.055 Y88.7619 Z-1.2 I0.0025 J-0.0043
G2 X185.0475 Y88.7576 Z-1.3333 I-0.005 J0.0
G2 Y88.7663 Z-1.4667 I0.0025 J0.0043
G2 X185.0535 Y88.7655 Z-1.55 I0.0025 J-0.0043
G2 X185.0513 Y88.7571 I-0.0035 J-0.0035
G2 X185.0452 Y88.7632 I-0.0013 J0.0048
G2 X185.0535 Y88.7655 I0.0048 J-0.0013
G0 Z3.0
G0 X190.055 Y86.65
G0 Z1.0
G1 F500.0 Z0.0
G2 F800.0 X190.0475 Y86.6457 Z-0.1333 I-0.005 J0.0
G2 Y86.6543 Z-0.2667 I0.0025 J0.0043
G2 X190.055 Y86.65 Z-0.4 I0.0025 J-0.0043
G2 X190.0475 Y86.6457 Z-0.5333 I-0.005 J0.0
G2 Y86.6543 Z-0.6667 I0.0025 J0.0043
G2 X190.055 Y86.65 Z-0.8 I0.0025 J-0.0043
G2 X190.0475 Y86.6457 Z-0.9333 I-0.005 J0.0
G2 Y86.6543 Z-1.0667 I0.0025 J0.0043
G2 X190.055 Y86.65 Z-1.2 I0.0025 J-0.0043
G2 X190.0475 Y86.6457 Z-1.3333 I-0.005 J0.0
G2 Y86.6543 Z-1.4667 I0.0025 J0.0043
G2 X190.0535 Y86.6535 Z-1.55 I0.0025 J-0.0043
G2 X190.0513 Y86.6452 I-0.0035 J-0.0035
G2 X190.0452 Y86.6513 I-0.0013 J0.0048
G2 X190.0535 Y86.6535 I0.0048 J-0.0013
G0 Z3.0
G0 X204.055 Y88.7619
G0 Z1.0
G1 F500.0 Z0.0
G2 F800.0 X204.0475 Y88.7576 Z-0.1333 I-0.005 J0.0
G2 Y88.7663 Z-0.2667 I0.0025 J0.0043
G2 X204.055 Y88.7619 Z-0.4 I0.0025 J-0.0043
G2 X204.0475 Y88.7576 Z-0.5333 I-0.005 J0.0
G2 Y88.7663 Z-0.6667 I0.0025 J0.0043
G2 X204.055 Y88.7619 Z-0.8 I0.0025 J-0.0043
G2 X204.0475 Y88.7576 Z-0.9333 I-0.005 J0.0
G2 Y88.7663 Z-1.0667 I0.0025 J0.0043
G2 X204.055 Y88.7619 Z-1.2 I0.0025 J-0.0043
G2 X204.0475 Y88.7576 Z-1.3333 I-0.005 J0.0
G2 Y88.7663 Z-1.4667 I0.0025 J0.0043
G2 X204.0535 Y88.7655 Z-1.55 I0.0025 J-0.0043
G2 X204.0513 Y88.7571 I-0.0035 J-0.0035
G2 X204.0452 Y88.7632 I-0.0013 J0.0048
G2 X204.0535 Y88.7655 I0.0048 J-0.0013
G0 Z3.0
G0 X204.415 Y102.91
G0 Z1.0
G1 F500.0 Z0.0
G2 F800.0 X204.4075 Y102.9057 Z-0.1333 I-0.005 J0.0
G2 Y102.9143 Z-0.2667 I0.0025 J0.0043
G2 X204.415 Y102.91 Z-0.4 I0.0025 J-0.0043
G2 X204.4075 Y102.9057 Z-0.5333 I-0.005 J0.0
G2 Y102.9143 Z-0.6667 I0.0025 J0.0043
G2 X204.415 Y102.91 Z-0.8 I0.0025 J-0.0043
G2 X204.4075 Y102.9057 Z-0.9333 I-0.005 J0.0
G2 Y102.9143 Z-1.0667 I0.0025 J0.0043
G2 X204.415 Y102.91 Z-1.2 I0.0025 J-0.0043
G2 X204.4075 Y102.9057 Z-1.3333 I-0.005 J0.0
G2 Y102.9143 Z-1.4667 I0.0025 J0.0043
G2 X204.4135 Y102.9135 Z-1.55 I0.0025 J-0.0043
G2 X204.4113 Y102.9052 I-0.0035 J-0.0035
G2 X204.4052 Y102.9113 I-0.0013 J0.0048
G2 X204.4135 Y102.9135 I0.0048 J-0.0013
G0 Z3.0
G0 X206.955 Y102.91
G0 Z1.0
G1 F500.0 Z0.0
G2 F800.0 X206.9475 Y102.9057 Z-0.1333 I-0.005 J0.0
G2 Y102.9143 Z-0.2667 I0.0025 J0.0043
G2 X206.955 Y102.91 Z-0.4 I0.0025 J-0.0043
G2 X206.9475 Y102.9057 Z-0.5333 I-0.005 J0.0
G2 Y102.9143 Z-0.6667 I0.0025 J0.0043
G2 X206.955 Y102.91 Z-0.8 I0.0025 J-0.0043
G2 X206.9475 Y102.9057 Z-0.9333 I-0.005 J0.0
G2 Y102.9143 Z-1.0667 I0.0025 J0.0043
G2 X206.955 Y102.91 Z-1.2 I0.0025 J-0.0043
G2 X206.9475 Y102.9057 Z-1.3333 I-0.005 J0.0
G2 Y102.9143 Z-1.4667 I0.0025 J0.0043
G2 X206.9535 Y102.9135 Z-1.55 I0.0025 J-0.0043
G2 X206.9513 Y102.9052 I-0.0035 J-0.0035
G2 X206.9452 Y102.9113 I-0.0013 J0.0048
G2 X206.9535 Y102.9135 I0.0048 J-0.0013
G0 Z3.0
G0 X209.495 Y102.91
G0 Z1.0
G1 F500.0 Z0.0
G2 F800.0 X209.4875 Y102.9057 Z-0.1333 I-0.005 J0.0
G2 Y102.9143 Z-0.2667 I0.0025 J0.0043
G2 X209.495 Y102.91 Z-0.4 I0.0025 J-0.0043
G2 X209.4875 Y102.9057 Z-0.5333 I-0.005 J0.0
G2 Y102.9143 Z-0.6667 I0.0025 J0.0043
G2 X209.495 Y102.91 Z-0.8 I0.0025 J-0.0043
G2 X209.4875 Y102.9057 Z-0.9333 I-0.005 J0.0
G2 Y102.9143 Z-1.0667 I0.0025 J0.0043
G2 X209.495 Y102.91 Z-1.2 I0.0025 J-0.0043
G2 X209.4875 Y102.9057 Z-1.3333 I-0.005 J0.0
G2 Y102.9143 Z-1.4667 I0.0025 J0.0043
G2 X209.4935 Y102.9135 Z-1.55 I0.0025 J-0.0043
G2 X209.4913 Y102.9052 I-0.0035 J-0.0035
G2 X209.4852 Y102.9113 I-0.0013 J0.0048
G2 X209.4935 Y102.9135 I0.0048 J-0.0013
G0 Z3.0
G0 X212.035 Y102.91
G0 Z1.0
G1 F500.0 Z0.0
G2 F800.0 X212.0275 Y102.9057 Z-0.1333 I-0.005 J0.0
G2 Y102.9143 Z-0.2667 I0.0025 J0.0043
G2 X212.035 Y102.91 Z-0.4 I0.0025 J-0.0043
G2 X212.0275 Y102.9057 Z-0.5333 I-0.005 J0.0
G2 Y102.9143 Z-0.6667 I0.0025 J0.0043
G2 X212.035 Y102.91 Z-0.8 I0.0025 J-0.0043
G2 X212.0275 Y102.9057 Z-0.9333 I-0.005 J0.0
G2 Y102.9143 Z-1.0667 I0.0025 J0.0043
G2 X212.035 Y102.91 Z-1.2 I0.0025 J-0.0043
G2 X212.0275 Y102.9057 Z-1.3333 I-0.005 J0.0
G2 Y102.9143 Z-1.4667 I0.0025 J0.0043
G2 X212.0335 Y102.9135 Z-1.55 I0.0025 J-0.0043
G2 X212.0313 Y102.9052 I-0.0035 J-0.0035
G2 X212.0252 Y102.9113 I-0.0013 J0.0048
G2 X212.0335 Y102.9135 I0.0048 J-0.0013
G0 Z3.0
G0 X214.575 Y102.91
G0 Z1.0
G1 F500.0 Z0.0
G2 F800.0 X214.5675 Y102.9057 Z-0.1333 I-0.005 J0.0
G2 Y102.9143 Z-0.2667 I0.0025 J0.0043
G2 X214.575 Y102.91 Z-0.4 I0.0025 J-0.0043
G2 X214.5675 Y102.9057 Z-0.5333 I-0.005 J0.0
G2 Y102.9143 Z-0.6667 I0.0025 J0.0043
G2 X214.575 Y102.91 Z-0.8 I0.0025 J-0.0043
G2 X214.5675 Y102.9057 Z-0.9333 I-0.005 J0.0
G2 Y102.9143 Z-1.0667 I0.0025 J0.0043
G2 X214.575 Y102.91 Z-1.2 I0.0025 J-0.0043
G2 X214.5675 Y102.9057 Z-1.3333 I-0.005 J0.0
G2 Y102.9143 Z-1.4667 I0.0025 J0.0043
