( Made using CamBam - http://www.cambam.co.uk )
( cnc-alu 2020-05-21 22:47:28 )
( Post processor: Default )
( T0 : 2.0 )
G21 G90 G64 G40
G0 Z3.0
( T0 : 2.0 )
T0 M6
( Bends )
G17
M3 S1000
G0 X157.85 Y-69.275
G0 Z1.0
G1 F300.0 Z-0.4
G1 F500.0 X299.15
G1 F300.0 Z-0.6
G1 F500.0 X157.85
G0 Z3.0
G0 X155.85 Y-67.275
G0 Z1.0
G1 F300.0 Z-0.4
G1 F500.0 Y26.525
G1 X301.15
G1 Y-67.275
G1 F300.0 Z-0.6
G1 F500.0 Y26.525
G1 X155.85
G1 Y-67.275
G0 Z3.0
G0 Y36.425
G0 Z1.0
G1 F300.0 Z-0.4
G1 F500.0 X301.15
G1 Y59.625
G1 F300.0 Z-0.6
G1 F500.0 Y36.425
G1 X155.85
G0 Z3.0
G0 X204.15 Y61.625
G0 Z1.0
G1 F300.0 Z-0.4
G1 F500.0 X299.15
G1 F300.0 Z-0.6
G1 F500.0 X204.15
G0 Z3.0
G0 X-154.75 Y36.425
G0 Z1.0
G1 F300.0 Z-0.4
G1 F500.0 X-300.05
G1 Y59.625
G1 F300.0 Z-0.6
G1 F500.0 Y36.425
G1 X-154.75
G0 Z3.0
G0 X-156.75 Y61.625
G0 Z1.0
G1 F300.0 Z-0.4
G1 F500.0 X-298.05
G1 F300.0 Z-0.6
G1 F500.0 X-156.75
G0 Z3.0
G0 X-154.75 Y-67.275
G0 Z1.0
G1 F300.0 Z-0.4
G1 F500.0 Y26.525
G1 X-300.05
G1 Y-67.275
G1 F300.0 Z-0.6
G1 F500.0 Y26.525
G1 X-154.75
G1 Y-67.275
G0 Z3.0
G0 X-156.75 Y-69.275
G0 Z1.0
G1 F300.0 Z-0.4
G1 F500.0 X-298.05
G1 F300.0 Z-0.6
G1 F500.0 X-156.75
( Drill1 )
S1000
G0 Z3.0
G0 X-294.9 Y55.155
G0 Z3.0
G0 X-293.9 Y55.155
G0 Z1.0
G1 F300.0 Z0.0
G2 F500.0 X-295.4 Y54.289 Z-0.1333 I-1.0 J0.0
G2 Y56.021 Z-0.2667 I0.5 J0.866
G2 X-293.9 Y55.155 Z-0.4 I0.5 J-0.866
G2 X-295.4 Y54.289 Z-0.5333 I-1.0 J0.0
G2 Y56.021 Z-0.6667 I0.5 J0.866
G2 X-293.9 Y55.155 Z-0.8 I0.5 J-0.866
G2 X-295.4 Y54.289 Z-0.9333 I-1.0 J0.0
G2 Y56.021 Z-1.0667 I0.5 J0.866
G2 X-293.9 Y55.155 Z-1.2 I0.5 J-0.866
G2 X-294.1929 Y54.4479 Z-1.25 I-1.0 J0.0
G2 X-295.8659 Y54.8962 I-0.7071 J0.7071
G2 X-294.6412 Y56.1209 I0.9659 J0.2588
G2 X-294.1929 Y54.4479 I-0.2588 J-0.9659
G0 Z3.0
G0 X-274.9 Y-64.125
G0 Z1.0
G1 F300.0 Z0.0
G2 F500.0 X-276.4 Y-64.991 Z-0.1333 I-1.0 J0.0
G2 Y-63.259 Z-0.2667 I0.5 J0.866
G2 X-274.9 Y-64.125 Z-0.4 I0.5 J-0.866
G2 X-276.4 Y-64.991 Z-0.5333 I-1.0 J0.0
G2 Y-63.259 Z-0.6667 I0.5 J0.866
G2 X-274.9 Y-64.125 Z-0.8 I0.5 J-0.866
G2 X-276.4 Y-64.991 Z-0.9333 I-1.0 J0.0
G2 Y-63.259 Z-1.0667 I0.5 J0.866
G2 X-274.9 Y-64.125 Z-1.2 I0.5 J-0.866
G2 X-275.1929 Y-64.8321 Z-1.25 I-1.0 J0.0
G2 X-276.8659 Y-64.3838 I-0.7071 J0.7071
G2 X-275.6412 Y-63.1591 I0.9659 J0.2588
G2 X-275.1929 Y-64.8321 I-0.2588 J-0.9659
G0 Z3.0
G0 X-160.9 Y-64.125
G0 Z1.0
G1 F300.0 Z0.0
G2 F500.0 X-162.4 Y-64.991 Z-0.1333 I-1.0 J0.0
G2 Y-63.259 Z-0.2667 I0.5 J0.866
G2 X-160.9 Y-64.125 Z-0.4 I0.5 J-0.866
G2 X-162.4 Y-64.991 Z-0.5333 I-1.0 J0.0
G2 Y-63.259 Z-0.6667 I0.5 J0.866
G2 X-160.9 Y-64.125 Z-0.8 I0.5 J-0.866
G2 X-162.4 Y-64.991 Z-0.9333 I-1.0 J0.0
G2 Y-63.259 Z-1.0667 I0.5 J0.866
G2 X-160.9 Y-64.125 Z-1.2 I0.5 J-0.866
G2 X-161.1929 Y-64.8321 Z-1.25 I-1.0 J0.0
G2 X-162.8659 Y-64.3838 I-0.7071 J0.7071
G2 X-161.6412 Y-63.1591 I0.9659 J0.2588
G2 X-161.1929 Y-64.8321 I-0.2588 J-0.9659
G0 Z3.0
G0 X-121.6 Y-64.125
G0 Z1.0
G1 F300.0 Z0.0
G2 F500.0 X-123.1 Y-64.991 Z-0.1333 I-1.0 J0.0
G2 Y-63.259 Z-0.2667 I0.5 J0.866
G2 X-121.6 Y-64.125 Z-0.4 I0.5 J-0.866
G2 X-123.1 Y-64.991 Z-0.5333 I-1.0 J0.0
G2 Y-63.259 Z-0.6667 I0.5 J0.866
G2 X-121.6 Y-64.125 Z-0.8 I0.5 J-0.866
G2 X-123.1 Y-64.991 Z-0.9333 I-1.0 J0.0
G2 Y-63.259 Z-1.0667 I0.5 J0.866
G2 X-121.6 Y-64.125 Z-1.2 I0.5 J-0.866
G2 X-121.8929 Y-64.8321 Z-1.25 I-1.0 J0.0
G2 X-123.5659 Y-64.3838 I-0.7071 J0.7071
G2 X-122.3412 Y-63.1591 I0.9659 J0.2588
G2 X-121.8929 Y-64.8321 I-0.2588 J-0.9659
G0 Z3.0
G0 X-7.6 Y-64.125
G0 Z1.0
G1 F300.0 Z0.0
G2 F500.0 X-9.1 Y-64.991 Z-0.1333 I-1.0 J0.0
G2 Y-63.259 Z-0.2667 I0.5 J0.866
G2 X-7.6 Y-64.125 Z-0.4 I0.5 J-0.866
G2 X-9.1 Y-64.991 Z-0.5333 I-1.0 J0.0
G2 Y-63.259 Z-0.6667 I0.5 J0.866
G2 X-7.6 Y-64.125 Z-0.8 I0.5 J-0.866
G2 X-9.1 Y-64.991 Z-0.9333 I-1.0 J0.0
G2 Y-63.259 Z-1.0667 I0.5 J0.866
G2 X-7.6 Y-64.125 Z-1.2 I0.5 J-0.866
G2 X-7.8929 Y-64.8321 Z-1.25 I-1.0 J0.0
G2 X-9.5659 Y-64.3838 I-0.7071 J0.7071
G2 X-8.3412 Y-63.1591 I0.9659 J0.2588
G2 X-7.8929 Y-64.8321 I-0.2588 J-0.9659
G0 Z3.0
G0 X10.7 Y-64.125
G0 Z1.0
G1 F300.0 Z0.0
G2 F500.0 X9.2 Y-64.991 Z-0.1333 I-1.0 J0.0
G2 Y-63.259 Z-0.2667 I0.5 J0.866
G2 X10.7 Y-64.125 Z-0.4 I0.5 J-0.866
G2 X9.2 Y-64.991 Z-0.5333 I-1.0 J0.0
G2 Y-63.259 Z-0.6667 I0.5 J0.866
G2 X10.7 Y-64.125 Z-0.8 I0.5 J-0.866
G2 X9.2 Y-64.991 Z-0.9333 I-1.0 J0.0
G2 Y-63.259 Z-1.0667 I0.5 J0.866
G2 X10.7 Y-64.125 Z-1.2 I0.5 J-0.866
G2 X10.4071 Y-64.8321 Z-1.25 I-1.0 J0.0
G2 X8.7341 Y-64.3838 I-0.7071 J0.7071
G2 X9.9588 Y-63.1591 I0.9659 J0.2588
G2 X10.4071 Y-64.8321 I-0.2588 J-0.9659
G0 Z3.0
G0 X124.7 Y-64.125
G0 Z1.0
G1 F300.0 Z0.0
G2 F500.0 X123.2 Y-64.991 Z-0.1333 I-1.0 J0.0
G2 Y-63.259 Z-0.2667 I0.5 J0.866
G2 X124.7 Y-64.125 Z-0.4 I0.5 J-0.866
G2 X123.2 Y-64.991 Z-0.5333 I-1.0 J0.0
G2 Y-63.259 Z-0.6667 I0.5 J0.866
G2 X124.7 Y-64.125 Z-0.8 I0.5 J-0.866
G2 X123.2 Y-64.991 Z-0.9333 I-1.0 J0.0
G2 Y-63.259 Z-1.0667 I0.5 J0.866
G2 X124.7 Y-64.125 Z-1.2 I0.5 J-0.866
G2 X124.4071 Y-64.8321 Z-1.25 I-1.0 J0.0
G2 X122.7341 Y-64.3838 I-0.7071 J0.7071
G2 X123.9588 Y-63.1591 I0.9659 J0.2588
G2 X124.4071 Y-64.8321 I-0.2588 J-0.9659
G0 Z3.0
G0 X164.0 Y-64.125
G0 Z1.0
G1 F300.0 Z0.0
G2 F500.0 X162.5 Y-64.991 Z-0.1333 I-1.0 J0.0
G2 Y-63.259 Z-0.2667 I0.5 J0.866
G2 X164.0 Y-64.125 Z-0.4 I0.5 J-0.866
G2 X162.5 Y-64.991 Z-0.5333 I-1.0 J0.0
G2 Y-63.259 Z-0.6667 I0.5 J0.866
G2 X164.0 Y-64.125 Z-0.8 I0.5 J-0.866
G2 X162.5 Y-64.991 Z-0.9333 I-1.0 J0.0
G2 Y-63.259 Z-1.0667 I0.5 J0.866
G2 X164.0 Y-64.125 Z-1.2 I0.5 J-0.866
G2 X163.7071 Y-64.8321 Z-1.25 I-1.0 J0.0
G2 X162.0341 Y-64.3838 I-0.7071 J0.7071
G2 X163.2588 Y-63.1591 I0.9659 J0.2588
G2 X163.7071 Y-64.8321 I-0.2588 J-0.9659
G0 Z3.0
G0 X278.0 Y-64.125
G0 Z1.0
G1 F300.0 Z0.0
G2 F500.0 X276.5 Y-64.991 Z-0.1333 I-1.0 J0.0
G2 Y-63.259 Z-0.2667 I0.5 J0.866
G2 X278.0 Y-64.125 Z-0.4 I0.5 J-0.866
G2 X276.5 Y-64.991 Z-0.5333 I-1.0 J0.0
G2 Y-63.259 Z-0.6667 I0.5 J0.866
G2 X278.0 Y-64.125 Z-0.8 I0.5 J-0.866
G2 X276.5 Y-64.991 Z-0.9333 I-1.0 J0.0
G2 Y-63.259 Z-1.0667 I0.5 J0.866
G2 X278.0 Y-64.125 Z-1.2 I0.5 J-0.866
G2 X277.7071 Y-64.8321 Z-1.25 I-1.0 J0.0
G2 X276.0341 Y-64.3838 I-0.7071 J0.7071
G2 X277.2588 Y-63.1591 I0.9659 J0.2588
G2 X277.7071 Y-64.8321 I-0.2588 J-0.9659
G0 Z3.0
G0 X297.0 Y55.155
G0 Z1.0
G1 F300.0 Z0.0
G2 F500.0 X295.5 Y54.289 Z-0.1333 I-1.0 J0.0
G2 Y56.021 Z-0.2667 I0.5 J0.866
G2 X297.0 Y55.155 Z-0.4 I0.5 J-0.866
G2 X295.5 Y54.289 Z-0.5333 I-1.0 J0.0
G2 Y56.021 Z-0.6667 I0.5 J0.866
G2 X297.0 Y55.155 Z-0.8 I0.5 J-0.866
G2 X295.5 Y54.289 Z-0.9333 I-1.0 J0.0
G2 Y56.021 Z-1.0667 I0.5 J0.866
G2 X297.0 Y55.155 Z-1.2 I0.5 J-0.866
G2 X296.7071 Y54.4479 Z-1.25 I-1.0 J0.0
G2 X295.0341 Y54.8962 I-0.7071 J0.7071
G2 X296.2588 Y56.1209 I0.9659 J0.2588
G2 X296.7071 Y54.4479 I-0.2588 J-0.9659
G0 Z3.0
G0 X164.0 Y55.155
G0 Z1.0
G1 F300.0 Z0.0
G2 F500.0 X162.5 Y54.289 Z-0.1333 I-1.0 J0.0
G2 Y56.021 Z-0.2667 I0.5 J0.866
G2 X164.0 Y55.155 Z-0.4 I0.5 J-0.866
G2 X162.5 Y54.289 Z-0.5333 I-1.0 J0.0
G2 Y56.021 Z-0.6667 I0.5 J0.866
G2 X164.0 Y55.155 Z-0.8 I0.5 J-0.866
G2 X162.5 Y54.289 Z-0.9333 I-1.0 J0.0
G2 Y56.021 Z-1.0667 I0.5 J0.866
G2 X164.0 Y55.155 Z-1.2 I0.5 J-0.866
G2 X163.7071 Y54.4479 Z-1.25 I-1.0 J0.0
G2 X162.0341 Y54.8962 I-0.7071 J0.7071
G2 X163.2588 Y56.1209 I0.9659 J0.2588
G2 X163.7071 Y54.4479 I-0.2588 J-0.9659
G0 Z3.0
G0 X143.7 Y51.755
G0 Z1.0
G1 F300.0 Z0.0
G2 F500.0 X142.2 Y50.889 Z-0.1333 I-1.0 J0.0
G2 Y52.621 Z-0.2667 I0.5 J0.866
G2 X143.7 Y51.755 Z-0.4 I0.5 J-0.866
G2 X142.2 Y50.889 Z-0.5333 I-1.0 J0.0
G2 Y52.621 Z-0.6667 I0.5 J0.866
G2 X143.7 Y51.755 Z-0.8 I0.5 J-0.866
G2 X142.2 Y50.889 Z-0.9333 I-1.0 J0.0
G2 Y52.621 Z-1.0667 I0.5 J0.866
G2 X143.7 Y51.755 Z-1.2 I0.5 J-0.866
G2 X143.4071 Y51.0479 Z-1.25 I-1.0 J0.0
G2 X141.7341 Y51.4962 I-0.7071 J0.7071
G2 X142.9588 Y52.7209 I0.9659 J0.2588
G2 X143.4071 Y51.0479 I-0.2588 J-0.9659
G0 Z3.0
G0 X10.7 Y51.755
G0 Z1.0
G1 F300.0 Z0.0
G2 F500.0 X9.2 Y50.889 Z-0.1333 I-1.0 J0.0
G2 Y52.621 Z-0.2667 I0.5 J0.866
G2 X10.7 Y51.755 Z-0.4 I0.5 J-0.866
G2 X9.2 Y50.889 Z-0.5333 I-1.0 J0.0
G2 Y52.621 Z-0.6667 I0.5 J0.866
G2 X10.7 Y51.755 Z-0.8 I0.5 J-0.866
G2 X9.2 Y50.889 Z-0.9333 I-1.0 J0.0
G2 Y52.621 Z-1.0667 I0.5 J0.866
G2 X10.7 Y51.755 Z-1.2 I0.5 J-0.866
G2 X10.4071 Y51.0479 Z-1.25 I-1.0 J0.0
G2 X8.7341 Y51.4962 I-0.7071 J0.7071
G2 X9.9588 Y52.7209 I0.9659 J0.2588
G2 X10.4071 Y51.0479 I-0.2588 J-0.9659
G0 Z3.0
G0 X-7.6 Y51.755
G0 Z1.0
G1 F300.0 Z0.0
G2 F500.0 X-9.1 Y50.889 Z-0.1333 I-1.0 J0.0
G2 Y52.621 Z-0.2667 I0.5 J0.866
G2 X-7.6 Y51.755 Z-0.4 I0.5 J-0.866
G2 X-9.1 Y50.889 Z-0.5333 I-1.0 J0.0
G2 Y52.621 Z-0.6667 I0.5 J0.866
G2 X-7.6 Y51.755 Z-0.8 I0.5 J-0.866
G2 X-9.1 Y50.889 Z-0.9333 I-1.0 J0.0
G2 Y52.621 Z-1.0667 I0.5 J0.866
G2 X-7.6 Y51.755 Z-1.2 I0.5 J-0.866
G2 X-7.8929 Y51.0479 Z-1.25 I-1.0 J0.0
G2 X-9.5659 Y51.4962 I-0.7071 J0.7071
G2 X-8.3412 Y52.7209 I0.9659 J0.2588
G2 X-7.8929 Y51.0479 I-0.2588 J-0.9659
G0 Z3.0
G0 X-140.6 Y51.755
G0 Z1.0
G1 F300.0 Z0.0
G2 F500.0 X-142.1 Y50.889 Z-0.1333 I-1.0 J0.0
G2 Y52.621 Z-0.2667 I0.5 J0.866
G2 X-140.6 Y51.755 Z-0.4 I0.5 J-0.866
G2 X-142.1 Y50.889 Z-0.5333 I-1.0 J0.0
G2 Y52.621 Z-0.6667 I0.5 J0.866
G2 X-140.6 Y51.755 Z-0.8 I0.5 J-0.866
G2 X-142.1 Y50.889 Z-0.9333 I-1.0 J0.0
G2 Y52.621 Z-1.0667 I0.5 J0.866
G2 X-140.6 Y51.755 Z-1.2 I0.5 J-0.866
G2 X-140.8929 Y51.0479 Z-1.25 I-1.0 J0.0
G2 X-142.5659 Y51.4962 I-0.7071 J0.7071
G2 X-141.3412 Y52.7209 I0.9659 J0.2588
G2 X-140.8929 Y51.0479 I-0.2588 J-0.9659
G0 Z3.0
G0 X-160.9 Y55.155
G0 Z1.0
G1 F300.0 Z0.0
G2 F500.0 X-162.4 Y54.289 Z-0.1333 I-1.0 J0.0
G2 Y56.021 Z-0.2667 I0.5 J0.866
G2 X-160.9 Y55.155 Z-0.4 I0.5 J-0.866
G2 X-162.4 Y54.289 Z-0.5333 I-1.0 J0.0
G2 Y56.021 Z-0.6667 I0.5 J0.866
G2 X-160.9 Y55.155 Z-0.8 I0.5 J-0.866
G2 X-162.4 Y54.289 Z-0.9333 I-1.0 J0.0
G2 Y56.021 Z-1.0667 I0.5 J0.866
G2 X-160.9 Y55.155 Z-1.2 I0.5 J-0.866
G2 X-161.1929 Y54.4479 Z-1.25 I-1.0 J0.0
G2 X-162.8659 Y54.8962 I-0.7071 J0.7071
G2 X-161.6412 Y56.1209 I0.9659 J0.2588
G2 X-161.1929 Y54.4479 I-0.2588 J-0.9659
( keys )
S1000
G0 Z3.0
G0 X-296.05 Y-46.275
G0 Z1.0
G1 F300.0 Z-0.4
G1 F500.0 Y-34.475
G1 X-284.25
G1 Y-46.275
G1 X-296.05
G1 F300.0 Z-0.8
G1 F500.0 Y-34.475
G1 X-284.25
G1 Y-46.275
G1 X-296.05
G1 F300.0 Z-1.2
G1 F500.0 Y-34.475
G1 X-284.25
G1 Y-46.275
G1 X-296.05
G1 F300.0 Z-1.25
G1 F500.0 Y-34.475
G1 X-284.25
G1 Y-46.275
G1 X-296.05
G0 Z3.0
G0 Y-53.475
G0 Z1.0
G1 F300.0 Z-0.4
G1 F500.0 X-284.25
G1 Y-65.275
G1 X-296.05
G1 Y-53.475
G1 F300.0 Z-0.8
G1 F500.0 X-284.25
G1 Y-65.275
G1 X-296.05
G1 Y-53.475
G1 F300.0 Z-1.2
G1 F500.0 X-284.25
G1 Y-65.275
G1 X-296.05
G1 Y-53.475
G1 F300.0 Z-1.25
G1 F500.0 X-284.25
G1 Y-65.275
G1 X-296.05
G1 Y-53.475
G0 Z3.0
G0 X-267.55
G0 Z1.0
G1 F300.0 Z-0.4
G1 F500.0 X-255.75
G1 Y-65.275
G1 X-267.55
G1 Y-53.475
G1 F300.0 Z-0.8
G1 F500.0 X-255.75
G1 Y-65.275
G1 X-267.55
G1 Y-53.475
G1 F300.0 Z-1.2
G1 F500.0 X-255.75
G1 Y-65.275
G1 X-267.55
G1 Y-53.475
G1 F300.0 Z-1.25
G1 F500.0 X-255.75
G1 Y-65.275
G1 X-267.55
G1 Y-53.475
G0 Z3.0
G0 X-258.05 Y-46.275
G0 Z1.0
G1 F300.0 Z-0.4
G1 F500.0 Y-34.475
G1 X-246.25
G1 Y-46.275
G1 X-258.05
G1 F300.0 Z-0.8
G1 F500.0 Y-34.475
G1 X-246.25
G1 Y-46.275
G1 X-258.05
G1 F300.0 Z-1.2
G1 F500.0 Y-34.475
G1 X-246.25
G1 Y-46.275
G1 X-258.05
G1 F300.0 Z-1.25
G1 F500.0 Y-34.475
G1 X-246.25
G1 Y-46.275
G1 X-258.05
G0 Z3.0
G0 X-248.55 Y-53.475
G0 Z1.0
G1 F300.0 Z-0.4
G1 F500.0 X-236.75
G1 Y-65.275
G1 X-248.55
G1 Y-53.475
G1 F300.0 Z-0.8
G1 F500.0 X-236.75
G1 Y-65.275
G1 X-248.55
G1 Y-53.475
G1 F300.0 Z-1.2
G1 F500.0 X-236.75
G1 Y-65.275
G1 X-248.55
G1 Y-53.475
G1 F300.0 Z-1.25
G1 F500.0 X-236.75
G1 Y-65.275
G1 X-248.55
G1 Y-53.475
G0 Z3.0
G0 X-229.55
G0 Z1.0
G1 F300.0 Z-0.4
G1 F500.0 X-217.75
G1 Y-65.275
G1 X-229.55
G1 Y-53.475
G1 F300.0 Z-0.8
G1 F500.0 X-217.75
G1 Y-65.275
G1 X-229.55
G1 Y-53.475
G1 F300.0 Z-1.2
G1 F500.0 X-217.75
G1 Y-65.275
G1 X-229.55
G1 Y-53.475
G1 F300.0 Z-1.25
G1 F500.0 X-217.75
G1 Y-65.275
G1 X-229.55
G1 Y-53.475
G0 Z3.0
G0 Y-46.275
G0 Z1.0
G1 F300.0 Z-0.4
G1 F500.0 Y-34.475
G1 X-217.75
G1 Y-46.275
G1 X-229.55
G1 F300.0 Z-0.8
G1 F500.0 Y-34.475
G1 X-217.75
G1 Y-46.275
G1 X-229.55
G1 F300.0 Z-1.2
G1 F500.0 Y-34.475
G1 X-217.75
G1 Y-46.275
G1 X-229.55
G1 F300.0 Z-1.25
G1 F500.0 Y-34.475
G1 X-217.75
G1 Y-46.275
G1 X-229.55
G0 Z3.0
G0 X-210.55
G0 Z1.0
G1 F300.0 Z-0.4
G1 F500.0 Y-34.475
G1 X-198.75
G1 Y-46.275
G1 X-210.55
G1 F300.0 Z-0.8
G1 F500.0 Y-34.475
G1 X-198.75
G1 Y-46.275
G1 X-210.55
G1 F300.0 Z-1.2
G1 F500.0 Y-34.475
G1 X-198.75
G1 Y-46.275
G1 X-210.55
G1 F300.0 Z-1.25
G1 F500.0 Y-34.475
G1 X-198.75
G1 Y-46.275
G1 X-210.55
G0 Z3.0
G0 Y-53.475
G0 Z1.0
G1 F300.0 Z-0.4
G1 F500.0 X-198.75
G1 Y-65.275
G1 X-210.55
G1 Y-53.475
G1 F300.0 Z-0.8
G1 F500.0 X-198.75
G1 Y-65.275
G1 X-210.55
G1 Y-53.475
G1 F300.0 Z-1.2
G1 F500.0 X-198.75
G1 Y-65.275
G1 X-210.55
G1 Y-53.475
G1 F300.0 Z-1.25
G1 F500.0 X-198.75
G1 Y-65.275
G1 X-210.55
G1 Y-53.475
G0 Z3.0
G0 X-191.55 Y-46.275
G0 Z1.0
G1 F300.0 Z-0.4
G1 F500.0 Y-34.475
G1 X-179.75
G1 Y-46.275
G1 X-191.55
G1 F300.0 Z-0.8
G1 F500.0 Y-34.475
G1 X-179.75
G1 Y-46.275
G1 X-191.55
G1 F300.0 Z-1.2
G1 F500.0 Y-34.475
G1 X-179.75
G1 Y-46.275
G1 X-191.55
G1 F300.0 Z-1.25
G1 F500.0 Y-34.475
G1 X-179.75
G1 Y-46.275
G1 X-191.55
G0 Z3.0
G0 X-182.05 Y-53.475
G0 Z1.0
G1 F300.0 Z-0.4
G1 F500.0 X-170.25
G1 Y-65.275
G1 X-182.05
G1 Y-53.475
G1 F300.0 Z-0.8
G1 F500.0 X-170.25
G1 Y-65.275
G1 X-182.05
G1 Y-53.475
G1 F300.0 Z-1.2
G1 F500.0 X-170.25
G1 Y-65.275
G1 X-182.05
G1 Y-53.475
G1 F300.0 Z-1.25
G1 F500.0 X-170.25
G1 Y-65.275
G1 X-182.05
G1 Y-53.475
G0 Z3.0
G0 X-172.55 Y-46.275
G0 Z1.0
G1 F300.0 Z-0.4
G1 F500.0 Y-34.475
G1 X-160.75
G1 Y-46.275
G1 X-172.55
G1 F300.0 Z-0.8
G1 F500.0 Y-34.475
G1 X-160.75
G1 Y-46.275
G1 X-172.55
G1 F300.0 Z-1.2
G1 F500.0 Y-34.475
G1 X-160.75
G1 Y-46.275
G1 X-172.55
G1 F300.0 Z-1.25
G1 F500.0 Y-34.475
G1 X-160.75
G1 Y-46.275
G1 X-172.55
G0 Z3.0
G0 Y-27.275
G0 Z1.0
G1 F300.0 Z-0.4
G1 F500.0 Y-15.475
G1 X-160.75
G1 Y-27.275
G1 X-172.55
G1 F300.0 Z-0.8
G1 F500.0 Y-15.475
G1 X-160.75
G1 Y-27.275
G1 X-172.55
G1 F300.0 Z-1.2
G1 F500.0 Y-15.475
G1 X-160.75
G1 Y-27.275
G1 X-172.55
G1 F300.0 Z-1.25
G1 F500.0 Y-15.475
G1 X-160.75
G1 Y-27.275
G1 X-172.55
G0 Z3.0
G0 X-179.75
G0 Z1.0
G1 F300.0 Z-0.4
G1 F500.0 X-191.55
G1 Y-15.475
G1 X-179.75
G1 Y-27.275
G1 F300.0 Z-0.8
G1 F500.0 X-191.55
G1 Y-15.475
G1 X-179.75
G1 Y-27.275
G1 F300.0 Z-1.2
G1 F500.0 X-191.55
G1 Y-15.475
G1 X-179.75
G1 Y-27.275
G1 F300.0 Z-1.25
G1 F500.0 X-191.55
G1 Y-15.475
G1 X-179.75
G1 Y-27.275
G0 Z3.0
G0 X-198.75
G0 Z1.0
G1 F300.0 Z-0.4
G1 F500.0 X-210.55
G1 Y-15.475
G1 X-198.75
G1 Y-27.275
G1 F300.0 Z-0.8
G1 F500.0 X-210.55
G1 Y-15.475
G1 X-198.75
G1 Y-27.275
G1 F300.0 Z-1.2
G1 F500.0 X-210.55
G1 Y-15.475
G1 X-198.75
G1 Y-27.275
G1 F300.0 Z-1.25
G1 F500.0 X-210.55
G1 Y-15.475
G1 X-198.75
G1 Y-27.275
G0 Z3.0
G0 X-217.75
G0 Z1.0
G1 F300.0 Z-0.4
G1 F500.0 X-229.55
G1 Y-15.475
G1 X-217.75
G1 Y-27.275
G1 F300.0 Z-0.8
G1 F500.0 X-229.55
G1 Y-15.475
G1 X-217.75
G1 Y-27.275
G1 F300.0 Z-1.2
G1 F500.0 X-229.55
G1 Y-15.475
G1 X-217.75
G1 Y-27.275
G1 F300.0 Z-1.25
G1 F500.0 X-229.55
G1 Y-15.475
G1 X-217.75
G1 Y-27.275
G0 Z3.0
G0 X-236.75
G0 Z1.0
G1 F300.0 Z-0.4
G1 F500.0 X-248.55
G1 Y-15.475
G1 X-236.75
G1 Y-27.275
G1 F300.0 Z-0.8
G1 F500.0 X-248.55
G1 Y-15.475
G1 X-236.75
G1 Y-27.275
G1 F300.0 Z-1.2
G1 F500.0 X-248.55
G1 Y-15.475
G1 X-236.75
G1 Y-27.275
G1 F300.0 Z-1.25
G1 F500.0 X-248.55
G1 Y-15.475
G1 X-236.75
G1 Y-27.275
G0 Z3.0
G0 Y-8.275
G0 Z1.0
G1 F300.0 Z-0.4
G1 F500.0 X-248.55
G1 Y3.525
G1 X-236.75
G1 Y-8.275
G1 F300.0 Z-0.8
G1 F500.0 X-248.55
G1 Y3.525
G1 X-236.75
G1 Y-8.275
G1 F300.0 Z-1.2
G1 F500.0 X-248.55
G1 Y3.525
G1 X-236.75
G1 Y-8.275
G1 F300.0 Z-1.25
G1 F500.0 X-248.55
G1 Y3.525
G1 X-236.75
G1 Y-8.275
G0 Z3.0
G0 X-229.55
G0 Z1.0
G1 F300.0 Z-0.4
G1 F500.0 Y3.525
G1 X-217.75
G1 Y-8.275
G1 X-229.55
G1 F300.0 Z-0.8
G1 F500.0 Y3.525
G1 X-217.75
G1 Y-8.275
G1 X-229.55
G1 F300.0 Z-1.2
G1 F500.0 Y3.525
G1 X-217.75
G1 Y-8.275
G1 X-229.55
G1 F300.0 Z-1.25
G1 F500.0 Y3.525
G1 X-217.75
G1 Y-8.275
G1 X-229.55
G0 Z3.0
G0 X-210.55
G0 Z1.0
G1 F300.0 Z-0.4
G1 F500.0 Y3.525
G1 X-198.75
G1 Y-8.275
G1 X-210.55
G1 F300.0 Z-0.8
G1 F500.0 Y3.525
G1 X-198.75
G1 Y-8.275
G1 X-210.55
G1 F300.0 Z-1.2
G1 F500.0 Y3.525
G1 X-198.75
G1 Y-8.275
G1 X-210.55
G1 F300.0 Z-1.25
G1 F500.0 Y3.525
G1 X-198.75
G1 Y-8.275
G1 X-210.55
G0 Z3.0
G0 Y10.725
G0 Z1.0
G1 F300.0 Z-0.4
G1 F500.0 Y22.525
G1 X-198.75
G1 Y10.725
G1 X-210.55
G1 F300.0 Z-0.8
G1 F500.0 Y22.525
G1 X-198.75
G1 Y10.725
G1 X-210.55
G1 F300.0 Z-1.2
G1 F500.0 Y22.525
G1 X-198.75
G1 Y10.725
G1 X-210.55
G1 F300.0 Z-1.25
G1 F500.0 Y22.525
G1 X-198.75
G1 Y10.725
G1 X-210.55
G0 Z3.0
G0 X-217.75
G0 Z1.0
G1 F300.0 Z-0.4
G1 F500.0 X-229.55
G1 Y22.525
G1 X-217.75
G1 Y10.725
G1 F300.0 Z-0.8
G1 F500.0 X-229.55
G1 Y22.525
G1 X-217.75
G1 Y10.725
G1 F300.0 Z-1.2
G1 F500.0 X-229.55
G1 Y22.525
G1 X-217.75
G1 Y10.725
G1 F300.0 Z-1.25
G1 F500.0 X-229.55
G1 Y22.525
G1 X-217.75
G1 Y10.725
G0 Z3.0
G0 X-236.75
G0 Z1.0
G1 F300.0 Z-0.4
G1 F500.0 X-248.55
G1 Y22.525
G1 X-236.75
G1 Y10.725
G1 F300.0 Z-0.8
G1 F500.0 X-248.55
G1 Y22.525
G1 X-236.75
G1 Y10.725
G1 F300.0 Z-1.2
G1 F500.0 X-248.55
G1 Y22.525
G1 X-236.75
G1 Y10.725
G1 F300.0 Z-1.25
G1 F500.0 X-248.55
G1 Y22.525
G1 X-236.75
G1 Y10.725
G0 Z3.0
G0 X-255.75
G0 Z1.0
G1 F300.0 Z-0.4
G1 F500.0 X-267.55
G1 Y22.525
G1 X-255.75
G1 Y10.725
G1 F300.0 Z-0.8
G1 F500.0 X-267.55
G1 Y22.525
G1 X-255.75
G1 Y10.725
G1 F300.0 Z-1.2
G1 F500.0 X-267.55
G1 Y22.525
G1 X-255.75
G1 Y10.725
G1 F300.0 Z-1.25
G1 F500.0 X-267.55
G1 Y22.525
G1 X-255.75
G1 Y10.725
G0 Z3.0
G0 Y3.525
G0 Z1.0
G1 F300.0 Z-0.4
G1 F500.0 Y-8.275
G1 X-267.55
G1 Y3.525
G1 X-255.75
G1 F300.0 Z-0.8
G1 F500.0 Y-8.275
G1 X-267.55
G1 Y3.525
G1 X-255.75
G1 F300.0 Z-1.2
G1 F500.0 Y-8.275
G1 X-267.55
G1 Y3.525
G1 X-255.75
G1 F300.0 Z-1.25
G1 F500.0 Y-8.275
G1 X-267.55
G1 Y3.525
G1 X-255.75
G0 Z3.0
G0 Y-15.475
G0 Z1.0
G1 F300.0 Z-0.4
G1 F500.0 Y-27.275
G1 X-267.55
G1 Y-15.475
G1 X-255.75
G1 F300.0 Z-0.8
G1 F500.0 Y-27.275
G1 X-267.55
G1 Y-15.475
G1 X-255.75
G1 F300.0 Z-1.2
G1 F500.0 Y-27.275
G1 X-267.55
G1 Y-15.475
G1 X-255.75
G1 F300.0 Z-1.25
G1 F500.0 Y-27.275
G1 X-267.55
G1 Y-15.475
G1 X-255.75
G0 Z3.0
G0 X-284.25
G0 Z1.0
G1 F300.0 Z-0.4
G1 F500.0 Y-17.775
G1 X-296.05
G1 Y-5.975
G1 X-284.25
G1 Y-15.475
G1 F300.0 Z-0.8
G1 F500.0 Y-17.775
G1 X-296.05
G1 Y-5.975
G1 X-284.25
G1 Y-15.475
G1 F300.0 Z-1.2
G1 F500.0 Y-17.775
G1 X-296.05
G1 Y-5.975
G1 X-284.25
G1 Y-15.475
G1 F300.0 Z-1.25
G1 F500.0 Y-17.775
G1 X-296.05
G1 Y-5.975
G1 X-284.25
G1 Y-15.475
G0 Z3.0
G0 Y10.725
G0 Z1.0
G1 F300.0 Z-0.4
G1 F500.0 X-296.05
G1 Y22.525
G1 X-284.25
G1 Y10.725
G1 F300.0 Z-0.8
G1 F500.0 X-296.05
G1 Y22.525
G1 X-284.25
G1 Y10.725
G1 F300.0 Z-1.2
G1 F500.0 X-296.05
G1 Y22.525
G1 X-284.25
G1 Y10.725
G1 F300.0 Z-1.25
G1 F500.0 X-296.05
G1 Y22.525
G1 X-284.25
G1 Y10.725
G0 Z3.0
G0 X-191.55
G0 Z1.0
G1 F300.0 Z-0.4
G1 F500.0 Y22.525
G1 X-179.75
G1 Y10.725
G1 X-191.55
G1 F300.0 Z-0.8
G1 F500.0 Y22.525
G1 X-179.75
G1 Y10.725
G1 X-191.55
G1 F300.0 Z-1.2
G1 F500.0 Y22.525
G1 X-179.75
G1 Y10.725
G1 X-191.55
G1 F300.0 Z-1.25
G1 F500.0 Y22.525
G1 X-179.75
G1 Y10.725
G1 X-191.55
G0 Z3.0
G0 Y3.525
G0 Z1.0
G1 F300.0 Z-0.4
G1 F500.0 X-179.75
G1 Y-8.275
G1 X-191.55
G1 Y3.525
G1 F300.0 Z-0.8
G1 F500.0 X-179.75
G1 Y-8.275
G1 X-191.55
G1 Y3.525
G1 F300.0 Z-1.2
G1 F500.0 X-179.75
G1 Y-8.275
G1 X-191.55
G1 Y3.525
G1 F300.0 Z-1.25
G1 F500.0 X-179.75
G1 Y-8.275
G1 X-191.55
G1 Y3.525
G0 Z3.0
G0 X-172.55
G0 Z1.0
G1 F300.0 Z-0.4
G1 F500.0 X-160.75
G1 Y-8.275
G1 X-172.55
G1 Y3.525
G1 F300.0 Z-0.8
G1 F500.0 X-160.75
G1 Y-8.275
G1 X-172.55
G1 Y3.525
G1 F300.0 Z-1.2
G1 F500.0 X-160.75
G1 Y-8.275
G1 X-172.55
G1 Y3.525
G1 F300.0 Z-1.25
G1 F500.0 X-160.75
G1 Y-8.275
G1 X-172.55
G1 Y3.525
G0 Z3.0
G0 Y10.725
G0 Z1.0
G1 F300.0 Z-0.4
G1 F500.0 Y22.525
G1 X-160.75
G1 Y10.725
G1 X-172.55
G1 F300.0 Z-0.8
G1 F500.0 Y22.525
G1 X-160.75
G1 Y10.725
G1 X-172.55
G1 F300.0 Z-1.2
G1 F500.0 Y22.525
G1 X-160.75
G1 Y10.725
G1 X-172.55
G1 F300.0 Z-1.25
G1 F500.0 Y22.525
G1 X-160.75
G1 Y10.725
G1 X-172.55
G0 Z3.0
G0 X161.85
G0 Z1.0
G1 F300.0 Z-0.4
G1 F500.0 Y22.525
G1 X173.65
G1 Y10.725
G1 X161.85
G1 F300.0 Z-0.8
G1 F500.0 Y22.525
G1 X173.65
G1 Y10.725
G1 X161.85
G1 F300.0 Z-1.2
G1 F500.0 Y22.525
G1 X173.65
G1 Y10.725
G1 X161.85
G1 F300.0 Z-1.25
G1 F500.0 Y22.525
G1 X173.65
G1 Y10.725
G1 X161.85
G0 Z3.0
G0 Y3.525
G0 Z1.0
G1 F300.0 Z-0.4
G1 F500.0 X173.65
G1 Y-8.275
G1 X161.85
G1 Y3.525
G1 F300.0 Z-0.8
G1 F500.0 X173.65
G1 Y-8.275
G1 X161.85
G1 Y3.525
G1 F300.0 Z-1.2
G1 F500.0 X173.65
G1 Y-8.275
G1 X161.85
G1 Y3.525
G1 F300.0 Z-1.25
G1 F500.0 X173.65
G1 Y-8.275
G1 X161.85
G1 Y3.525
G0 Z3.0
G0 X180.85
G0 Z1.0
G1 F300.0 Z-0.4
G1 F500.0 X192.65
G1 Y-8.275
G1 X180.85
G1 Y3.525
G1 F300.0 Z-0.8
G1 F500.0 X192.65
G1 Y-8.275
G1 X180.85
G1 Y3.525
G1 F300.0 Z-1.2
G1 F500.0 X192.65
G1 Y-8.275
G1 X180.85
G1 Y3.525
G1 F300.0 Z-1.25
G1 F500.0 X192.65
G1 Y-8.275
G1 X180.85
G1 Y3.525
G0 Z3.0
G0 Y10.725
G0 Z1.0
G1 F300.0 Z-0.4
G1 F500.0 Y22.525
G1 X192.65
G1 Y10.725
G1 X180.85
G1 F300.0 Z-0.8
G1 F500.0 Y22.525
G1 X192.65
G1 Y10.725
G1 X180.85
G1 F300.0 Z-1.2
G1 F500.0 Y22.525
G1 X192.65
G1 Y10.725
G1 X180.85
G1 F300.0 Z-1.25
G1 F500.0 Y22.525
G1 X192.65
G1 Y10.725
G1 X180.85
G0 Z3.0
G0 X199.85
G0 Z1.0
G1 F300.0 Z-0.4
G1 F500.0 Y22.525
G1 X211.65
G1 Y10.725
G1 X199.85
G1 F300.0 Z-0.8
G1 F500.0 Y22.525
G1 X211.65
G1 Y10.725
G1 X199.85
G1 F300.0 Z-1.2
G1 F500.0 Y22.525
G1 X211.65
G1 Y10.725
G1 X199.85
G1 F300.0 Z-1.25
G1 F500.0 Y22.525
G1 X211.65
G1 Y10.725
G1 X199.85
G0 Z3.0
G0 Y3.525
G0 Z1.0
G1 F300.0 Z-0.4
G1 F500.0 X211.65
G1 Y-8.275
G1 X199.85
G1 Y3.525
G1 F300.0 Z-0.8
G1 F500.0 X211.65
G1 Y-8.275
G1 X199.85
G1 Y3.525
G1 F300.0 Z-1.2
G1 F500.0 X211.65
G1 Y-8.275
G1 X199.85
G1 Y3.525
G1 F300.0 Z-1.25
G1 F500.0 X211.65
G1 Y-8.275
G1 X199.85
G1 Y3.525
G0 Z3.0
G0 Y-15.475
G0 Z1.0
G1 F300.0 Z-0.4
G1 F500.0 X211.65
G1 Y-27.275
G1 X199.85
G1 Y-15.475
G1 F300.0 Z-0.8
G1 F500.0 X211.65
G1 Y-27.275
G1 X199.85
G1 Y-15.475
G1 F300.0 Z-1.2
G1 F500.0 X211.65
G1 Y-27.275
G1 X199.85
G1 Y-15.475
G1 F300.0 Z-1.25
G1 F500.0 X211.65
G1 Y-27.275
G1 X199.85
G1 Y-15.475
G0 Z3.0
G0 X192.65
G0 Z1.0
G1 F300.0 Z-0.4
G1 F500.0 Y-27.275
G1 X180.85
G1 Y-15.475
G1 X192.65
G1 F300.0 Z-0.8
G1 F500.0 Y-27.275
G1 X180.85
G1 Y-15.475
G1 X192.65
G1 F300.0 Z-1.2
G1 F500.0 Y-27.275
G1 X180.85
G1 Y-15.475
G1 X192.65
G1 F300.0 Z-1.25
G1 F500.0 Y-27.275
G1 X180.85
G1 Y-15.475
G1 X192.65
G0 Z3.0
G0 Y-34.475
G0 Z1.0
G1 F300.0 Z-0.4
G1 F500.0 Y-46.275
G1 X180.85
G1 Y-34.475
G1 X192.65
G1 F300.0 Z-0.8
G1 F500.0 Y-46.275
G1 X180.85
G1 Y-34.475
G1 X192.65
G1 F300.0 Z-1.2
G1 F500.0 Y-46.275
G1 X180.85
G1 Y-34.475
G1 X192.65
G1 F300.0 Z-1.25
G1 F500.0 Y-46.275
G1 X180.85
G1 Y-34.475
G1 X192.65
G0 Z3.0
G0 X199.85
G0 Z1.0
G1 F300.0 Z-0.4
G1 F500.0 X211.65
G1 Y-46.275
G1 X199.85
G1 Y-34.475
G1 F300.0 Z-0.8
G1 F500.0 X211.65
G1 Y-46.275
G1 X199.85
G1 Y-34.475
G1 F300.0 Z-1.2
G1 F500.0 X211.65
G1 Y-46.275
G1 X199.85
G1 Y-34.475
G1 F300.0 Z-1.25
G1 F500.0 X211.65
G1 Y-46.275
G1 X199.85
G1 Y-34.475
G0 Z3.0
G0 Y-53.475
G0 Z1.0
G1 F300.0 Z-0.4
G1 F500.0 X211.65
G1 Y-65.275
G1 X199.85
G1 Y-53.475
G1 F300.0 Z-0.8
G1 F500.0 X211.65
G1 Y-65.275
G1 X199.85
G1 Y-53.475
G1 F300.0 Z-1.2
G1 F500.0 X211.65
G1 Y-65.275
G1 X199.85
G1 Y-53.475
G1 F300.0 Z-1.25
G1 F500.0 X211.65
G1 Y-65.275
G1 X199.85
G1 Y-53.475
G0 Z3.0
G0 X183.15
G0 Z1.0
G1 F300.0 Z-0.4
G1 F500.0 Y-65.275
G1 X171.35
G1 Y-53.475
G1 X183.15
G1 F300.0 Z-0.8
G1 F500.0 Y-65.275
G1 X171.35
G1 Y-53.475
G1 X183.15
G1 F300.0 Z-1.2
G1 F500.0 Y-65.275
G1 X171.35
G1 Y-53.475
G1 X183.15
G1 F300.0 Z-1.25
G1 F500.0 Y-65.275
G1 X171.35
G1 Y-53.475
G1 X183.15
G0 Z3.0
G0 X173.65 Y-46.275
G0 Z1.0
G1 F300.0 Z-0.4
G1 F500.0 X161.85
G1 Y-34.475
G1 X173.65
G1 Y-46.275
G1 F300.0 Z-0.8
G1 F500.0 X161.85
G1 Y-34.475
G1 X173.65
G1 Y-46.275
G1 F300.0 Z-1.2
G1 F500.0 X161.85
G1 Y-34.475
G1 X173.65
G1 Y-46.275
G1 F300.0 Z-1.25
G1 F500.0 X161.85
G1 Y-34.475
G1 X173.65
G1 Y-46.275
G0 Z3.0
G0 Y-27.275
G0 Z1.0
G1 F300.0 Z-0.4
G1 F500.0 X161.85
G1 Y-15.475
G1 X173.65
G1 Y-27.275
G1 F300.0 Z-0.8
G1 F500.0 X161.85
G1 Y-15.475
G1 X173.65
G1 Y-27.275
G1 F300.0 Z-1.2
G1 F500.0 X161.85
G1 Y-15.475
G1 X173.65
G1 Y-27.275
G1 F300.0 Z-1.25
G1 F500.0 X161.85
G1 Y-15.475
G1 X173.65
G1 Y-27.275
G0 Z3.0
G0 X218.85
G0 Z1.0
G1 F300.0 Z-0.4
G1 F500.0 Y-15.475
G1 X230.65
G1 Y-27.275
G1 X218.85
G1 F300.0 Z-0.8
G1 F500.0 Y-15.475
G1 X230.65
G1 Y-27.275
G1 X218.85
G1 F300.0 Z-1.2
G1 F500.0 Y-15.475
G1 X230.65
G1 Y-27.275
G1 X218.85
G1 F300.0 Z-1.25
G1 F500.0 Y-15.475
G1 X230.65
G1 Y-27.275
G1 X218.85
G0 Z3.0
G0 Y-34.475
G0 Z1.0
G1 F300.0 Z-0.4
G1 F500.0 X230.65
G1 Y-46.275
G1 X218.85
G1 Y-34.475
G1 F300.0 Z-0.8
G1 F500.0 X230.65
G1 Y-46.275
G1 X218.85
G1 Y-34.475
G1 F300.0 Z-1.2
G1 F500.0 X230.65
G1 Y-46.275
G1 X218.85
G1 Y-34.475
G1 F300.0 Z-1.25
G1 F500.0 X230.65
G1 Y-46.275
G1 X218.85
G1 Y-34.475
G0 Z3.0
G0 Y-53.475
G0 Z1.0
G1 F300.0 Z-0.4
G1 F500.0 X230.65
G1 Y-65.275
G1 X218.85
G1 Y-53.475
G1 F300.0 Z-0.8
G1 F500.0 X230.65
G1 Y-65.275
G1 X218.85
G1 Y-53.475
G1 F300.0 Z-1.2
G1 F500.0 X230.65
G1 Y-65.275
G1 X218.85
G1 Y-53.475
G1 F300.0 Z-1.25
G1 F500.0 X230.65
G1 Y-65.275
G1 X218.85
G1 Y-53.475
G0 Z3.0
G0 X237.85
G0 Z1.0
G1 F300.0 Z-0.4
G1 F500.0 X249.65
G1 Y-65.275
G1 X237.85
G1 Y-53.475
G1 F300.0 Z-0.8
G1 F500.0 X249.65
G1 Y-65.275
G1 X237.85
G1 Y-53.475
G1 F300.0 Z-1.2
G1 F500.0 X249.65
G1 Y-65.275
G1 X237.85
G1 Y-53.475
G1 F300.0 Z-1.25
G1 F500.0 X249.65
G1 Y-65.275
G1 X237.85
G1 Y-53.475
G0 Z3.0
G0 X247.35 Y-46.275
G0 Z1.0
G1 F300.0 Z-0.4
G1 F500.0 Y-34.475
G1 X259.15
G1 Y-46.275
G1 X247.35
G1 F300.0 Z-0.8
G1 F500.0 Y-34.475
G1 X259.15
G1 Y-46.275
G1 X247.35
G1 F300.0 Z-1.2
G1 F500.0 Y-34.475
G1 X259.15
G1 Y-46.275
G1 X247.35
G1 F300.0 Z-1.25
G1 F500.0 Y-34.475
G1 X259.15
G1 Y-46.275
G1 X247.35
G0 Z3.0
G0 X256.85 Y-53.475
G0 Z1.0
G1 F300.0 Z-0.4
G1 F500.0 X268.65
G1 Y-65.275
G1 X256.85
G1 Y-53.475
G1 F300.0 Z-0.8
G1 F500.0 X268.65
G1 Y-65.275
G1 X256.85
G1 Y-53.475
G1 F300.0 Z-1.2
G1 F500.0 X268.65
G1 Y-65.275
G1 X256.85
G1 Y-53.475
G1 F300.0 Z-1.25
G1 F500.0 X268.65
G1 Y-65.275
G1 X256.85
G1 Y-53.475
G0 Z3.0
G0 Y-27.275
G0 Z1.0
G1 F300.0 Z-0.4
G1 F500.0 Y-15.475
G1 X268.65
G1 Y-27.275
G1 X256.85
G1 F300.0 Z-0.8
G1 F500.0 Y-15.475
G1 X268.65
G1 Y-27.275
G1 X256.85
G1 F300.0 Z-1.2
G1 F500.0 Y-15.475
G1 X268.65
G1 Y-27.275
G1 X256.85
G1 F300.0 Z-1.25
G1 F500.0 Y-15.475
G1 X268.65
G1 Y-27.275
G1 X256.85
G0 Z3.0
G0 X249.65
G0 Z1.0
G1 F300.0 Z-0.4
G1 F500.0 X237.85
G1 Y-15.475
G1 X249.65
G1 Y-27.275
G1 F300.0 Z-0.8
G1 F500.0 X237.85
G1 Y-15.475
G1 X249.65
G1 Y-27.275
G1 F300.0 Z-1.2
G1 F500.0 X237.85
G1 Y-15.475
G1 X249.65
G1 Y-27.275
G1 F300.0 Z-1.25
G1 F500.0 X237.85
G1 Y-15.475
G1 X249.65
G1 Y-27.275
G0 Z3.0
G0 Y-8.275
G0 Z1.0
G1 F300.0 Z-0.4
G1 F500.0 X237.85
G1 Y3.525
G1 X249.65
G1 Y-8.275
G1 F300.0 Z-0.8
G1 F500.0 X237.85
G1 Y3.525
G1 X249.65
G1 Y-8.275
G1 F300.0 Z-1.2
G1 F500.0 X237.85
G1 Y3.525
G1 X249.65
G1 Y-8.275
G1 F300.0 Z-1.25
G1 F500.0 X237.85
G1 Y3.525
G1 X249.65
G1 Y-8.275
G0 Z3.0
G0 X256.85
G0 Z1.0
G1 F300.0 Z-0.4
G1 F500.0 Y3.525
G1 X268.65
G1 Y-8.275
G1 X256.85
G1 F300.0 Z-0.8
G1 F500.0 Y3.525
G1 X268.65
G1 Y-8.275
G1 X256.85
G1 F300.0 Z-1.2
G1 F500.0 Y3.525
G1 X268.65
G1 Y-8.275
G1 X256.85
G1 F300.0 Z-1.25
G1 F500.0 Y3.525
G1 X268.65
G1 Y-8.275
G1 X256.85
G0 Z3.0
G0 Y10.725
G0 Z1.0
G1 F300.0 Z-0.4
G1 F500.0 Y22.525
G1 X268.65
G1 Y10.725
G1 X256.85
G1 F300.0 Z-0.8
G1 F500.0 Y22.525
G1 X268.65
G1 Y10.725
G1 X256.85
G1 F300.0 Z-1.2
G1 F500.0 Y22.525
G1 X268.65
G1 Y10.725
G1 X256.85
G1 F300.0 Z-1.25
G1 F500.0 Y22.525
G1 X268.65
G1 Y10.725
G1 X256.85
G0 Z3.0
G0 X249.65
G0 Z1.0
G1 F300.0 Z-0.4
G1 F500.0 X237.85
G1 Y22.525
G1 X249.65
G1 Y10.725
G1 F300.0 Z-0.8
G1 F500.0 X237.85
G1 Y22.525
G1 X249.65
G1 Y10.725
G1 F300.0 Z-1.2
G1 F500.0 X237.85
G1 Y22.525
G1 X249.65
G1 Y10.725
G1 F300.0 Z-1.25
G1 F500.0 X237.85
G1 Y22.525
G1 X249.65
G1 Y10.725
G0 Z3.0
G0 X230.65
G0 Z1.0
G1 F300.0 Z-0.4
G1 F500.0 X218.85
G1 Y22.525
G1 X230.65
G1 Y10.725
G1 F300.0 Z-0.8
G1 F500.0 X218.85
G1 Y22.525
G1 X230.65
G1 Y10.725
G1 F300.0 Z-1.2
G1 F500.0 X218.85
G1 Y22.525
G1 X230.65
G1 Y10.725
G1 F300.0 Z-1.25
G1 F500.0 X218.85
G1 Y22.525
G1 X230.65
G1 Y10.725
G0 Z3.0
G0 Y3.525
G0 Z1.0
G1 F300.0 Z-0.4
G1 F500.0 Y-8.275
G1 X218.85
G1 Y3.525
G1 X230.65
G1 F300.0 Z-0.8
G1 F500.0 Y-8.275
G1 X218.85
G1 Y3.525
G1 X230.65
G1 F300.0 Z-1.2
G1 F500.0 Y-8.275
G1 X218.85
G1 Y3.525
G1 X230.65
G1 F300.0 Z-1.25
G1 F500.0 Y-8.275
G1 X218.85
G1 Y3.525
G1 X230.65
G0 Z3.0
G0 X285.35
G0 Z1.0
G1 F300.0 Z-0.4
G1 F500.0 X297.15
G1 Y-8.275
G1 X285.35
G1 Y3.525
G1 F300.0 Z-0.8
G1 F500.0 X297.15
G1 Y-8.275
G1 X285.35
G1 Y3.525
G1 F300.0 Z-1.2
G1 F500.0 X297.15
G1 Y-8.275
G1 X285.35
G1 Y3.525
G1 F300.0 Z-1.25
G1 F500.0 X297.15
G1 Y-8.275
G1 X285.35
G1 Y3.525
G0 Z3.0
G0 Y10.725
G0 Z1.0
G1 F300.0 Z-0.4
G1 F500.0 Y22.525
G1 X297.15
G1 Y10.725
G1 X285.35
G1 F300.0 Z-0.8
G1 F500.0 Y22.525
G1 X297.15
G1 Y10.725
G1 X285.35
G1 F300.0 Z-1.2
G1 F500.0 Y22.525
G1 X297.15
G1 Y10.725
G1 X285.35
G1 F300.0 Z-1.25
G1 F500.0 Y22.525
G1 X297.15
G1 Y10.725
G1 X285.35
G0 Z3.0
G0 Y-15.475
G0 Z1.0
G1 F300.0 Z-0.4
G1 F500.0 X297.15
G1 Y-27.275
G1 X285.35
G1 Y-15.475
G1 F300.0 Z-0.8
G1 F500.0 X297.15
G1 Y-27.275
G1 X285.35
G1 Y-15.475
G1 F300.0 Z-1.2
G1 F500.0 X297.15
G1 Y-27.275
G1 X285.35
G1 Y-15.475
G1 F300.0 Z-1.25
G1 F500.0 X297.15
G1 Y-27.275
G1 X285.35
G1 Y-15.475
G0 Z3.0
G0 Y-34.475
G0 Z1.0
G1 F300.0 Z-0.4
G1 F500.0 X297.15
G1 Y-46.275
G1 X285.35
G1 Y-34.475
G1 F300.0 Z-0.8
G1 F500.0 X297.15
G1 Y-46.275
G1 X285.35
G1 Y-34.475
G1 F300.0 Z-1.2
G1 F500.0 X297.15
G1 Y-46.275
G1 X285.35
G1 Y-34.475
G1 F300.0 Z-1.25
G1 F500.0 X297.15
G1 Y-46.275
G1 X285.35
G1 Y-34.475
G0 Z3.0
G0 Y-53.475
G0 Z1.0
G1 F300.0 Z-0.4
G1 F500.0 X297.15
G1 Y-65.275
G1 X285.35
G1 Y-53.475
G1 F300.0 Z-0.8
G1 F500.0 X297.15
G1 Y-65.275
G1 X285.35
G1 Y-53.475
G1 F300.0 Z-1.2
G1 F500.0 X297.15
G1 Y-65.275
G1 X285.35
G1 Y-53.475
G1 F300.0 Z-1.25
G1 F500.0 X297.15
G1 Y-65.275
G1 X285.35
G1 Y-53.475
( Big cuts )
S1000
G0 Z3.0
G0 X-155.75 Y62.4534
G0 Z1.0
G1 F300.0 Z-0.4
G1 F500.0 Y73.125
G3 X-156.75 Y74.125 I-1.0 J0.0
G1 X-298.05
G3 X-299.05 Y73.125 I0.0 J-1.0
G1 Y62.4534
G3 X-300.8784 Y60.625 I1.0 J-2.8284
G1 X-311.55
G3 X-312.55 Y59.625 I0.0 J-1.0
G1 Y36.425
G3 X-311.55 Y35.425 I1.0 J0.0
G1 X-301.05
G1 Y27.525
G1 X-304.05
G3 X-305.05 Y26.525 I0.0 J-1.0
G1 Y-67.275
G3 X-304.05 Y-68.275 I1.0 J0.0
G1 X-300.8784
G3 X-299.05 Y-70.1034 I2.8284 J1.0
G1 Y-73.275
G3 X-298.05 Y-74.275 I1.0 J0.0
G1 X-156.75
G3 X-155.75 Y-73.275 I0.0 J1.0
G1 Y-70.1034
G3 X-153.9216 Y-68.275 I-1.0 J2.8284
G1 X-150.75
G3 X-149.75 Y-67.275 I0.0 J1.0
G1 Y26.525
G3 X-150.75 Y27.525 I-1.0 J0.0
G1 X-153.75
G1 Y59.625
G3 X-155.75 Y62.4534 I-3.0 J0.0
G1 F300.0 Z-0.8
G1 F500.0 Y73.125
G3 X-156.75 Y74.125 I-1.0 J0.0
G1 X-298.05
G3 X-299.05 Y73.125 I0.0 J-1.0
G1 Y62.4534
G3 X-300.8784 Y60.625 I1.0 J-2.8284
G1 X-311.55
G3 X-312.55 Y59.625 I0.0 J-1.0
G1 Y36.425
G3 X-311.55 Y35.425 I1.0 J0.0
G1 X-301.05
G1 Y27.525
G1 X-304.05
G3 X-305.05 Y26.525 I0.0 J-1.0
G1 Y-67.275
G3 X-304.05 Y-68.275 I1.0 J0.0
G1 X-300.8784
G3 X-299.05 Y-70.1034 I2.8284 J1.0
G1 Y-73.275
G3 X-298.05 Y-74.275 I1.0 J0.0
G1 X-156.75
G3 X-155.75 Y-73.275 I0.0 J1.0
G1 Y-70.1034
G3 X-153.9216 Y-68.275 I-1.0 J2.8284
G1 X-150.75
G3 X-149.75 Y-67.275 I0.0 J1.0
G1 Y26.525
G3 X-150.75 Y27.525 I-1.0 J0.0
G1 X-153.75
G1 Y59.625
G3 X-155.75 Y62.4534 I-3.0 J0.0
G1 F300.0 Z-1.2
G1 F500.0 Y73.125
G3 X-156.75 Y74.125 I-1.0 J0.0
G1 X-298.05
G3 X-299.05 Y73.125 I0.0 J-1.0
G1 Y62.4534
G3 X-300.8784 Y60.625 I1.0 J-2.8284
G1 X-311.55
G3 X-312.55 Y59.625 I0.0 J-1.0
G1 Y36.425
G3 X-311.55 Y35.425 I1.0 J0.0
G1 X-301.05
G1 Y27.525
G1 X-304.05
G3 X-305.05 Y26.525 I0.0 J-1.0
G1 Y-67.275
G3 X-304.05 Y-68.275 I1.0 J0.0
G1 X-300.8784
G3 X-299.05 Y-70.1034 I2.8284 J1.0
G1 Y-73.275
G3 X-298.05 Y-74.275 I1.0 J0.0
G1 X-156.75
G3 X-155.75 Y-73.275 I0.0 J1.0
G1 Y-70.1034
G3 X-153.9216 Y-68.275 I-1.0 J2.8284
G1 X-150.75
G3 X-149.75 Y-67.275 I0.0 J1.0
G1 Y26.525
G3 X-150.75 Y27.525 I-1.0 J0.0
G1 X-153.75
G1 Y59.625
G3 X-155.75 Y62.4534 I-3.0 J0.0
G1 F300.0 Z-1.25
G1 F500.0 Y73.125
G3 X-156.75 Y74.125 I-1.0 J0.0
G1 X-298.05
G3 X-299.05 Y73.125 I0.0 J-1.0
G1 Y62.4534
G3 X-300.8784 Y60.625 I1.0 J-2.8284
G1 X-311.55
G3 X-312.55 Y59.625 I0.0 J-1.0
G1 Y36.425
G3 X-311.55 Y35.425 I1.0 J0.0
G1 X-301.05
G1 Y27.525
G1 X-304.05
G3 X-305.05 Y26.525 I0.0 J-1.0
G1 Y-67.275
G3 X-304.05 Y-68.275 I1.0 J0.0
G1 X-300.8784
G3 X-299.05 Y-70.1034 I2.8284 J1.0
G1 Y-73.275
G3 X-298.05 Y-74.275 I1.0 J0.0
G1 X-156.75
G3 X-155.75 Y-73.275 I0.0 J1.0
G1 Y-70.1034
G3 X-153.9216 Y-68.275 I-1.0 J2.8284
G1 X-150.75
G3 X-149.75 Y-67.275 I0.0 J1.0
G1 Y26.525
G3 X-150.75 Y27.525 I-1.0 J0.0
G1 X-153.75
G1 Y59.625
G3 X-155.75 Y62.4534 I-3.0 J0.0
G0 Z3.0
G0 X-147.4108 Y58.1107
G0 Z1.0
G1 F300.0 Z-0.4
G3 F500.0 X-147.75 Y56.725 I2.6608 J-1.3857
G1 Y-67.275
G3 X-144.75 Y-70.275 I3.0 J0.0
G1 X-3.45
G3 X-0.45 Y-67.275 I0.0 J3.0
G1 Y56.725
G3 X-3.45 Y59.725 I-3.0 J0.0
G1 X-144.75
G3 X-147.4108 Y58.1107 I0.0 J-3.0
G1 F300.0 Z-0.8
G3 F500.0 X-147.75 Y56.725 I2.6608 J-1.3857
G1 Y-67.275
G3 X-144.75 Y-70.275 I3.0 J0.0
G1 X-3.45
G3 X-0.45 Y-67.275 I0.0 J3.0
G1 Y56.725
G3 X-3.45 Y59.725 I-3.0 J0.0
G1 X-144.75
G3 X-147.4108 Y58.1107 I0.0 J-3.0
G1 F300.0 Z-1.2
G3 F500.0 X-147.75 Y56.725 I2.6608 J-1.3857
G1 Y-67.275
G3 X-144.75 Y-70.275 I3.0 J0.0
G1 X-3.45
G3 X-0.45 Y-67.275 I0.0 J3.0
G1 Y56.725
G3 X-3.45 Y59.725 I-3.0 J0.0
G1 X-144.75
G3 X-147.4108 Y58.1107 I0.0 J-3.0
G1 F300.0 Z-1.25
G3 F500.0 X-147.75 Y56.725 I2.6608 J-1.3857
G1 Y-67.275
G3 X-144.75 Y-70.275 I3.0 J0.0
G1 X-3.45
G3 X-0.45 Y-67.275 I0.0 J3.0
G1 Y56.725
G3 X-3.45 Y59.725 I-3.0 J0.0
G1 X-144.75
G3 X-147.4108 Y58.1107 I0.0 J-3.0
G0 Z3.0
G0 X1.5501 Y56.7524
G0 Z1.0
G1 F300.0 Z-0.4
G3 F500.0 X1.55 Y56.725 I2.9999 J-0.0274
G1 Y-67.275
G3 X4.55 Y-70.275 I3.0 J0.0
G1 X145.85
G3 X148.85 Y-67.275 I0.0 J3.0
G1 Y56.725
G3 X145.85 Y59.725 I-3.0 J0.0
G1 X4.55
G3 X1.5501 Y56.7524 I0.0 J-3.0
G1 F300.0 Z-0.8
G3 F500.0 X1.55 Y56.725 I2.9999 J-0.0274
G1 Y-67.275
G3 X4.55 Y-70.275 I3.0 J0.0
G1 X145.85
G3 X148.85 Y-67.275 I0.0 J3.0
G1 Y56.725
G3 X145.85 Y59.725 I-3.0 J0.0
G1 X4.55
G3 X1.5501 Y56.7524 I0.0 J-3.0
G1 F300.0 Z-1.2
G3 F500.0 X1.55 Y56.725 I2.9999 J-0.0274
G1 Y-67.275
G3 X4.55 Y-70.275 I3.0 J0.0
G1 X145.85
G3 X148.85 Y-67.275 I0.0 J3.0
G1 Y56.725
G3 X145.85 Y59.725 I-3.0 J0.0
G1 X4.55
G3 X1.5501 Y56.7524 I0.0 J-3.0
G1 F300.0 Z-1.25
G3 F500.0 X1.55 Y56.725 I2.9999 J-0.0274
G1 Y-67.275
G3 X4.55 Y-70.275 I3.0 J0.0
G1 X145.85
G3 X148.85 Y-67.275 I0.0 J3.0
G1 Y56.725
G3 X145.85 Y59.725 I-3.0 J0.0
G1 X4.55
G3 X1.5501 Y56.7524 I0.0 J-3.0
G0 Z3.0
G0 X150.8696 Y26.7222
G0 Z1.0
G1 F300.0 Z-0.4
G3 F500.0 X150.85 Y26.525 I0.9804 J-0.1972
G1 Y-67.275
G3 X151.85 Y-68.275 I1.0 J0.0
G1 X155.0216
G3 X156.85 Y-70.1034 I2.8284 J1.0
G1 Y-73.275
G3 X157.85 Y-74.275 I1.0 J0.0
G1 X299.15
G3 X300.15 Y-73.275 I0.0 J1.0
G1 Y-70.1034
G3 X301.9784 Y-68.275 I-1.0 J2.8284
G1 X305.15
G3 X306.15 Y-67.275 I0.0 J1.0
G1 Y26.525
G3 X305.15 Y27.525 I-1.0 J0.0
G1 X302.15
G1 Y35.425
G1 X312.65
G3 X313.65 Y36.425 I0.0 J1.0
G1 Y59.625
G3 X312.65 Y60.625 I-1.0 J0.0
G1 X301.9784
G3 X300.15 Y62.4534 I-2.8284 J-1.0
G1 Y73.125
G3 X299.15 Y74.125 I-1.0 J0.0
G1 X204.15
G3 X203.15 Y73.125 I0.0 J-1.0
G1 Y62.625
G1 X157.85
G3 X154.85 Y59.625 I0.0 J-3.0
G1 Y27.525
G1 X151.85
G3 X150.8696 Y26.7222 I0.0 J-1.0
G1 F300.0 Z-0.8
G3 F500.0 X150.85 Y26.525 I0.9804 J-0.1972
G1 Y-67.275
G3 X151.85 Y-68.275 I1.0 J0.0
G1 X155.0216
G3 X156.85 Y-70.1034 I2.8284 J1.0
G1 Y-73.275
G3 X157.85 Y-74.275 I1.0 J0.0
G1 X299.15
G3 X300.15 Y-73.275 I0.0 J1.0
G1 Y-70.1034
G3 X301.9784 Y-68.275 I-1.0 J2.8284
G1 X305.15
G3 X306.15 Y-67.275 I0.0 J1.0
G1 Y26.525
G3 X305.15 Y27.525 I-1.0 J0.0
G1 X302.15
G1 Y35.425
G1 X312.65
G3 X313.65 Y36.425 I0.0 J1.0
G1 Y59.625
G3 X312.65 Y60.625 I-1.0 J0.0
G1 X301.9784
G3 X300.15 Y62.4534 I-2.8284 J-1.0
G1 Y73.125
G3 X299.15 Y74.125 I-1.0 J0.0
G1 X204.15
G3 X203.15 Y73.125 I0.0 J-1.0
G1 Y62.625
G1 X157.85
G3 X154.85 Y59.625 I0.0 J-3.0
G1 Y27.525
G1 X151.85
G3 X150.8696 Y26.7222 I0.0 J-1.0
G1 F300.0 Z-1.2
G3 F500.0 X150.85 Y26.525 I0.9804 J-0.1972
G1 Y-67.275
G3 X151.85 Y-68.275 I1.0 J0.0
G1 X155.0216
G3 X156.85 Y-70.1034 I2.8284 J1.0
G1 Y-73.275
G3 X157.85 Y-74.275 I1.0 J0.0
G1 X299.15
G3 X300.15 Y-73.275 I0.0 J1.0
G1 Y-70.1034
G3 X301.9784 Y-68.275 I-1.0 J2.8284
G1 X305.15
G3 X306.15 Y-67.275 I0.0 J1.0
G1 Y26.525
G3 X305.15 Y27.525 I-1.0 J0.0
G1 X302.15
G1 Y35.425
G1 X312.65
G3 X313.65 Y36.425 I0.0 J1.0
G1 Y59.625
G3 X312.65 Y60.625 I-1.0 J0.0
G1 X301.9784
G3 X300.15 Y62.4534 I-2.8284 J-1.0
G1 Y73.125
G3 X299.15 Y74.125 I-1.0 J0.0
G1 X204.15
G3 X203.15 Y73.125 I0.0 J-1.0
G1 Y62.625
G1 X157.85
G3 X154.85 Y59.625 I0.0 J-3.0
G1 Y27.525
G1 X151.85
G3 X150.8696 Y26.7222 I0.0 J-1.0
G1 F300.0 Z-1.25
G3 F500.0 X150.85 Y26.525 I0.9804 J-0.1972
G1 Y-67.275
G3 X151.85 Y-68.275 I1.0 J0.0
G1 X155.0216
G3 X156.85 Y-70.1034 I2.8284 J1.0
G1 Y-73.275
G3 X157.85 Y-74.275 I1.0 J0.0
G1 X299.15
G3 X300.15 Y-73.275 I0.0 J1.0
G1 Y-70.1034
G3 X301.9784 Y-68.275 I-1.0 J2.8284
G1 X305.15
G3 X306.15 Y-67.275 I0.0 J1.0
G1 Y26.525
G3 X305.15 Y27.525 I-1.0 J0.0
G1 X302.15
G1 Y35.425
G1 X312.65
G3 X313.65 Y36.425 I0.0 J1.0
G1 Y59.625
G3 X312.65 Y60.625 I-1.0 J0.0
G1 X301.9784
G3 X300.15 Y62.4534 I-2.8284 J-1.0
G1 Y73.125
G3 X299.15 Y74.125 I-1.0 J0.0
G1 X204.15
G3 X203.15 Y73.125 I0.0 J-1.0
G1 Y62.625
G1 X157.85
G3 X154.85 Y59.625 I0.0 J-3.0
G1 Y27.525
G1 X151.85
G3 X150.8696 Y26.7222 I0.0 J-1.0
G0 Z3.0
M5
M30
