( Made using CamBam - http://www.cambam.co.uk )
( cnc-pcb-top 2020-05-22 00:06:32 )
( Post processor: Default )
( T0 : 2.0 )
G21 G90 G64 G40
G0 Z3.0
( T0 : 2.0 )
T0 M6
( Engrave1 )
G17
M3 S1000
G0 X-12.75 Y10.65
G0 Z1.3
G1 F300.0 Z-0.1
G3 F500.0 X-15.0 Y11.949 I-1.5 J0.0
G3 Y9.351 I0.75 J-1.299
G3 X-12.75 Y10.65 I0.75 J1.299
G0 Z3.0
G0 X-10.5362 Y9.3217
G0 Z1.3
G1 F300.0 Z-0.1
G3 F500.0 X-10.0 Y7.251 I1.2862 J-0.7717
G3 X-7.75 Y8.55 I0.75 J1.299
G3 X-10.0 Y9.849 I-1.5 J0.0
G3 X-10.5362 Y9.3217 I0.75 J-1.299
G0 Z3.0
G0 X-9.3556 Y26.0537
G0 Z1.3
G1 F300.0 Z-0.1
G3 F500.0 X-7.75 Y27.55 I0.1056 J1.4963
G3 X-10.0 Y28.849 I-1.5 J0.0
G3 Y26.251 I0.75 J-1.299
G3 X-9.3556 Y26.0537 I0.75 J1.299
G0 Z3.0
G0 X-13.0412 Y28.7618
G0 Z1.3
G1 F300.0 Z-0.1
G3 F500.0 X-12.75 Y29.65 I-1.2088 J0.8882
G3 X-15.0 Y30.949 I-1.5 J0.0
G3 Y28.351 I0.75 J-1.299
G3 X-13.0412 Y28.7618 I0.75 J1.299
G0 Z3.0
G0 X-9.5627 Y45.083
G0 Z1.3
G1 F300.0 Z-0.1
G3 F500.0 X-7.75 Y46.55 I0.3127 J1.467
G3 X-10.0 Y47.849 I-1.5 J0.0
G3 Y45.251 I0.75 J-1.299
G3 X-9.5627 Y45.083 I0.75 J1.299
G0 Z3.0
G0 X-13.0563 Y47.7416
G0 Z1.3
G1 F300.0 Z-0.1
G3 F500.0 X-12.75 Y48.65 I-1.1937 J0.9084
G3 X-15.0 Y49.949 I-1.5 J0.0
G3 Y47.351 I0.75 J-1.299
G3 X-13.0563 Y47.7416 I0.75 J1.299
G0 Z3.0
G0 X-9.5635 Y64.0831
G0 Z1.3
G1 F300.0 Z-0.1
G3 F500.0 X-7.75 Y65.55 I0.3135 J1.4669
G3 X-10.0 Y66.849 I-1.5 J0.0
G3 Y64.251 I0.75 J-1.299
G3 X-9.5635 Y64.0831 I0.75 J1.299
G0 Z3.0
G0 X-13.0564 Y66.7415
G0 Z1.3
G1 F300.0 Z-0.1
G3 F500.0 X-12.75 Y67.65 I-1.1936 J0.9085
G3 X-15.0 Y68.949 I-1.5 J0.0
G3 Y66.351 I0.75 J-1.299
G3 X-13.0564 Y66.7415 I0.75 J1.299
G0 Z3.0
G0 X12.7508 Y67.6001
G0 Z1.3
G1 F300.0 Z-0.1
G3 F500.0 X13.5 Y66.351 I1.4992 J0.0499
G3 X15.75 Y67.65 I0.75 J1.299
G3 X13.5 Y68.949 I-1.5 J0.0
G3 X12.7508 Y67.6001 I0.75 J-1.299
G0 Z3.0
G0 X17.8195 Y66.0012
G0 Z1.3
G1 F300.0 Z-0.1
G3 F500.0 X18.5 Y64.251 I1.4305 J-0.4512
G3 X20.75 Y65.55 I0.75 J1.299
G3 X18.5 Y66.849 I-1.5 J0.0
G3 X17.8195 Y66.0012 I0.75 J-1.299
G0 Z3.0
G0 X19.1324 Y71.1957
G0 Z1.3
G1 F300.0 Z-0.1
G3 F500.0 X21.0 Y72.65 I0.3676 J1.4543
G3 X18.75 Y73.949 I-1.5 J0.0
G3 Y71.351 I0.75 J-1.299
G3 X19.1324 Y71.1957 I0.75 J1.299
G0 Z3.0
G0 X19.2368 Y83.0501
G0 Z1.3
G1 F300.0 Z-0.1
G3 F500.0 X20.75 Y84.55 I0.0132 J1.4999
G3 X18.5 Y85.849 I-1.5 J0.0
G3 Y83.251 I0.75 J-1.299
G3 X19.2368 Y83.0501 I0.75 J1.299
G0 Z3.0
G0 X21.75 Y86.05
G0 Z1.3
G1 F300.0 Z-0.1
G1 F500.0 X-13.75
G1 Y121.75
G0 Z3.0
G0 X-17.9774 Y108.3406
G0 Z1.3
G1 F300.0 Z-0.1
G3 F500.0 X-19.1784 Y108.209 I-0.451 J-1.4306
G3 Y105.611 I0.75 J-1.299
G3 X-16.9284 Y106.91 I0.75 J1.299
G3 X-17.9774 Y108.3406 I-1.5 J0.0
G0 Z3.0
G0 X-14.5691 Y107.0831
G0 Z1.3
G1 F300.0 Z-0.1
G3 F500.0 X-14.35 Y106.477 I0.4691 J-0.1731
G3 X-13.6 Y106.91 I0.25 J0.433
G3 X-14.35 Y107.343 I-0.5 J0.0
G3 X-14.5691 Y107.0831 I0.25 J-0.433
G0 Z3.0
G0 X-6.9213 Y93.1999
G0 Z1.3
G1 F300.0 Z-0.1
G3 F500.0 X-6.93 Y93.195 I0.2413 J-0.4379
G3 Y92.3289 I0.25 J-0.433
G3 X-6.18 Y92.7619 I0.25 J0.433
G3 X-6.9213 Y93.1999 I-0.5 J0.0
G0 Z3.0
G0 X-3.8363 Y92.8226
G0 Z1.3
G1 F300.0 Z-0.1
G3 F500.0 X-3.59 Y92.3289 I0.4963 J-0.0607
G3 X-2.84 Y92.7619 I0.25 J0.433
G3 X-3.59 Y93.195 I-0.5 J0.0
G3 X-3.8363 Y92.8226 I0.25 J-0.433
G0 Z3.0
G0 X-0.4999 Y92.7699
G0 Z1.3
G1 F300.0 Z-0.1
G3 F500.0 X-0.25 Y92.3289 I0.4999 J-0.0079
G3 X0.5 Y92.7619 I0.25 J0.433
G3 X-0.25 Y93.195 I-0.5 J0.0
G3 X-0.4999 Y92.7699 I0.25 J-0.433
G0 Z3.0
G0 X2.84 Y92.763
G0 Z1.3
G1 F300.0 Z-0.1
G3 F500.0 X3.09 Y92.3289 I0.5 J-0.001
G3 X3.84 Y92.7619 I0.25 J0.433
G3 X3.09 Y93.195 I-0.5 J0.0
G3 X2.84 Y92.763 I0.25 J-0.433
G0 Z3.0
G0 X6.18 Y92.7621
G0 Z1.3
G1 F300.0 Z-0.1
G3 F500.0 X6.43 Y92.3289 I0.5 J-0.0001
G3 X7.18 Y92.7619 I0.25 J0.433
G3 X6.43 Y93.195 I-0.5 J0.0
G3 X6.18 Y92.7621 I0.25 J-0.433
G0 Z3.0
G0 X7.2897 Y101.9173
G0 Z1.3
G1 F300.0 Z-0.1
G3 F500.0 X8.41 Y102.91 I0.1203 J0.9927
G3 X6.91 Y103.776 I-1.0 J0.0
G3 Y102.044 I0.5 J-0.866
G3 X7.2897 Y101.9173 I0.5 J0.866
G0 Z3.0
G0 X5.7952 Y102.5304
G0 Z1.3
G1 F300.0 Z-0.1
G3 F500.0 X5.87 Y102.91 I-0.9252 J0.3796
G3 X4.37 Y103.776 I-1.0 J0.0
G3 Y102.044 I0.5 J-0.866
G3 X5.7952 Y102.5304 I0.5 J0.866
G0 Z3.0
G0 X8.9541 Y102.819
G0 Z1.3
G1 F300.0 Z-0.1
G3 F500.0 X9.45 Y102.044 I0.9959 J0.091
G3 X10.95 Y102.91 I0.5 J0.866
G3 X9.45 Y103.776 I-1.0 J0.0
G3 X8.9541 Y102.819 I0.5 J-0.866
G0 Z3.0
G0 X11.4903 Y102.8843
G0 Z1.3
G1 F300.0 Z-0.1
G3 F500.0 X11.99 Y102.044 I0.9997 J0.0257
G3 X13.49 Y102.91 I0.5 J0.866
G3 X11.99 Y103.776 I-1.0 J0.0
G3 X11.4903 Y102.8843 I0.5 J-0.866
G0 Z3.0
G0 X14.53 Y102.9064
G0 Z1.3
G1 F300.0 Z-0.1
G3 F500.0 X14.78 Y102.477 I0.5 J0.0036
G3 X15.53 Y102.91 I0.25 J0.433
G3 X14.78 Y103.343 I-0.5 J0.0
G3 X14.53 Y102.9064 I0.25 J-0.433
G0 Z3.0
G0 X15.53 Y98.7619
G0 Z1.3
G1 F300.0 Z-0.1
G1 F500.0 Y105.3716
G1 X22.15
G1 Y98.7619
G0 Z3.0
G0 X22.5902 Y102.4136
G0 Z1.3
G1 F300.0 Z-0.1
G3 F500.0 X23.15 Y102.91 I0.0598 J0.4964
G3 X22.4 Y103.343 I-0.5 J0.0
G3 Y102.477 I0.25 J-0.433
G3 X22.5902 Y102.4136 I0.25 J0.433
G0 Z3.0
G0 X24.2077 Y102.7225
G0 Z1.3
G1 F300.0 Z-0.1
G3 F500.0 X24.69 Y102.044 I0.9823 J0.1875
G3 X26.19 Y102.91 I0.5 J0.866
G3 X24.69 Y103.776 I-1.0 J0.0
G3 X24.2077 Y102.7225 I0.5 J-0.866
G0 Z3.0
G0 X27.2307 Y102.8834
G0 Z1.3
G1 F300.0 Z-0.1
G3 F500.0 X27.48 Y102.477 I0.4993 J0.0266
G3 X28.23 Y102.91 I0.25 J0.433
G3 X27.48 Y103.343 I-0.5 J0.0
G3 X27.2307 Y102.8834 I0.25 J-0.433
G1 F300.0 X28.23
G1 F500.0 Y103.91
G1 X31.54
G1 Y101.91
G1 X34.82
G1 Y98.7619
G1 X67.1717
G1 X73.6843 Y94.3661
G1 X99.25
G1 Y88.7619
G1 Y86.05
G1 X78.75
G1 Y89.7619
G1 X62.75
G1 Y92.7619
G1 X46.75
G1 Y95.7619
G1 X30.75
G1 Y98.7619
G1 X28.23
G1 Y102.8834
G0 Z3.0
G0 X31.54 Y103.91
G0 Z0.9
G1 F300.0 Z-0.1
G1 F500.0 Y108.6033
G1 F300.0 X32.0766
G1 F500.0 X26.445 Y108.2511
G0 Z3.0
G0 X25.4074 Y110.3997
G0 Z1.3
G1 F300.0 Z-0.1
G3 F500.0 X25.69 Y110.85 I-0.2174 J0.4503
G3 X24.94 Y111.283 I-0.5 J0.0
G3 Y110.417 I0.25 J-0.433
G3 X25.4074 Y110.3997 I0.25 J0.433
G0 Z3.0
G0 X23.1435 Y110.7694
G0 Z1.3
G1 F300.0 Z-0.1
G3 F500.0 X23.15 Y110.85 I-0.4935 J0.0806
G3 X22.4 Y111.283 I-0.5 J0.0
G3 Y110.417 I0.25 J-0.433
G3 X23.1435 Y110.7694 I0.25 J0.433
G0 Z3.0
G0 X26.445 Y113.985
G0 Z1.3
G1 F300.0 Z-0.1
G1 F500.0 X32.0766
G0 Z3.0
G0 X32.6961 Y111.3369
G0 Z1.3
G1 F300.0 Z-0.1
G3 F500.0 X32.56 Y111.283 I0.1139 J-0.4869
G3 Y110.417 I0.25 J-0.433
G3 X33.31 Y110.85 I0.25 J0.433
G3 X32.6961 Y111.3369 I-0.5 J0.0
G0 Z3.0
G0 X37.3922 Y110.8967
G0 Z1.3
G1 F300.0 Z-0.1
G3 F500.0 X37.64 Y110.417 I0.4978 J-0.0467
G3 X38.39 Y110.85 I0.25 J0.433
G3 X37.64 Y111.283 I-0.5 J0.0
G3 X37.3922 Y110.8967 I0.25 J-0.433
G0 Z3.0
G0 Y108.6033
G0 Z1.3
G1 F300.0 Z-0.1
G1 F500.0 X46.125
G1 Y110.625
G1 Y114.85
G1 X32.0766
G1 Y108.6033
G1 X37.3922
G0 Z3.0
G0 X35.5188 Y103.3806
G0 Z1.3
G1 F300.0 Z-0.1
G3 F500.0 X35.1 Y103.343 I-0.1688 J-0.4706
G3 Y102.477 I0.25 J-0.433
G3 X35.85 Y102.91 I0.25 J0.433
G3 X35.5188 Y103.3806 I-0.5 J0.0
G0 Z3.0
G0 X34.82 Y101.91
G0 Z0.9
G1 F300.0 Z-0.1
G1 F500.0 Y103.91
G1 X81.4249
G1 Y99.66
G1 X119.15
G0 Z3.0
G0 Y105.5631
G0 Z1.3
G1 F300.0 Z-0.1
G1 F500.0 X95.005
G1 Y116.1425
G0 Z3.0
G0 Y105.5631
G0 Z0.9
G1 F300.0 Z-0.1
G1 F500.0 X88.7544
G1 Y107.41
G0 Z3.0
G0 X81.7544 Y110.91
G0 Z1.3
G1 F300.0 Z-0.1
G1 F500.0 X49.625
G1 Y118.2619
G0 Z3.0
G0 X30.7369 Y111.0288
G0 Z1.3
G1 F300.0 Z-0.1
G3 F500.0 X30.02 Y111.283 I-0.4669 J-0.1788
G3 Y110.417 I0.25 J-0.433
G3 X30.77 Y110.85 I0.25 J0.433
G3 X30.7369 Y111.0288 I-0.5 J0.0
G0 Z3.0
G0 X22.885 Y118.7619
G0 Z1.3
G1 F300.0 Z-0.1
G1 F500.0 Y115.6235
G1 X18.84
G1 Y108.2511
G1 X16.3
G0 Z3.0
G0 X18.84
G0 Z0.9
G1 F300.0 Z-0.1
G1 F500.0 X26.445
G1 Y118.2619
G1 X67.5312
G1 Y114.41
G1 X81.7544
G1 Y107.41
G1 X88.7544
G1 Y112.4537
G1 X90.755
G1 Y116.1425
G1 X99.255
G1 Y110.375
G1 X108.255
G1 Y121.75
G0 Z3.0
G0 X103.7681 Y105.6234
G0 Z1.3
G1 F300.0 Z-0.1
G3 F500.0 X103.0 Y105.526 I-0.2681 J-0.9634
G3 Y103.794 I0.5 J-0.866
G3 X104.5 Y104.66 I0.5 J0.866
G3 X103.7681 Y105.6234 I-1.0 J0.0
G0 Z3.0
G0 X100.4542 Y89.7409
G0 Z1.3
G1 F300.0 Z-0.1
G3 F500.0 X99.75 Y89.628 I-0.2042 J-0.9789
G3 Y87.8959 I0.5 J-0.866
G3 X101.25 Y88.7619 I0.5 J0.866
G3 X100.4542 Y89.7409 I-1.0 J0.0
G0 Z3.0
G0 X96.312 Y85.6093
G0 Z1.3
G1 F300.0 Z-0.1
G3 F500.0 X94.5 Y85.849 I-1.062 J-1.0593
G3 Y83.251 I0.75 J-1.299
G3 X96.75 Y84.55 I0.75 J1.299
G3 X96.312 Y85.6093 I-1.5 J0.0
G0 Z3.0
G0 X90.7428 Y86.5654
G0 Z1.3
G1 F300.0 Z-0.1
G3 F500.0 X90.75 Y86.65 I-0.4928 J0.0846
G3 X90.0 Y87.083 I-0.5 J0.0
G3 Y86.217 I0.25 J-0.433
G3 X90.7428 Y86.5654 I0.25 J0.433
G0 Z3.0
G0 X78.75 Y86.05
G0 Z0.9
G1 F300.0 Z-0.1
G1 F500.0 X59.75
G1 Y89.7619
G1 X43.75
G1 Y92.7619
G1 X27.75
G1 Y95.7619
G1 X-4.75
G1 Y112.706
G1 X6.14
G1 Y108.2511
G1 X-0.8358
G1 Y99.3498
G1 X14.2812 Y98.7619
G1 X28.23
G0 Z3.0
G0 X33.0586 Y87.1119
G0 Z1.3
G1 F300.0 Z-0.1
G3 F500.0 X33.0 Y87.083 I0.1914 J-0.4619
G3 Y86.217 I0.25 J-0.433
G3 X33.75 Y86.65 I0.25 J0.433
G3 X33.0586 Y87.1119 I-0.5 J0.0
G0 Z3.0
G0 X36.9049 Y85.2138
G0 Z1.3
G1 F300.0 Z-0.1
G3 F500.0 X37.5 Y83.251 I1.3451 J-0.6638
G3 X39.75 Y84.55 I0.75 J1.299
G3 X37.5 Y85.849 I-1.5 J0.0
G3 X36.9049 Y85.2138 I0.75 J-1.299
G0 Z3.0
G0 X40.75 Y86.05
G0 Z1.3
G1 F300.0 Z-0.1
G1 F500.0 X21.75
G1 Y89.7619
G1 X-10.75
G1 Y118.7619
G1 X11.22
G1 Y108.2511
G1 X8.68
G0 Z3.0
G0 X6.14
G0 Z0.9
G1 F300.0 Z-0.1
G1 F500.0 X8.68
G1 Y115.7619
G1 X-7.75
G1 X-7.715 Y92.7619
G1 X24.75
G1 Y89.7619
G1 X40.75
G1 Y86.05
G1 X59.75
G0 Z3.0
G0 X58.5362 Y85.3217
G0 Z1.3
G1 F300.0 Z-0.1
G3 F500.0 X56.5 Y85.849 I-1.2862 J-0.7717
G3 Y83.251 I0.75 J-1.299
G3 X58.75 Y84.55 I0.75 J1.299
G3 X58.5362 Y85.3217 I-1.5 J0.0
G0 Z3.0
G0 X52.7392 Y86.5466
G0 Z1.3
G1 F300.0 Z-0.1
G3 F500.0 X52.75 Y86.65 I-0.4892 J0.1034
G3 X52.0 Y87.083 I-0.5 J0.0
G3 Y86.217 I0.25 J-0.433
G3 X52.7392 Y86.5466 I0.25 J0.433
G0 Z3.0
G0 X52.2888 Y69.1495
G0 Z1.3
G1 F300.0 Z-0.1
G3 F500.0 X51.5 Y68.949 I-0.0388 J-1.4995
G3 Y66.351 I0.75 J-1.299
G3 X53.75 Y67.65 I0.75 J1.299
G3 X52.2888 Y69.1495 I-1.5 J0.0
G0 Z3.0
G0 X56.0359 Y66.4309
G0 Z1.3
G1 F300.0 Z-0.1
G3 F500.0 X56.5 Y64.251 I1.2141 J-0.8809
G3 X58.75 Y65.55 I0.75 J1.299
G3 X56.5 Y66.849 I-1.5 J0.0
G3 X56.0359 Y66.4309 I0.75 J-1.299
G0 Z3.0
G0 X69.7548 Y67.5302
G0 Z1.3
G1 F300.0 Z-0.1
G3 F500.0 X70.5 Y66.351 I1.4952 J0.1198
G3 X72.75 Y67.65 I0.75 J1.299
G3 X70.5 Y68.949 I-1.5 J0.0
G3 X69.7548 Y67.5302 I0.75 J-1.299
G0 Z3.0
G0 X74.8152 Y65.9874
G0 Z1.3
G1 F300.0 Z-0.1
G3 F500.0 X75.5 Y64.251 I1.4348 J-0.4374
G3 X77.75 Y65.55 I0.75 J1.299
G3 X75.5 Y66.849 I-1.5 J0.0
G3 X74.8152 Y65.9874 I0.75 J-1.299
G0 Z3.0
G0 X88.7586 Y67.4894
G0 Z1.3
G1 F300.0 Z-0.1
G3 F500.0 X89.5 Y66.351 I1.4914 J0.1606
G3 X91.75 Y67.65 I0.75 J1.299
G3 X89.5 Y68.949 I-1.5 J0.0
G3 X88.7586 Y67.4894 I0.75 J-1.299
G0 Z3.0
G0 X93.8128 Y65.9794
G0 Z1.3
G1 F300.0 Z-0.1
G3 F500.0 X94.5 Y64.251 I1.4372 J-0.4294
G3 X96.75 Y65.55 I0.75 J1.299
G3 X94.5 Y66.849 I-1.5 J0.0
G3 X93.8128 Y65.9794 I0.75 J-1.299
G0 Z3.0
G0 X107.7587 Y67.4886
G0 Z1.3
G1 F300.0 Z-0.1
G3 F500.0 X108.5 Y66.351 I1.4913 J0.1614
G3 X110.75 Y67.65 I0.75 J1.299
G3 X108.5 Y68.949 I-1.5 J0.0
G3 X107.7587 Y67.4886 I0.75 J-1.299
G0 Z3.0
G0 X112.8127 Y65.9792
G0 Z1.3
G1 F300.0 Z-0.1
G3 F500.0 X113.5 Y64.251 I1.4373 J-0.4292
G3 X115.75 Y65.55 I0.75 J1.299
G3 X113.5 Y66.849 I-1.5 J0.0
G3 X112.8127 Y65.9792 I0.75 J-1.299
G0 Z3.0
G0 X109.5521 Y50.1193
G0 Z1.3
G1 F300.0 Z-0.1
G3 F500.0 X108.5 Y49.949 I-0.3021 J-1.4693
G3 Y47.351 I0.75 J-1.299
G3 X110.75 Y48.65 I0.75 J1.299
G3 X109.5521 Y50.1193 I-1.5 J0.0
G0 Z3.0
G0 X113.0556 Y47.4574
G0 Z1.3
G1 F300.0 Z-0.1
G3 F500.0 X113.5 Y45.251 I1.1944 J-0.9074
G3 X115.75 Y46.55 I0.75 J1.299
G3 X113.5 Y47.849 I-1.5 J0.0
G3 X113.0556 Y47.4574 I0.75 J-1.299
G0 Z3.0
G0 X96.7481 Y46.6263
G0 Z1.3
G1 F300.0 Z-0.1
G3 F500.0 X94.5 Y47.849 I-1.4981 J-0.0763
G3 Y45.251 I0.75 J-1.299
G3 X96.75 Y46.55 I0.75 J1.299
G3 X96.7481 Y46.6263 I-1.5 J0.0
G0 Z3.0
G0 X91.6822 Y48.204
G0 Z1.3
G1 F300.0 Z-0.1
G3 F500.0 X91.75 Y48.65 I-1.4322 J0.446
G3 X89.5 Y49.949 I-1.5 J0.0
G3 Y47.351 I0.75 J-1.299
G3 X91.6822 Y48.204 I0.75 J1.299
G0 Z3.0
G0 X77.7415 Y46.7099
G0 Z1.3
G1 F300.0 Z-0.1
G3 F500.0 X75.5 Y47.849 I-1.4915 J-0.1599
G3 Y45.251 I0.75 J-1.299
G3 X77.75 Y46.55 I0.75 J1.299
G3 X77.7415 Y46.7099 I-1.5 J0.0
G0 Z3.0
G0 X72.6872 Y48.2205
G0 Z1.3
G1 F300.0 Z-0.1
G3 F500.0 X72.75 Y48.65 I-1.4372 J0.4295
G3 X70.5 Y49.949 I-1.5 J0.0
G3 Y47.351 I0.75 J-1.299
G3 X72.6872 Y48.2205 I0.75 J1.299
G0 Z3.0
G0 X58.7413 Y46.7114
G0 Z1.3
G1 F300.0 Z-0.1
G3 F500.0 X56.5 Y47.849 I-1.4913 J-0.1614
G3 Y45.251 I0.75 J-1.299
G3 X58.75 Y46.55 I0.75 J1.299
G3 X58.7413 Y46.7114 I-1.5 J0.0
G0 Z3.0
G0 X53.6873 Y48.2208
G0 Z1.3
G1 F300.0 Z-0.1
G3 F500.0 X53.75 Y48.65 I-1.4373 J0.4292
G3 X51.5 Y49.949 I-1.5 J0.0
G3 Y47.351 I0.75 J-1.299
G3 X53.6873 Y48.2208 I0.75 J1.299
G0 Z3.0
G0 X39.7413 Y46.7114
G0 Z1.3
G1 F300.0 Z-0.1
G3 F500.0 X37.5 Y47.849 I-1.4913 J-0.1614
G3 Y45.251 I0.75 J-1.299
G3 X39.75 Y46.55 I0.75 J1.299
G3 X39.7413 Y46.7114 I-1.5 J0.0
G0 Z3.0
G0 X34.6873 Y48.2208
G0 Z1.3
G1 F300.0 Z-0.1
G3 F500.0 X34.75 Y48.65 I-1.4373 J0.4292
G3 X32.5 Y49.949 I-1.5 J0.0
G3 Y47.351 I0.75 J-1.299
G3 X34.6873 Y48.2208 I0.75 J1.299
G0 Z3.0
G0 X20.7413 Y46.7114
G0 Z1.3
G1 F300.0 Z-0.1
G3 F500.0 X18.5 Y47.849 I-1.4913 J-0.1614
G3 Y45.251 I0.75 J-1.299
G3 X20.75 Y46.55 I0.75 J1.299
G3 X20.7413 Y46.7114 I-1.5 J0.0
G0 Z3.0
G0 X15.6873 Y48.2208
G0 Z1.3
G1 F300.0 Z-0.1
G3 F500.0 X15.75 Y48.65 I-1.4373 J0.4292
G3 X13.5 Y49.949 I-1.5 J0.0
G3 Y47.351 I0.75 J-1.299
G3 X15.6873 Y48.2208 I0.75 J1.299
G0 Z3.0
G0 X18.6379 Y52.4225
G0 Z1.3
G1 F300.0 Z-0.1
G3 F500.0 X18.75 Y52.351 I0.8621 J1.2275
G3 X21.0 Y53.65 I0.75 J1.299
G3 X18.75 Y54.949 I-1.5 J0.0
G3 X18.6379 Y52.4225 I0.75 J-1.299
G0 Z3.0
G0 X19.4273 Y36.1482
G0 Z1.3
G1 F300.0 Z-0.1
G3 F500.0 X18.75 Y35.949 I0.0727 J-1.4982
G3 Y33.351 I0.75 J-1.299
G3 X21.0 Y34.65 I0.75 J1.299
G3 X19.4273 Y36.1482 I-1.5 J0.0
G0 Z3.0
G0 X22.9192 Y30.8989
G0 Z1.3
G1 F300.0 Z-0.1
G3 F500.0 X23.0 Y28.351 I0.8308 J-1.2489
G3 X25.25 Y29.65 I0.75 J1.299
G3 X23.0 Y30.949 I-1.5 J0.0
G3 X22.9192 Y30.8989 I0.75 J-1.299
G0 Z3.0
G0 X27.4493 Y28.2971
G0 Z1.3
G1 F300.0 Z-0.1
G3 F500.0 X28.0 Y26.251 I1.3007 J-0.7471
G3 X30.25 Y27.55 I0.75 J1.299
G3 X28.0 Y28.849 I-1.5 J0.0
G3 X27.4493 Y28.2971 I0.75 J-1.299
G0 Z3.0
G0 X32.7816 Y12.075
G0 Z1.3
G1 F300.0 Z-0.1
G3 F500.0 X32.5 Y11.949 I0.4684 J-1.425
G3 Y9.351 I0.75 J-1.299
G3 X34.75 Y10.65 I0.75 J1.299
G3 X32.7816 Y12.075 I-1.5 J0.0
G0 Z3.0
G0 X36.9892 Y9.3627
G0 Z1.3
G1 F300.0 Z-0.1
G3 F500.0 X37.5 Y7.251 I1.2608 J-0.8127
G3 X39.75 Y8.55 I0.75 J1.299
G3 X37.5 Y9.849 I-1.5 J0.0
G3 X36.9892 Y9.3627 I0.75 J-1.299
G0 Z3.0
G0 X50.7553 Y10.5239
G0 Z1.3
G1 F300.0 Z-0.1
G3 F500.0 X51.5 Y9.351 I1.4947 J0.1261
G3 X53.75 Y10.65 I0.75 J1.299
G3 X51.5 Y11.949 I-1.5 J0.0
G3 X50.7553 Y10.5239 I0.75 J-1.299
G0 Z3.0
G0 X55.8148 Y8.9862
G0 Z1.3
G1 F300.0 Z-0.1
G3 F500.0 X56.5 Y7.251 I1.4352 J-0.4362
G3 X58.75 Y8.55 I0.75 J1.299
G3 X56.5 Y9.849 I-1.5 J0.0
G3 X55.8148 Y8.9862 I0.75 J-1.299
G0 Z3.0
G0 X69.7586 Y10.4892
G0 Z1.3
G1 F300.0 Z-0.1
G3 F500.0 X70.5 Y9.351 I1.4914 J0.1608
G3 X72.75 Y10.65 I0.75 J1.299
G3 X70.5 Y11.949 I-1.5 J0.0
G3 X69.7586 Y10.4892 I0.75 J-1.299
G0 Z3.0
G0 X74.8128 Y8.9794
G0 Z1.3
G1 F300.0 Z-0.1
G3 F500.0 X75.5 Y7.251 I1.4372 J-0.4294
G3 X77.75 Y8.55 I0.75 J1.299
G3 X75.5 Y9.849 I-1.5 J0.0
G3 X74.8128 Y8.9794 I0.75 J-1.299
G0 Z3.0
G0 X76.1343 Y26.0545
G0 Z1.3
G1 F300.0 Z-0.1
G3 F500.0 X77.75 Y27.55 I0.1157 J1.4955
G3 X75.5 Y28.849 I-1.5 J0.0
G3 Y26.251 I0.75 J-1.299
G3 X76.1343 Y26.0545 I0.75 J1.299
G0 Z3.0
G0 X72.458 Y28.7607
G0 Z1.3
G1 F300.0 Z-0.1
G3 F500.0 X72.75 Y29.65 I-1.208 J0.8893
G3 X70.5 Y30.949 I-1.5 J0.0
G3 Y28.351 I0.75 J-1.299
G3 X72.458 Y28.7607 I0.75 J1.299
G0 Z3.0
G0 X58.7453 Y27.669
G0 Z1.3
G1 F300.0 Z-0.1
G3 F500.0 X56.5 Y28.849 I-1.4953 J-0.119
G3 Y26.251 I0.75 J-1.299
G3 X58.75 Y27.55 I0.75 J1.299
G3 X58.7453 Y27.669 I-1.5 J0.0
G0 Z3.0
G0 X53.6848 Y29.2124
G0 Z1.3
G1 F300.0 Z-0.1
G3 F500.0 X53.75 Y29.65 I-1.4348 J0.4376
G3 X51.5 Y30.949 I-1.5 J0.0
G3 Y28.351 I0.75 J-1.299
G3 X53.6848 Y29.2124 I0.75 J1.299
G0 Z3.0
G0 X88.7501 Y29.6321
G0 Z1.3
G1 F300.0 Z-0.1
G3 F500.0 X89.5 Y28.351 I1.4999 J0.0179
G3 X91.75 Y29.65 I0.75 J1.299
G3 X89.5 Y30.949 I-1.5 J0.0
G3 X88.7501 Y29.6321 I0.75 J-1.299
G0 Z3.0
G0 X93.8215 Y28.0076
G0 Z1.3
G1 F300.0 Z-0.1
G3 F500.0 X94.5 Y26.251 I1.4285 J-0.4576
G3 X96.75 Y27.55 I0.75 J1.299
G3 X94.5 Y28.849 I-1.5 J0.0
G3 X93.8215 Y28.0076 I0.75 J-1.299
G0 Z3.0
G0 X107.7584 Y29.4912
G0 Z1.3
G1 F300.0 Z-0.1
G3 F500.0 X108.5 Y28.351 I1.4916 J0.1588
G3 X110.75 Y29.65 I0.75 J1.299
G3 X108.5 Y30.949 I-1.5 J0.0
G3 X107.7584 Y29.4912 I0.75 J-1.299
G0 Z3.0
G0 X112.8129 Y27.9798
G0 Z1.3
G1 F300.0 Z-0.1
G3 F500.0 X113.5 Y26.251 I1.4371 J-0.4298
G3 X115.75 Y27.55 I0.75 J1.299
G3 X113.5 Y28.849 I-1.5 J0.0
G3 X112.8129 Y27.9798 I0.75 J-1.299
G0 Z3.0
G0 X131.5551 Y29.5266
G0 Z1.3
G1 F300.0 Z-0.1
G3 F500.0 X132.3 Y28.351 I1.4949 J0.1234
G3 X134.55 Y29.65 I0.75 J1.299
G3 X132.3 Y30.949 I-1.5 J0.0
G3 X131.5551 Y29.5266 I0.75 J-1.299
G0 Z3.0
G0 X136.615 Y27.9867
G0 Z1.3
G1 F300.0 Z-0.1
G3 F500.0 X137.3 Y26.251 I1.435 J-0.4367
G3 X139.55 Y27.55 I0.75 J1.299
G3 X137.3 Y28.849 I-1.5 J0.0
G3 X136.615 Y27.9867 I0.75 J-1.299
G0 Z3.0
G0 X150.5586 Y29.4893
G0 Z1.3
G1 F300.0 Z-0.1
G3 F500.0 X151.3 Y28.351 I1.4914 J0.1607
G3 X153.55 Y29.65 I0.75 J1.299
G3 X151.3 Y30.949 I-1.5 J0.0
G3 X150.5586 Y29.4893 I0.75 J-1.299
G0 Z3.0
G0 X155.6128 Y27.9794
G0 Z1.3
G1 F300.0 Z-0.1
G3 F500.0 X156.3 Y26.251 I1.4372 J-0.4294
G3 X158.55 Y27.55 I0.75 J1.299
G3 X156.3 Y28.849 I-1.5 J0.0
G3 X155.6128 Y27.9794 I0.75 J-1.299
G0 Z3.0
G0 X169.5587 Y29.4886
G0 Z1.3
G1 F300.0 Z-0.1
G3 F500.0 X170.3 Y28.351 I1.4913 J0.1614
G3 X172.55 Y29.65 I0.75 J1.299
G3 X170.3 Y30.949 I-1.5 J0.0
G3 X169.5587 Y29.4886 I0.75 J-1.299
G0 Z3.0
G0 X174.6127 Y27.9792
G0 Z1.3
G1 F300.0 Z-0.1
G3 F500.0 X175.3 Y26.251 I1.4373 J-0.4292
G3 X177.55 Y27.55 I0.75 J1.299
G3 X175.3 Y28.849 I-1.5 J0.0
G3 X174.6127 Y27.9792 I0.75 J-1.299
G0 Z3.0
G0 X188.5587 Y29.4886
G0 Z1.3
G1 F300.0 Z-0.1
G3 F500.0 X189.3 Y28.351 I1.4913 J0.1614
G3 X191.55 Y29.65 I0.75 J1.299
G3 X189.3 Y30.949 I-1.5 J0.0
G3 X188.5587 Y29.4886 I0.75 J-1.299
G0 Z3.0
G0 X193.6127 Y27.9792
G0 Z1.3
G1 F300.0 Z-0.1
G3 F500.0 X194.3 Y26.251 I1.4373 J-0.4292
G3 X196.55 Y27.55 I0.75 J1.299
G3 X194.3 Y28.849 I-1.5 J0.0
G3 X193.6127 Y27.9792 I0.75 J-1.299
G0 Z3.0
G0 X190.3521 Y12.1193
G0 Z1.3
G1 F300.0 Z-0.1
G3 F500.0 X189.3 Y11.949 I-0.3021 J-1.4693
G3 Y9.351 I0.75 J-1.299
G3 X191.55 Y10.65 I0.75 J1.299
G3 X190.3521 Y12.1193 I-1.5 J0.0
G0 Z3.0
G0 X193.8556 Y9.4574
G0 Z1.3
G1 F300.0 Z-0.1
G3 F500.0 X194.3 Y7.251 I1.1944 J-0.9074
G3 X196.55 Y8.55 I0.75 J1.299
G3 X194.3 Y9.849 I-1.5 J0.0
G3 X193.8556 Y9.4574 I0.75 J-1.299
G0 Z3.0
G0 X207.5546 Y10.5326
G0 Z1.3
G1 F300.0 Z-0.1
G3 F500.0 X208.3 Y9.351 I1.4954 J0.1174
G3 X210.55 Y10.65 I0.75 J1.299
G3 X208.3 Y11.949 I-1.5 J0.0
G3 X207.5546 Y10.5326 I0.75 J-1.299
G0 Z3.0
G0 X212.6153 Y8.9879
G0 Z1.3
G1 F300.0 Z-0.1
G3 F500.0 X213.3 Y7.251 I1.4347 J-0.4379
G3 X215.55 Y8.55 I0.75 J1.299
G3 X213.3 Y9.849 I-1.5 J0.0
G3 X212.6153 Y8.9879 I0.75 J-1.299
G0 Z3.0
G0 X226.5586 Y10.4894
G0 Z1.3
G1 F300.0 Z-0.1
G3 F500.0 X227.3 Y9.351 I1.4914 J0.1606
G3 X229.55 Y10.65 I0.75 J1.299
G3 X227.3 Y11.949 I-1.5 J0.0
G3 X226.5586 Y10.4894 I0.75 J-1.299
G0 Z3.0
G0 X227.2917 Y12.6798
G0 Z1.3
G1 F300.0 Z-0.1
G3 F500.0 X229.2677 Y14.1022 I0.4761 J1.4225
G3 X227.0177 Y15.4012 I-1.5 J0.0
G3 Y12.8032 I0.75 J-1.299
G3 X227.2917 Y12.6798 I0.75 J1.299
G0 Z3.0
G0 X231.8311 Y9.4242
G0 Z1.3
G1 F300.0 Z-0.1
G3 F500.0 X232.3 Y7.251 I1.2189 J-0.8742
G3 X234.55 Y8.55 I0.75 J1.299
G3 X232.3 Y9.849 I-1.5 J0.0
G3 X231.8311 Y9.4242 I0.75 J-1.299
G0 Z3.0
G0 X224.1733 Y26.1856
G0 Z1.3
G1 F300.0 Z-0.1
G3 F500.0 X225.05 Y27.55 I-0.6233 J1.3644
G3 X222.8 Y28.849 I-1.5 J0.0
G3 Y26.251 I0.75 J-1.299
G3 X224.1733 Y26.1856 I0.75 J1.299
G0 Z3.0
G0 X219.8271 Y28.8632
G0 Z1.3
G1 F300.0 Z-0.1
G3 F500.0 X220.05 Y29.65 I-1.2771 J0.7868
G3 X217.8 Y30.949 I-1.5 J0.0
G3 Y28.351 I0.75 J-1.299
G3 X219.8271 Y28.8632 I0.75 J1.299
G0 Z3.0
G0 X226.4445 Y32.3958
G0 Z1.3
G1 F300.0 Z-0.1
G3 F500.0 X227.0177 Y31.8032 I1.3233 J0.7064
G3 X229.2677 Y33.1022 I0.75 J1.299
G3 X227.0177 Y34.4012 I-1.5 J0.0
G3 X226.4445 Y32.3958 I0.75 J-1.299
G0 Z3.0
G0 X232.4157 Y45.1907
G0 Z1.3
G1 F300.0 Z-0.1
G3 F500.0 X234.55 Y46.55 I0.6343 J1.3593
G3 X232.3 Y47.849 I-1.5 J0.0
G3 Y45.251 I0.75 J-1.299
G3 X232.4157 Y45.1907 I0.75 J1.299
G0 Z3.0
G0 X229.2257 Y47.7184
G0 Z1.3
G1 F300.0 Z-0.1
G3 F500.0 X229.55 Y48.65 I-1.1757 J0.9316
G3 X227.3 Y49.949 I-1.5 J0.0
G3 Y47.351 I0.75 J-1.299
G3 X229.2257 Y47.7184 I0.75 J1.299
G0 Z3.0
G0 X228.2411 Y50.6789
G0 Z1.3
G1 F300.0 Z-0.1
G3 F500.0 X229.2677 Y52.1022 I-0.4734 J1.4233
G3 X227.0177 Y53.4012 I-1.5 J0.0
G3 Y50.8032 I0.75 J-1.299
G3 X228.2411 Y50.6789 I0.75 J1.299
G0 Z3.0
G0 X215.4903 Y46.969
G0 Z1.3
G1 F300.0 Z-0.1
G3 F500.0 X213.3 Y47.849 I-1.4403 J-0.419
G3 Y45.251 I0.75 J-1.299
G3 X215.55 Y46.55 I0.75 J1.299
G3 X215.4903 Y46.969 I-1.5 J0.0
G0 Z3.0
G0 X210.5014 Y48.2712
G0 Z1.3
G1 F300.0 Z-0.1
G3 F500.0 X210.55 Y48.65 I-1.4514 J0.3788
G3 X208.3 Y49.949 I-1.5 J0.0
G3 Y47.351 I0.75 J-1.299
G3 X210.5014 Y48.2712 I0.75 J1.299
G0 Z3.0
G0 X196.5408 Y46.7161
G0 Z1.3
G1 F300.0 Z-0.1
G3 F500.0 X194.3 Y47.849 I-1.4908 J-0.1661
G3 Y45.251 I0.75 J-1.299
G3 X196.55 Y46.55 I0.75 J1.299
G3 X196.5408 Y46.7161 I-1.5 J0.0
G0 Z3.0
G0 X191.4875 Y48.2217
G0 Z1.3
G1 F300.0 Z-0.1
G3 F500.0 X191.55 Y48.65 I-1.4375 J0.4283
G3 X189.3 Y49.949 I-1.5 J0.0
G3 Y47.351 I0.75 J-1.299
G3 X191.4875 Y48.2217 I0.75 J1.299
G0 Z3.0
G0 X177.5413 Y46.7115
G0 Z1.3
G1 F300.0 Z-0.1
G3 F500.0 X175.3 Y47.849 I-1.4913 J-0.1615
G3 Y45.251 I0.75 J-1.299
G3 X177.55 Y46.55 I0.75 J1.299
G3 X177.5413 Y46.7115 I-1.5 J0.0
G0 Z3.0
G0 X172.4873 Y48.2208
G0 Z1.3
G1 F300.0 Z-0.1
G3 F500.0 X172.55 Y48.65 I-1.4373 J0.4292
G3 X170.3 Y49.949 I-1.5 J0.0
G3 Y47.351 I0.75 J-1.299
G3 X172.4873 Y48.2208 I0.75 J1.299
G0 Z3.0
G0 X158.5413 Y46.7114
G0 Z1.3
G1 F300.0 Z-0.1
G3 F500.0 X156.3 Y47.849 I-1.4913 J-0.1614
G3 Y45.251 I0.75 J-1.299
G3 X158.55 Y46.55 I0.75 J1.299
G3 X158.5413 Y46.7114 I-1.5 J0.0
G0 Z3.0
G0 X153.4873 Y48.2208
G0 Z1.3
G1 F300.0 Z-0.1
G3 F500.0 X153.55 Y48.65 I-1.4373 J0.4292
G3 X151.3 Y49.949 I-1.5 J0.0
G3 Y47.351 I0.75 J-1.299
G3 X153.4873 Y48.2208 I0.75 J1.299
G0 Z3.0
G0 X139.5413 Y46.7114
G0 Z1.3
G1 F300.0 Z-0.1
G3 F500.0 X137.3 Y47.849 I-1.4913 J-0.1614
G3 Y45.251 I0.75 J-1.299
G3 X139.55 Y46.55 I0.75 J1.299
G3 X139.5413 Y46.7114 I-1.5 J0.0
G0 Z3.0
G0 X134.4873 Y48.2208
G0 Z1.3
G1 F300.0 Z-0.1
G3 F500.0 X134.55 Y48.65 I-1.4373 J0.4292
G3 X132.3 Y49.949 I-1.5 J0.0
G3 Y47.351 I0.75 J-1.299
G3 X134.4873 Y48.2208 I0.75 J1.299
G0 Z3.0
G0 X137.7479 Y64.0807
G0 Z1.3
G1 F300.0 Z-0.1
G3 F500.0 X139.55 Y65.55 I0.3021 J1.4693
G3 X137.3 Y66.849 I-1.5 J0.0
G3 Y64.251 I0.75 J-1.299
G3 X137.7479 Y64.0807 I0.75 J1.299
G0 Z3.0
G0 X134.2444 Y66.7426
G0 Z1.3
G1 F300.0 Z-0.1
G3 F500.0 X134.55 Y67.65 I-1.1944 J0.9074
G3 X132.3 Y68.949 I-1.5 J0.0
G3 Y66.351 I0.75 J-1.299
G3 X134.2444 Y66.7426 I0.75 J1.299
G0 Z3.0
G0 X150.5519 Y67.5737
G0 Z1.3
G1 F300.0 Z-0.1
G3 F500.0 X151.3 Y66.351 I1.4981 J0.0763
G3 X153.55 Y67.65 I0.75 J1.299
G3 X151.3 Y68.949 I-1.5 J0.0
G3 X150.5519 Y67.5737 I0.75 J-1.299
G0 Z3.0
G0 X155.6178 Y65.996
G0 Z1.3
G1 F300.0 Z-0.1
G3 F500.0 X156.3 Y64.251 I1.4322 J-0.446
G3 X158.55 Y65.55 I0.75 J1.299
G3 X156.3 Y66.849 I-1.5 J0.0
G3 X155.6178 Y65.996 I0.75 J-1.299
G0 Z3.0
G0 X169.5585 Y67.4901
G0 Z1.3
G1 F300.0 Z-0.1
G3 F500.0 X170.3 Y66.351 I1.4915 J0.1599
G3 X172.55 Y67.65 I0.75 J1.299
G3 X170.3 Y68.949 I-1.5 J0.0
G3 X169.5585 Y67.4901 I0.75 J-1.299
G0 Z3.0
G0 X174.6128 Y65.9795
G0 Z1.3
G1 F300.0 Z-0.1
G3 F500.0 X175.3 Y64.251 I1.4372 J-0.4295
G3 X177.55 Y65.55 I0.75 J1.299
G3 X175.3 Y66.849 I-1.5 J0.0
G3 X174.6128 Y65.9795 I0.75 J-1.299
G0 Z3.0
G0 X188.5587 Y67.4886
G0 Z1.3
G1 F300.0 Z-0.1
G3 F500.0 X189.3 Y66.351 I1.4913 J0.1614
G3 X191.55 Y67.65 I0.75 J1.299
G3 X189.3 Y68.949 I-1.5 J0.0
G3 X188.5587 Y67.4886 I0.75 J-1.299
G0 Z3.0
G0 X193.6127 Y65.9792
G0 Z1.3
G1 F300.0 Z-0.1
G3 F500.0 X194.3 Y64.251 I1.4373 J-0.4292
G3 X196.55 Y65.55 I0.75 J1.299
G3 X194.3 Y66.849 I-1.5 J0.0
G3 X193.6127 Y65.9792 I0.75 J-1.299
G0 Z3.0
G0 X207.5587 Y67.4886
G0 Z1.3
G1 F300.0 Z-0.1
G3 F500.0 X208.3 Y66.351 I1.4913 J0.1614
G3 X210.55 Y67.65 I0.75 J1.299
G3 X208.3 Y68.949 I-1.5 J0.0
G3 X207.5587 Y67.4886 I0.75 J-1.299
G0 Z3.0
G0 X212.6127 Y65.9792
G0 Z1.3
G1 F300.0 Z-0.1
G3 F500.0 X213.3 Y64.251 I1.4373 J-0.4292
G3 X215.55 Y65.55 I0.75 J1.299
G3 X213.3 Y66.849 I-1.5 J0.0
G3 X212.6127 Y65.9792 I0.75 J-1.299
G0 Z3.0
G0 X226.5587 Y67.4886
G0 Z1.3
G1 F300.0 Z-0.1
G3 F500.0 X227.3 Y66.351 I1.4913 J0.1614
G3 X229.55 Y67.65 I0.75 J1.299
G3 X227.3 Y68.949 I-1.5 J0.0
G3 X226.5587 Y67.4886 I0.75 J-1.299
G0 Z3.0
G0 X231.6127 Y65.9792
G0 Z1.3
G1 F300.0 Z-0.1
G3 F500.0 X232.3 Y64.251 I1.4373 J-0.4292
G3 X234.55 Y65.55 I0.75 J1.299
G3 X232.3 Y66.849 I-1.5 J0.0
G3 X231.6127 Y65.9792 I0.75 J-1.299
G0 Z3.0
G0 X232.9343 Y83.0545
G0 Z1.3
G1 F300.0 Z-0.1
G3 F500.0 X234.55 Y84.55 I0.1157 J1.4955
G3 X232.3 Y85.849 I-1.5 J0.0
G3 Y83.251 I0.75 J-1.299
G3 X232.9343 Y83.0545 I0.75 J1.299
G0 Z3.0
G0 X233.0184 Y87.0503
G0 Z1.3
G1 F300.0 Z-0.1
G3 F500.0 X234.55 Y88.55 I0.0316 J1.4997
G3 X232.3 Y89.849 I-1.5 J0.0
G3 Y87.251 I0.75 J-1.299
G3 X233.0184 Y87.0503 I0.75 J1.299
G0 Z3.0
G0 X229.5452 Y86.7705
G0 Z1.3
G1 F300.0 Z-0.1
G3 F500.0 X227.3 Y87.949 I-1.4952 J-0.1205
G3 Y85.351 I0.75 J-1.299
G3 X229.55 Y86.65 I0.75 J1.299
G3 X229.5452 Y86.7705 I-1.5 J0.0
G0 Z3.0
G0 X215.5402 Y88.3789
G0 Z1.3
G1 F300.0 Z-0.1
G3 F500.0 X215.55 Y88.55 I-1.4902 J0.1711
G3 X213.3 Y89.849 I-1.5 J0.0
G3 Y87.251 I0.75 J-1.299
G3 X215.5402 Y88.3789 I0.75 J1.299
G0 Z3.0
G0 X214.5941 Y85.9479
G0 Z1.3
G1 F300.0 Z-0.1
G3 F500.0 X213.3 Y85.849 I-0.5441 J-1.3979
G3 Y83.251 I0.75 J-1.299
G3 X215.55 Y84.55 I0.75 J1.299
G3 X214.5941 Y85.9479 I-1.5 J0.0
G0 Z3.0
G0 X210.5381 Y86.4615
G0 Z1.3
G1 F300.0 Z-0.1
G3 F500.0 X210.55 Y86.65 I-1.4881 J0.1885
G3 X208.3 Y87.949 I-1.5 J0.0
G3 Y85.351 I0.75 J-1.299
G3 X210.5381 Y86.4615 I0.75 J1.299
G0 Z3.0
G0 X196.5387 Y84.7337
G0 Z1.3
G1 F300.0 Z-0.1
G3 F500.0 X194.3 Y85.849 I-1.4887 J-0.1837
G3 Y83.251 I0.75 J-1.299
G3 X196.55 Y84.55 I0.75 J1.299
G3 X196.5387 Y84.7337 I-1.5 J0.0
G0 Z3.0
G0 X195.5951 Y87.1526
G0 Z1.3
G1 F300.0 Z-0.1
G3 F500.0 X196.55 Y88.55 I-0.5451 J1.3974
G3 X194.3 Y89.849 I-1.5 J0.0
G3 Y87.251 I0.75 J-1.299
G3 X195.5951 Y87.1526 I0.75 J1.299
G0 Z3.0
G0 X191.5439 Y86.7854
G0 Z1.3
G1 F300.0 Z-0.1
G3 F500.0 X189.3 Y87.949 I-1.4939 J-0.1354
G3 Y85.351 I0.75 J-1.299
G3 X191.55 Y86.65 I0.75 J1.299
G3 X191.5439 Y86.7854 I-1.5 J0.0
G0 Z3.0
G0 X177.5404 Y88.3803
G0 Z1.3
G1 F300.0 Z-0.1
G3 F500.0 X177.55 Y88.55 I-1.4904 J0.1697
G3 X175.3 Y89.849 I-1.5 J0.0
G3 Y87.251 I0.75 J-1.299
G3 X177.5404 Y88.3803 I0.75 J1.299
G0 Z3.0
G0 X176.5939 Y85.9479
G0 Z1.3
G1 F300.0 Z-0.1
G3 F500.0 X175.3 Y85.849 I-0.5439 J-1.3979
G3 Y83.251 I0.75 J-1.299
G3 X177.55 Y84.55 I0.75 J1.299
G3 X176.5939 Y85.9479 I-1.5 J0.0
G0 Z3.0
G0 X172.5381 Y86.4615
G0 Z1.3
G1 F300.0 Z-0.1
G3 F500.0 X172.55 Y86.65 I-1.4881 J0.1885
G3 X170.3 Y87.949 I-1.5 J0.0
G3 Y85.351 I0.75 J-1.299
G3 X172.5381 Y86.4615 I0.75 J1.299
G0 Z3.0
G0 X158.5387 Y84.7337
G0 Z1.3
G1 F300.0 Z-0.1
G3 F500.0 X156.3 Y85.849 I-1.4887 J-0.1837
G3 Y83.251 I0.75 J-1.299
G3 X158.55 Y84.55 I0.75 J1.299
G3 X158.5387 Y84.7337 I-1.5 J0.0
G0 Z3.0
G0 X157.5951 Y87.1526
G0 Z1.3
G1 F300.0 Z-0.1
G3 F500.0 X158.55 Y88.55 I-0.5451 J1.3974
G3 X156.3 Y89.849 I-1.5 J0.0
G3 Y87.251 I0.75 J-1.299
G3 X157.5951 Y87.1526 I0.75 J1.299
G0 Z3.0
G0 X153.5439 Y86.7854
G0 Z1.3
G1 F300.0 Z-0.1
G3 F500.0 X151.3 Y87.949 I-1.4939 J-0.1354
G3 Y85.351 I0.75 J-1.299
G3 X153.55 Y86.65 I0.75 J1.299
G3 X153.5439 Y86.7854 I-1.5 J0.0
G0 Z3.0
G0 X144.5292 Y88.3013
G0 Z1.3
G1 F300.0 Z-0.1
G3 F500.0 X144.55 Y88.55 I-1.4792 J0.2487
G3 X142.3 Y89.849 I-1.5 J0.0
G3 Y87.251 I0.75 J-1.299
G3 X144.5292 Y88.3013 I0.75 J1.299
G0 Z3.0
G0 X139.3481 Y85.3016
G0 Z1.3
G1 F300.0 Z-0.1
G3 F500.0 X137.3 Y85.849 I-1.2981 J-0.7516
G3 Y83.251 I0.75 J-1.299
G3 X139.55 Y84.55 I0.75 J1.299
G3 X139.3481 Y85.3016 I-1.5 J0.0
G0 Z3.0
G0 X134.5168 Y86.336
G0 Z1.3
G1 F300.0 Z-0.1
G3 F500.0 X134.55 Y86.65 I-1.4668 J0.314
G3 X132.3 Y87.949 I-1.5 J0.0
G3 Y85.351 I0.75 J-1.299
G3 X134.5168 Y86.336 I0.75 J1.299
G0 Z3.0
G0 X126.3999 Y91.7208
G0 Z1.3
G1 F300.0 Z-0.1
G3 F500.0 X126.65 Y92.55 I-1.2499 J0.8292
G3 X124.4 Y93.849 I-1.5 J0.0
G3 Y91.251 I0.75 J-1.299
G3 X126.3999 Y91.7208 I0.75 J1.299
G0 Z3.0
G0 X115.5418 Y85.3124
G0 Z1.3
G1 F300.0 Z-0.1
G3 F500.0 X113.5 Y85.849 I-1.2918 J-0.7624
G3 Y83.251 I0.75 J-1.299
G3 X115.75 Y84.55 I0.75 J1.299
G3 X115.5418 Y85.3124 I-1.5 J0.0
G0 Z3.0
G0 X109.7391 Y86.546
G0 Z1.3
G1 F300.0 Z-0.1
G3 F500.0 X109.75 Y86.65 I-0.4891 J0.104
G3 X109.0 Y87.083 I-0.5 J0.0
G3 Y86.217 I0.25 J-0.433
G3 X109.7391 Y86.546 I0.25 J0.433
G0 Z3.0
G0 X77.7473 Y84.6392
G0 Z1.3
G1 F300.0 Z-0.1
G3 F500.0 X75.5 Y85.849 I-1.4973 J-0.0892
G3 Y83.251 I0.75 J-1.299
G3 X77.75 Y84.55 I0.75 J1.299
G3 X77.7473 Y84.6392 I-1.5 J0.0
G0 Z3.0
G0 X71.7276 Y86.5022
G0 Z1.3
G1 F300.0 Z-0.1
G3 F500.0 X71.75 Y86.65 I-0.4776 J0.1478
G3 X71.0 Y87.083 I-0.5 J0.0
G3 Y86.217 I0.25 J-0.433
G3 X71.7276 Y86.5022 I0.25 J0.433
G0 Z3.0
G0 X74.8205 Y121.75
G0 Z1.3
G1 F300.0 Z-0.1
G1 F500.0 Y117.91
G1 X85.0898
G1 Y121.75
G0 Z3.0
G0 X22.885
G0 Z1.3
G1 F300.0 Z-0.1
G1 F500.0 Y118.7619
G1 X16.3
G1 Y108.2511
G1 X13.76
G0 Z3.0
G0 X11.22
G0 Z0.9
G1 F300.0 Z-0.1
G1 F500.0 X13.76
G1 Y121.75
G0 Z3.0
G0 X14.243 Y87.15
G0 Z1.3
G1 F300.0 Z-0.1
G3 F500.0 X14.0 Y87.083 I0.007 J-0.5
G3 Y86.217 I0.25 J-0.433
G3 X14.75 Y86.65 I0.25 J0.433
G3 X14.243 Y87.15 I-0.5 J0.0
G0 Z3.0
G0 X32.203 Y68.7242
G0 Z1.3
G1 F300.0 Z-0.1
G3 F500.0 X32.5 Y66.351 I1.047 J-1.0742
G3 X34.75 Y67.65 I0.75 J1.299
G3 X32.5 Y68.949 I-1.5 J0.0
G3 X32.203 Y68.7242 I0.75 J-1.299
G0 Z3.0
G0 X36.9219 Y66.2472
G0 Z1.3
G1 F300.0 Z-0.1
G3 F500.0 X37.5 Y64.251 I1.3281 J-0.6972
G3 X39.75 Y65.55 I0.75 J1.299
G3 X37.5 Y66.849 I-1.5 J0.0
G3 X36.9219 Y66.2472 I0.75 J-1.299
G0 Z3.0
G0 X14.8164 Y12.039
G0 Z1.3
G1 F300.0 Z-0.1
G3 F500.0 X13.5 Y11.949 I-0.5664 J-1.389
G3 Y9.351 I0.75 J-1.299
G3 X15.75 Y10.65 I0.75 J1.299
G3 X14.8164 Y12.039 I-1.5 J0.0
G0 Z3.0
G0 X18.0712 Y9.4776
G0 Z1.3
G1 F300.0 Z-0.1
G3 F500.0 X18.5 Y7.251 I1.1788 J-0.9276
G3 X20.75 Y8.55 I0.75 J1.299
G3 X18.5 Y9.849 I-1.5 J0.0
G3 X18.0712 Y9.4776 I0.75 J-1.299
G0 Z3.0
G0 X98.2502 Y10.6285
G0 Z1.3
G1 F300.0 Z-0.1
G3 F500.0 X99.0 Y9.351 I1.4998 J0.0215
G3 X101.25 Y10.65 I0.75 J1.299
G3 X99.0 Y11.949 I-1.5 J0.0
G3 X98.2502 Y10.6285 I0.75 J-1.299
G0 Z3.0
G0 X103.3213 Y9.0069
G0 Z1.3
G1 F300.0 Z-0.1
G3 F500.0 X104.0 Y7.251 I1.4287 J-0.4569
G3 X106.25 Y8.55 I0.75 J1.299
G3 X104.0 Y9.849 I-1.5 J0.0
G3 X103.3213 Y9.0069 I0.75 J-1.299
G0 Z3.0
G0 X141.0513 Y10.5872
G0 Z1.3
G1 F300.0 Z-0.1
G3 F500.0 X141.8 Y9.351 I1.4987 J0.0628
G3 X144.05 Y10.65 I0.75 J1.299
G3 X141.8 Y11.949 I-1.5 J0.0
G3 X141.0513 Y10.5872 I0.75 J-1.299
G0 Z3.0
G0 X146.1187 Y8.9987
G0 Z1.3
G1 F300.0 Z-0.1
G3 F500.0 X146.8 Y7.251 I1.4313 J-0.4487
G3 X149.05 Y8.55 I0.75 J1.299
G3 X146.8 Y9.849 I-1.5 J0.0
G3 X146.1187 Y8.9987 I0.75 J-1.299
G0 Z3.0
G0 X169.5533 Y10.5509
G0 Z1.3
G1 F300.0 Z-0.1
G3 F500.0 X170.3 Y9.351 I1.4967 J0.0991
G3 X172.55 Y10.65 I0.75 J1.299
G3 X170.3 Y11.949 I-1.5 J0.0
G3 X169.5533 Y10.5509 I0.75 J-1.299
G0 Z3.0
G0 X174.6164 Y8.9915
G0 Z1.3
G1 F300.0 Z-0.1
G3 F500.0 X175.3 Y7.251 I1.4336 J-0.4415
G3 X177.55 Y8.55 I0.75 J1.299
G3 X175.3 Y9.849 I-1.5 J0.0
G3 X174.6164 Y8.9915 I0.75 J-1.299
G0 Z3.0
G0 X255.0503 Y10.6196
G0 Z1.3
G1 F300.0 Z-0.1
G3 F500.0 X255.8 Y9.351 I1.4997 J0.0304
G3 X258.05 Y10.65 I0.75 J1.299
G3 X255.8 Y11.949 I-1.5 J0.0
G3 X255.0503 Y10.6196 I0.75 J-1.299
G0 Z3.0
G0 X260.1207 Y9.0051
G0 Z1.3
G1 F300.0 Z-0.1
G3 F500.0 X260.8 Y7.251 I1.4293 J-0.4551
G3 X263.05 Y8.55 I0.75 J1.299
G3 X260.8 Y9.849 I-1.5 J0.0
G3 X260.1207 Y9.0051 I0.75 J-1.299
G0 Z3.0
G0 X261.4347 Y26.0544
G0 Z1.3
G1 F300.0 Z-0.1
G3 F500.0 X263.05 Y27.55 I0.1153 J1.4956
G3 X260.8 Y28.849 I-1.5 J0.0
G3 Y26.251 I0.75 J-1.299
G3 X261.4347 Y26.0544 I0.75 J1.299
G0 Z3.0
G0 X257.758 Y28.7608
G0 Z1.3
G1 F300.0 Z-0.1
G3 F500.0 X258.05 Y29.65 I-1.208 J0.8892
G3 X255.8 Y30.949 I-1.5 J0.0
G3 Y28.351 I0.75 J-1.299
G3 X257.758 Y28.7608 I0.75 J1.299
G0 Z3.0
G0 X262.1562 Y50.7791
G0 Z1.3
G1 F300.0 Z-0.1
G3 F500.0 X263.95 Y52.25 I0.2938 J1.4709
G3 X261.7 Y53.549 I-1.5 J0.0
G3 Y50.951 I0.75 J-1.299
G3 X262.1562 Y50.7791 I0.75 J1.299
G0 Z3.0
G0 X257.49 Y56.5811
G0 Z1.3
G1 F300.0 Z-0.1
G3 F500.0 X258.05 Y57.75 I-0.94 J1.1689
G3 X255.8 Y59.049 I-1.5 J0.0
G3 Y56.451 I0.75 J-1.299
G3 X257.49 Y56.5811 I0.75 J1.299
G0 Z3.0
G0 X261.3345 Y83.0656
G0 Z1.3
G1 F300.0 Z-0.1
G3 F500.0 X263.05 Y84.55 I0.2155 J1.4844
G3 X260.8 Y85.849 I-1.5 J0.0
G3 Y83.251 I0.75 J-1.299
G3 X261.3345 Y83.0656 I0.75 J1.299
G0 Z3.0
G0 X257.7505 Y85.7506
G0 Z1.3
G1 F300.0 Z-0.1
G3 F500.0 X258.05 Y86.65 I-1.2005 J0.8994
G3 X255.8 Y87.949 I-1.5 J0.0
G3 Y85.351 I0.75 J-1.299
G3 X257.7505 Y85.7506 I0.75 J1.299
G0 Z3.0
G0 X150.4696 Y98.4733
G0 Z1.3
G1 F300.0 Z-0.1
G3 F500.0 X150.48 Y98.65 I-1.4896 J0.1767
G3 X148.23 Y99.949 I-1.5 J0.0
G3 Y97.351 I0.75 J-1.299
G3 X150.4696 Y98.4733 I0.75 J1.299
G0 Z3.0
G0 X149.4839 Y101.2372
G0 Z1.3
G1 F300.0 Z-0.1
G3 F500.0 X150.48 Y102.65 I-0.5039 J1.4128
G3 X148.23 Y103.949 I-1.5 J0.0
G3 Y101.351 I0.75 J-1.299
G3 X149.4839 Y101.2372 I0.75 J1.299
G0 Z3.0
G0 X149.119 Y105.1565
G0 Z1.3
G1 F300.0 Z-0.1
G3 F500.0 X150.48 Y106.65 I-0.139 J1.4935
G3 X148.23 Y107.949 I-1.5 J0.0
G3 Y105.351 I0.75 J-1.299
G3 X149.119 Y105.1565 I0.75 J1.299
G0 Z3.0
G0 X149.018 Y109.1505
G0 Z1.3
G1 F300.0 Z-0.1
G3 F500.0 X150.48 Y110.65 I-0.038 J1.4995
G3 X148.23 Y111.949 I-1.5 J0.0
G3 Y109.351 I0.75 J-1.299
G3 X149.018 Y109.1505 I0.75 J1.299
G0 Z3.0
G0 X148.9904 Y113.15
G0 Z1.3
G1 F300.0 Z-0.1
G3 F500.0 X150.48 Y114.65 I-0.0104 J1.5
G3 X148.23 Y115.949 I-1.5 J0.0
G3 Y113.351 I0.75 J-1.299
G3 X148.9904 Y113.15 I0.75 J1.299
( Profile1 )
S1000
G0 Z3.0
G0 X120.15 Y-3.25
G0 Z1.0
G1 F300.0 Z-0.4
G1 F500.0 Y121.75
G3 X119.15 Y122.75 I-1.0 J0.0
G1 X-22.15
G3 X-23.15 Y121.75 I0.0 J-1.0
G1 Y-3.25
G3 X-22.15 Y-4.25 I1.0 J0.0
G1 X119.15
G3 X120.15 Y-3.25 I0.0 J1.0
G1 F300.0 Z-0.8
G1 F500.0 Y121.75
G3 X119.15 Y122.75 I-1.0 J0.0
G1 X-22.15
G3 X-23.15 Y121.75 I0.0 J-1.0
G1 Y-3.25
G3 X-22.15 Y-4.25 I1.0 J0.0
G1 X119.15
G3 X120.15 Y-3.25 I0.0 J1.0
G1 F300.0 Z-1.2
G1 F500.0 Y121.75
G3 X119.15 Y122.75 I-1.0 J0.0
G1 X-22.15
G3 X-23.15 Y121.75 I0.0 J-1.0
G1 Y-3.25
G3 X-22.15 Y-4.25 I1.0 J0.0
G1 X119.15
G3 X120.15 Y-3.25 I0.0 J1.0
G1 F300.0 Z-1.55
G1 F500.0 Y121.75
G3 X119.15 Y122.75 I-1.0 J0.0
G1 X-22.15
G3 X-23.15 Y121.75 I0.0 J-1.0
G1 Y-3.25
G3 X-22.15 Y-4.25 I1.0 J0.0
G1 X119.15
G3 X120.15 Y-3.25 I0.0 J1.0
G0 Z3.0
G0 X122.15
G0 Z1.0
G1 F300.0 Z-0.4
G3 F500.0 X123.15 Y-4.25 I1.0 J0.0
G1 X264.45
G3 X265.45 Y-3.25 I0.0 J1.0
G1 Y121.75
G3 X264.45 Y122.75 I-1.0 J0.0
G1 X123.15
G3 X122.15 Y121.75 I0.0 J-1.0
G1 Y-3.25
G1 F300.0 Z-0.8
G3 F500.0 X123.15 Y-4.25 I1.0 J0.0
G1 X264.45
G3 X265.45 Y-3.25 I0.0 J1.0
G1 Y121.75
G3 X264.45 Y122.75 I-1.0 J0.0
G1 X123.15
G3 X122.15 Y121.75 I0.0 J-1.0
G1 Y-3.25
G1 F300.0 Z-1.2
G3 F500.0 X123.15 Y-4.25 I1.0 J0.0
G1 X264.45
G3 X265.45 Y-3.25 I0.0 J1.0
G1 Y121.75
G3 X264.45 Y122.75 I-1.0 J0.0
G1 X123.15
G3 X122.15 Y121.75 I0.0 J-1.0
G1 Y-3.25
G1 F300.0 Z-1.55
G3 F500.0 X123.15 Y-4.25 I1.0 J0.0
G1 X264.45
G3 X265.45 Y-3.25 I0.0 J1.0
G1 Y121.75
G3 X264.45 Y122.75 I-1.0 J0.0
G1 X123.15
G3 X122.15 Y121.75 I0.0 J-1.0
G1 Y-3.25
G0 Z3.0
M5
M30
