( Made using CamBam - http://www.cambam.co.uk )
( cnc-alu 2020-05-21 22:49:13 )
( Post processor: Default )
( T0 : 2.0 )
G21 G90 G64 G40
G0 Z3.0
( T0 : 2.0 )
T0 M6
( Bends )
G17
M3 S1000
G0 X157.85 Y-69.275
G0 Z1.0
G1 F300.0 Z-0.4
G1 F500.0 X299.15
G1 F300.0 Z-0.6
G1 F500.0 X157.85
G0 Z3.0
G0 X155.85 Y-67.275
G0 Z1.0
G1 F300.0 Z-0.4
G1 F500.0 Y26.525
G1 X301.15
G1 Y-67.275
G1 F300.0 Z-0.6
G1 F500.0 Y26.525
G1 X155.85
G1 Y-67.275
G0 Z3.0
G0 Y36.425
G0 Z1.0
G1 F300.0 Z-0.4
G1 F500.0 X301.15
G1 Y59.625
G1 F300.0 Z-0.6
G1 F500.0 Y36.425
G1 X155.85
G0 Z3.0
G0 X204.15 Y61.625
G0 Z1.0
G1 F300.0 Z-0.4
G1 F500.0 X299.15
G1 F300.0 Z-0.6
G1 F500.0 X204.15
G0 Z3.0
G0 X-154.75 Y36.425
G0 Z1.0
G1 F300.0 Z-0.4
G1 F500.0 X-300.05
G1 Y59.625
G1 F300.0 Z-0.6
G1 F500.0 Y36.425
G1 X-154.75
G0 Z3.0
G0 X-156.75 Y61.625
G0 Z1.0
G1 F300.0 Z-0.4
G1 F500.0 X-298.05
G1 F300.0 Z-0.6
G1 F500.0 X-156.75
G0 Z3.0
G0 X-154.75 Y-67.275
G0 Z1.0
G1 F300.0 Z-0.4
G1 F500.0 Y26.525
G1 X-300.05
G1 Y-67.275
G1 F300.0 Z-0.6
G1 F500.0 Y26.525
G1 X-154.75
G1 Y-67.275
G0 Z3.0
G0 X-156.75 Y-69.275
G0 Z1.0
G1 F300.0 Z-0.4
G1 F500.0 X-298.05
G1 F300.0 Z-0.6
G1 F500.0 X-156.75
G0 Z3.0
M5
M30
