( Made using CamBam - http://www.cambam.co.uk )
( cnc-legends-1 2020-05-24 05:24:11 )
( Post processor: Mach3-Laser )
G21 G90 G64 G40
G91.1
G0 Z3.0
( Engrave1 )
G17
S1000
G0 X-14.25 Y83.75
G0 Z1.3
G1 F300.0 Z-0.1
M11P1
G1 F800.0 X-12.25
G1 Y79.75
G1 X-14.25
M10P1
G0 Z3.0
G0 X-13.25 Y81.5
G0 Z1.3
G1 F300.0 Z-0.1
M11P1
G1 F800.0 X-16.25
G1 X-15.1893 Y82.5607
M10P1
G0 Z3.0
G0 X-14.8358 Y64.75
G0 Z1.3
G1 F300.0 Z-0.1
M11P1
G1 F800.0 X-16.25 Y63.3358
G1 X-12.25
M10P1
G0 Z3.0
G0 X-13.6642 Y60.75
G0 Z1.3
G1 F300.0 Z-0.1
M11P1
G1 F800.0 X-12.25 Y62.1642
G1 X-16.25
M10P1
G0 Z3.0
G0 X-15.75 Y45.75
G0 Z1.3
G1 F300.0 Z-0.1
M11P1
G1 F800.0 X-12.75
G1 X-15.75 Y41.75
G1 X-12.75
M10P1
G0 Z3.0
G0 X-10.25 Y29.25
G0 Z1.3
G1 F300.0 Z-0.1
M11P1
G1 F800.0 Y27.25
M10P1
G0 Z3.0
G0 Y26.45
G0 Z1.3
G1 F300.0 Z-0.1
M11P1
G1 F800.0 Y26.25
M10P1
G0 Z3.0
G0 X-14.25 Y23.75
G0 Z1.3
G1 F300.0 Z-0.1
M11P1
G1 F800.0 Y24.3358
G2 X-13.9167 Y24.8072 I0.5 J0.0
G3 X-15.25 Y25.75 I-0.3333 J0.9428
M10P1
G0 Z3.0
G0 X-14.25 Y22.95
G0 Z1.3
G1 F300.0 Z-0.1
M11P1
G1 F800.0 Y22.75
M10P1
G0 Z3.0
G0 X-14.8358 Y7.75
G0 Z1.3
G1 F300.0 Z-0.1
M11P1
G1 F800.0 X-16.25 Y6.3358
G1 X-14.25
G2 X-12.25 Y4.3358 I0.0 J-2.0
G1 Y3.75
M10P1
G0 Z3.0
G0 X-14.25
G0 Z1.3
G1 F300.0 Z-0.1
M11P1
G1 F800.0 X-16.25
M10P1
G0 Z3.0
G0 X13.75
G0 Z1.3
G1 F300.0 Z-0.1
M11P1
G3 F800.0 X14.25 Y4.25 I0.0 J0.5
G1 Y7.25
G2 X14.75 Y7.75 I0.5 J0.0
M10P1
G0 Z3.0
G0 X21.75 Y22.75
G0 Z1.3
G1 F300.0 Z-0.1
M11P1
G1 F800.0 X24.25
G3 X26.25 Y24.75 I0.0 J2.0
G1 Y26.25
G1 X24.8358 Y24.8358
M10P1
G0 Z3.0
G0 X31.75 Y7.75
G0 Z1.3
G1 F300.0 Z-0.1
M11P1
G1 F800.0 X34.75
M10P1
G0 Z3.0
G0 X34.25 Y3.7518
G0 Z1.3
G1 F300.0 Z-0.1
M11P1
G1 F800.0 X33.3107 Y3.75
G2 X32.3107 Y4.75 I0.0 J1.0
G1 Y6.75
G1 X31.25 Y5.6893
M10P1
G0 Z3.0
G0 X50.25 Y4.75
G0 Z1.3
G1 F300.0 Z-0.1
M11P1
G2 F800.0 X51.25 Y5.75 I1.0 J0.0
M10P1
G0 Z3.0
G0 X53.25
G0 Z1.3
G1 F300.0 Z-0.1
M11P1
G3 F800.0 X54.25 Y6.75 I0.0 J1.0
M10P1
G0 Z3.0
G0 X53.25 Y7.75
G0 Z1.3
G1 F300.0 Z-0.1
M11P1
G3 F800.0 X52.25 Y6.75 I0.0 J-1.0
G1 Y4.75
G2 X51.25 Y3.75 I-1.0 J0.0
M10P1
G0 Z3.0
G0 X51.0953 Y22.75
G0 Z1.3
G1 F300.0 Z-0.1
M11P1
G1 F800.0 X53.4047 Y26.75
M10P1
G0 Z3.0
G0 X55.384 Y29.25
G0 Z1.3
G1 F300.0 Z-0.1
M11P1
G1 F800.0 X57.116 Y26.25
M10P1
G0 Z3.0
G0 X69.75 Y26.75
G0 Z1.3
G1 F300.0 Z-0.1
M11P1
G1 F800.0 Y22.75
M10P1
G0 Z3.0
G0 X70.75 Y24.75
G0 Z1.3
G1 F300.0 Z-0.1
M11P1
G1 F800.0 X72.75
G1 Y22.75
M10P1
G0 Z3.0
G0 Y25.75
G0 Z1.3
G1 F300.0 Z-0.1
M11P1
G1 F800.0 Y26.75
M10P1
G0 Z3.0
G0 X71.25 Y41.75
G0 Z1.3
G1 F300.0 Z-0.1
M11P1
G1 F800.0 Y45.75
G1 X69.25
M10P1
G0 Z3.0
G0 X72.25
G0 Z1.3
G1 F300.0 Z-0.1
M11P1
G1 F800.0 X73.25
M10P1
G0 Z3.0
G0 X72.6642 Y61.3358
G0 Z1.3
G1 F300.0 Z-0.1
M11P1
G2 F800.0 Y64.1642 I-1.4142 J1.4142
M10P1
G0 Z3.0
G0 X70.1831 Y80.1161
G0 Z1.3
G1 F300.0 Z-0.1
M11P1
G3 F800.0 X71.0669 Y82.25 I0.8839 J0.8839
G1 X72.3169 Y83.75
G1 X70.1831
M10P1
G0 Z3.0
G0 X73.75 Y84.25
G0 Z1.3
G1 F300.0 Z-0.1
M11P1
G1 F800.0 X74.25
M10P1
G0 Z3.0
G0 X74.75
G0 Z1.3
G1 F300.0 Z-0.1
M11P1
G1 F800.0 X75.25
M10P1
G0 Z3.0
G0 X75.75
G0 Z1.3
G1 F300.0 Z-0.1
M11P1
G1 F800.0 Y83.25
M10P1
G0 Z3.0
G0 Y84.25
G0 Z0.9
G1 F300.0 Z-0.1
M11P1
G1 F800.0 X76.75
M10P1
G0 Z3.0
G0 Y85.25
G0 Z1.3
G1 F300.0 Z-0.1
M11P1
G1 F800.0 X76.25
M10P1
G0 Z3.0
G0 X75.75
G0 Z1.3
G1 F300.0 Z-0.1
M11P1
G1 F800.0 Y84.75
M10P1
G0 Z3.0
G0 Y85.25
G0 Z0.9
G1 F300.0 Z-0.1
M11P1
G1 F800.0 X75.25
M10P1
G0 Z3.0
G0 X74.75
G0 Z1.3
G1 F300.0 Z-0.1
M11P1
G1 F800.0 Y86.25
M10P1
G0 Z3.0
G0 X75.75
G0 Z1.3
G1 F300.0 Z-0.1
M11P1
G1 F800.0 Y85.75
M10P1
G0 Z3.0
G0 X74.75 Y85.25
G0 Z0.9
G1 F300.0 Z-0.1
M11P1
G1 F800.0 X73.75
M10P1
G0 Z3.0
G0 X74.75 Y84.75
G0 Z1.3
G1 F300.0 Z-0.1
M11P1
G1 F800.0 Y84.25
M10P1
G0 Z3.0
G0 Y83.75
G0 Z1.3
G1 F300.0 Z-0.1
M11P1
G1 F800.0 Y83.25
M10P1
G0 Z3.0
G0 X89.75 Y81.25
G0 Z1.3
G1 F300.0 Z-0.1
M11P1
G1 F800.0 X88.75
G1 X90.75 Y83.75
G1 Y79.75
M10P1
G0 Z3.0
G0 X93.5 Y83.25
G0 Z1.3
G1 F300.0 Z-0.1
M11P1
G1 F800.0 X94.25
G3 Y84.75 I0.0 J0.75
G2 Y86.25 I0.0 J0.75
G1 X95.0
M10P1
G0 Z3.0
G0 X94.25 Y85.75
G0 Z1.3
G1 F300.0 Z-0.1
M11P1
G1 F800.0 Y85.15
M10P1
G0 Z3.0
G0 Y84.35
G0 Z1.3
G1 F300.0 Z-0.1
M11P1
G1 F800.0 Y83.75
M10P1
G0 Z3.0
G0 X108.0345 Y80.5907
G0 Z1.3
G1 F300.0 Z-0.1
M11P1
G3 F800.0 X108.5738 Y82.0727 I1.1811 J0.4093
G1 X108.4612 Y82.0053
G2 X108.0841 Y82.2448 I-0.1284 J0.2145
G1 X108.2349 Y83.75
G1 X110.4655
M10P1
G0 Z3.0
G0 X112.384 Y83.25
G0 Z1.3
G1 F300.0 Z-0.1
M11P1
G1 F800.0 X114.116 Y86.25
M10P1
G0 Z3.0
G0 X112.884
G0 Z1.3
G1 F300.0 Z-0.1
M11P1
G3 F800.0 Y85.25 I0.0 J-0.5
M10P1
G0 Z3.0
G0 X113.616 Y84.25
G0 Z1.3
G1 F300.0 Z-0.1
M11P1
G2 F800.0 Y83.25 I0.0 J-0.5
M10P1
G0 Z3.0
G0 X110.75 Y64.75
G0 Z1.3
G1 F300.0 Z-0.1
M11P1
G1 F800.0 X108.75 Y62.75
G1 X110.75 Y60.75
M10P1
G0 Z3.0
G0 X107.75
G0 Z1.3
G1 F300.0 Z-0.1
M11P1
G1 F800.0 Y64.75
M10P1
G0 Z3.0
G0 X91.6642 Y64.1642
G0 Z1.3
G1 F300.0 Z-0.1
M11P1
G3 F800.0 X92.25 Y62.75 I-1.4142 J-1.4142
G1 X90.25
M10P1
G0 Z3.0
G0 Y45.75
G0 Z1.3
G1 F300.0 Z-0.1
M11P1
G1 F800.0 Y41.75
M10P1
G0 Z3.0
G0 X108.9912 Y41.267
G0 Z1.3
G1 F300.0 Z-0.1
M11P1
G1 F800.0 X109.25 Y42.233
M10P1
G0 Z3.0
G0 Y43.65
G0 Z1.3
G1 F300.0 Z-0.1
M11P1
G1 F800.0 Y43.85
M10P1
G0 Z3.0
G0 X113.25 Y45.25
G0 Z1.3
G1 F300.0 Z-0.1
M11P1
G1 F800.0 Y45.45
M10P1
G0 Z3.0
G0 Y46.65
G0 Z1.3
G1 F300.0 Z-0.1
M11P1
G1 F800.0 Y46.85
M10P1
G0 Z3.0
G0 X112.875 Y29.25
G0 Z1.3
G1 F300.0 Z-0.1
M11P1
G1 F800.0 X113.625
G1 Y26.25
G1 X112.875
M10P1
G0 Z3.0
G0 X109.75 Y26.75
G0 Z1.3
G1 F300.0 Z-0.1
M11P1
G1 F800.0 X108.75
G1 Y22.75
G1 X109.75
M10P1
G0 Z3.0
G0 X89.75
G0 Z1.3
G1 F300.0 Z-0.1
M11P1
G3 F800.0 Y26.75 I0.0 J2.0
G1 X88.75
G1 Y22.75
M10P1
G0 Z3.0
G0 X72.25 Y6.75
G0 Z1.3
G1 F300.0 Z-0.1
M11P1
G1 F800.0 X71.25 Y4.75
G1 X70.75 Y5.75
M10P1
G0 Z3.0
G0 X71.25 Y7.75
G0 Z1.3
G1 F300.0 Z-0.1
M11P1
G3 F800.0 X73.25 Y5.75 I0.0 J-2.0
M10P1
G0 Z3.0
G0 X54.25 Y41.75
G0 Z1.3
G1 F300.0 Z-0.1
M11P1
G1 F800.0 X53.5 Y43.25
G1 X52.0
M10P1
G0 Z3.0
G0 X53.0528 Y44.1444
G0 Z1.3
G1 F300.0 Z-0.1
M11P1
G1 F800.0 X52.25 Y45.75
G1 X50.25 Y41.75
M10P1
G0 Z3.0
G0 X35.2363 Y43.5163
G0 Z1.3
G1 F300.0 Z-0.1
M11P1
G3 F800.0 X35.25 Y43.75 I-1.9863 J0.2337
G3 X32.25 Y45.4821 I-2.0 J0.0
G3 Y42.0179 I1.0 J-1.7321
G3 X35.2363 Y43.5163 I1.0 J1.7321
M10P1
G0 Z3.0
G0 X17.875 Y45.25
G0 Z1.3
G1 F300.0 Z-0.1
M11P1
G3 F800.0 X18.25 Y45.625 I0.0 J0.375
G1 Y46.317
G2 X18.4375 Y46.6417 I0.375 J0.0
G1 X18.625 Y46.75
G1 X18.4375 Y46.8583
G2 X18.25 Y47.183 I0.1875 J0.3248
G1 Y47.875
G3 X17.875 Y48.25 I-0.375 J0.0
M10P1
G0 Z3.0
G0 X14.75 Y45.75
G0 Z1.3
G1 F300.0 Z-0.1
M11P1
G3 F800.0 X14.25 Y45.25 I0.0 J-0.5
G1 Y44.3274
G2 X14.0 Y43.8943 I-0.5 J0.0
G1 X13.75 Y43.75
G1 X14.0 Y43.6057
G2 X14.25 Y43.1726 I-0.25 J-0.433
G1 Y42.25
G3 X14.75 Y41.75 I0.5 J0.0
M10P1
G0 Z3.0
G0 X15.75 Y60.75
G0 Z1.3
G1 F300.0 Z-0.1
M11P1
G1 F800.0 X12.75
M10P1
G0 Z3.0
G0 X17.25 Y65.25
G0 Z1.3
G1 F300.0 Z-0.1
M11P1
G1 F800.0 X19.25
M10P1
G0 Z3.0
G0 X32.0 Y60.75
G0 Z1.3
G1 F300.0 Z-0.1
M11P1
G1 F800.0 Y64.75
G1 X34.5
M10P1
G0 Z3.0
G0 X34.0 Y62.75
G0 Z1.3
G1 F300.0 Z-0.1
M11P1
G1 F800.0 X33.0
M10P1
G0 Z3.0
G0 X33.25 Y79.75
G0 Z1.3
G1 F300.0 Z-0.1
M11P1
G1 F800.0 Y83.75
G1 X32.75
M10P1
G0 Z3.0
G0 X37.8995 Y84.0
G0 Z1.3
G1 F300.0 Z-0.1
M11P1
G1 F800.0 X36.6005 Y84.75
G1 X37.8995 Y85.5
M10P1
G0 Z3.0
G0 X51.019 Y82.2829
G0 Z1.3
G1 F300.0 Z-0.1
M11P1
G2 F800.0 X52.7707 Y81.3636 I1.231 J0.2171
G1 X51.7293 Y80.8864
G3 X51.0 Y79.75 I0.5207 J-1.1364
G1 X53.5
M10P1
G0 Z3.0
G0 X56.25 Y83.25
G0 Z1.3
G1 F300.0 Z-0.1
M11P1
G2 F800.0 X57.75 Y84.75 I0.0 J1.5
G2 X57.25 Y84.25 I-0.5 J0.0
G2 X56.75 Y84.75 I0.0 J0.5
G3 X56.25 Y84.25 I-0.5 J0.0
M10P1
G0 Z3.0
G0 X54.25 Y60.75
G0 Z1.3
G1 F300.0 Z-0.1
M11P1
G1 F800.0 Y64.75
G1 X52.25 Y62.75
G1 X50.25 Y64.75
G1 Y60.75
M10P1
G0 Z3.0
G0 X16.25 Y81.75
G0 Z1.3
G1 F300.0 Z-0.1
M11P1
G3 F800.0 X15.6642 Y80.3358 I-2.0 J0.0
G1 X14.25 Y81.75
M10P1
G0 Z3.0
M30
